; generated by PrusaSlicer 2.3.3+win64 on 2022-04-20 at 11:26:12 UTC

; 

; external perimeters extrusion width = 0.45mm
; perimeters extrusion width = 0.45mm
; infill extrusion width = 0.45mm
; solid infill extrusion width = 0.45mm
; top infill extrusion width = 0.40mm
; first layer extrusion width = 0.42mm

M73 P0 R6
M73 Q0 S6
M201 X1000 Y1000 Z200 E5000 ; sets maximum accelerations, mm/sec^2
M203 X200 Y200 Z12 E120 ; sets maximum feedrates, mm/sec
M204 P1250 R1250 T1250 ; sets acceleration (P, T) and retract acceleration (R), mm/sec^2
M205 X8.00 Y8.00 Z0.40 E4.50 ; sets the jerk limits, mm/sec
M205 S0 T0 ; sets the minimum extruding and travel feed rate, mm/sec
M107
;TYPE:Custom
M862.3 P "MK3S" ; printer model check
M862.1 P0.4 ; nozzle diameter check
M115 U3.10.0 ; tell printer latest fw version
G90 ; use absolute coordinates
M83 ; extruder relative mode
M104 S215 ; set extruder temp
M140 S60 ; set bed temp
M190 S60 ; wait for bed temp
M109 S215 ; wait for extruder temp
G28 W ; home all without mesh bed level
G80 ; mesh bed leveling
G1 Y-3.0 F1000.0 ; go outside print area
G92 E0.0
G1 X60.0 E9.0 F1000.0 ; intro line
M73 P1 R6
M73 Q1 S6
G1 X100.0 E12.5 F1000.0 ; intro line
G92 E0.0
M221 S95

; Don't change E values below. Excessive value can damage the printer.

G21 ; set units to millimeters
G90 ; use absolute coordinates
M83 ; use relative distances for extrusion
M900 K0.05 ; Filament gcode LA 1.5
M900 K30 ; Filament gcode LA 1.0
;LAYER_CHANGE
;Z:0.24
;HEIGHT:0.24
;BEFORE_LAYER_CHANGE
G92 E0.0
;0.24


G1 E-0.80000 F2100.000
G1 Z0.400 F10800.000
;AFTER_LAYER_CHANGE
;0.24
G1 X123.902 Y87.325
G1 Z0.240
M73 Q2 S6
G1 E0.80000 F2100.000
M204 S1000
;TYPE:Skirt
;WIDTH:0.42
G1 F1200.000
G1 X125.002 Y87.226 E0.04061
G1 X126.071 Y87.320 E0.03945
G1 X127.224 Y87.664 E0.04423
G1 X127.989 Y88.054 E0.03158
G1 X128.995 Y88.792 E0.04586
M73 P2 R6
G1 X129.995 Y89.800 E0.05222
G1 X131.663 Y91.733 E0.09386
G1 X133.001 Y93.473 E0.08072
G1 X134.330 Y95.425 E0.08681
G1 X136.870 Y99.744 E0.18425
G1 X138.056 Y102.094 E0.09677
G1 X139.066 Y104.426 E0.09344
G1 X139.687 Y106.168 E0.06802
G1 X140.152 Y107.916 E0.06650
G1 X140.420 Y109.624 E0.06358
G1 X140.480 Y110.731 E0.04073
G1 X140.414 Y112.238 E0.05548
G1 X140.209 Y113.647 E0.05235
G1 X140.000 Y114.466 E0.03109
G1 X139.603 Y115.511 E0.04110
G1 X139.014 Y116.599 E0.04549
G1 X138.449 Y117.407 E0.03626
G1 X137.550 Y118.432 E0.05011
G1 X136.469 Y119.394 E0.05320
G1 X135.522 Y120.077 E0.04293
G1 X134.222 Y120.832 E0.05528
G1 X131.960 Y121.743 E0.08965
G1 X130.439 Y122.137 E0.05777
G1 X128.771 Y122.430 E0.06226
G1 X126.174 Y122.719 E0.09610
G1 X125.000 Y122.774 E0.04321
G1 X123.826 Y122.720 E0.04319
G1 X121.240 Y122.432 E0.09569
G1 X119.583 Y122.142 E0.06185
G1 X117.961 Y121.718 E0.06162
G1 X115.699 Y120.791 E0.08988
G1 X114.401 Y120.026 E0.05543
G1 X113.494 Y119.365 E0.04126
G1 X112.416 Y118.397 E0.05325
G1 X111.524 Y117.372 E0.04997
G1 X110.962 Y116.561 E0.03630
G1 X110.379 Y115.472 E0.04542
G1 X109.985 Y114.419 E0.04130
G1 X109.781 Y113.599 E0.03110
G1 X109.581 Y112.188 E0.05240
M73 Q3 S6
G1 X109.520 Y110.696 E0.05488
G1 X109.589 Y109.530 E0.04294
G1 X109.871 Y107.806 E0.06427
G1 X110.353 Y106.041 E0.06724
M73 P3 R6
G1 X111.000 Y104.258 E0.06976
G1 X112.027 Y101.918 E0.09395
G1 X113.211 Y99.592 E0.09599
G1 X115.751 Y95.298 E0.18342
G1 X117.104 Y93.329 E0.08787
G1 X118.547 Y91.478 E0.08629
G1 X120.172 Y89.615 E0.09088
G1 X121.120 Y88.694 E0.04863
G1 X122.058 Y88.025 E0.04233
G1 X122.827 Y87.644 E0.03157
G1 X123.845 Y87.342 E0.03903
G1 X123.949 Y87.693 F10800.000
G1 F1200.000
G1 X125.003 Y87.595 E0.03892
G1 X126.003 Y87.682 E0.03690
G1 X127.095 Y88.010 E0.04190
G1 X128.080 Y88.549 E0.04132
G1 X128.765 Y89.081 E0.03190
G1 X129.722 Y90.047 E0.04999
G1 X131.378 Y91.967 E0.09323
G1 X132.704 Y93.691 E0.07996
G1 X134.027 Y95.634 E0.08641
G1 X136.544 Y99.915 E0.18262
G1 X137.722 Y102.249 E0.09612
G1 X138.723 Y104.561 E0.09264
G1 X139.334 Y106.274 E0.06686
G1 X139.792 Y107.995 E0.06550
G1 X140.054 Y109.664 E0.06211
G1 X140.111 Y110.730 E0.03925
G1 X140.047 Y112.204 E0.05424
G1 X139.847 Y113.577 E0.05101
G1 X139.650 Y114.352 E0.02941
G1 X139.270 Y115.353 E0.03937
G1 X138.700 Y116.406 E0.04404
G1 X138.160 Y117.178 E0.03463
G1 X137.287 Y118.173 E0.04866
G1 X136.238 Y119.107 E0.05166
G1 X135.322 Y119.767 E0.04151
G1 X134.049 Y120.506 E0.05413
M73 Q4 S6
G1 X131.853 Y121.390 E0.08704
G1 X130.358 Y121.777 E0.05678
G1 X128.716 Y122.066 E0.06130
M73 P4 R6
G1 X126.139 Y122.353 E0.09532
G1 X124.999 Y122.405 E0.04197
G1 X123.860 Y122.353 E0.04195
G1 X121.295 Y122.067 E0.09489
G1 X119.661 Y121.781 E0.06099
G1 X118.068 Y121.366 E0.06051
G1 X115.868 Y120.464 E0.08742
G1 X114.602 Y119.717 E0.05405
G1 X113.728 Y119.080 E0.03980
G1 X112.677 Y118.137 E0.05188
G1 X111.811 Y117.141 E0.04854
G1 X111.276 Y116.369 E0.03453
G1 X110.713 Y115.317 E0.04388
G1 X110.336 Y114.307 E0.03965
G1 X110.143 Y113.529 E0.02944
G1 X109.948 Y112.154 E0.05107
G1 X109.889 Y110.698 E0.05359
G1 X109.955 Y109.573 E0.04142
G1 X110.231 Y107.885 E0.06289
G1 X110.705 Y106.150 E0.06615
G1 X111.342 Y104.396 E0.06860
G1 X112.361 Y102.074 E0.09326
G1 X113.537 Y99.764 E0.09530
G1 X116.054 Y95.508 E0.18181
G1 X117.401 Y93.547 E0.08747
G1 X118.831 Y91.713 E0.08551
G1 X120.439 Y89.869 E0.08996
G1 X121.352 Y88.980 E0.04685
G1 X122.246 Y88.341 E0.04041
G1 X122.953 Y87.990 E0.02902
G1 X123.892 Y87.711 E0.03602
; printing object Batman guitar pick.STL id:0 copy 0
;WIPE_START
G1 F8640.000
G1 X125.003 Y87.595 E-0.25803
G1 X126.003 Y87.682 E-0.23174
G1 X127.095 Y88.010 E-0.26312
G1 X127.122 Y88.025 E-0.00711
;WIPE_END
G1 E-0.04000 F2100.000
G1 Z0.640 F10800.000
G1 X124.565 Y90.796
G1 Z0.240
G1 E0.80000 F2100.000
;TYPE:Perimeter
G1 F1200.000
G1 X124.809 Y90.765 E0.00904
G1 X125.086 Y90.762 E0.01018
G1 X125.414 Y90.793 E0.01211
G1 X125.647 Y90.847 E0.00879
G1 X125.904 Y90.942 E0.01009
G1 X126.121 Y91.052 E0.00893
G1 X126.401 Y91.236 E0.01232
G1 X126.660 Y91.444 E0.01221
G1 X127.224 Y92.004 E0.02922
G1 X128.111 Y93.005 E0.04919
G1 X128.915 Y93.954 E0.04572
M73 Q5 S6
G1 X129.498 Y94.686 E0.03442
G1 X130.138 Y95.544 E0.03934
G1 X130.762 Y96.434 E0.03999
G1 X131.374 Y97.359 E0.04078
G1 X131.975 Y98.316 E0.04156
G1 X133.165 Y100.341 E0.08634
M73 P5 R6
G1 X133.747 Y101.395 E0.04428
G1 X134.314 Y102.481 E0.04502
G1 X134.857 Y103.593 E0.04551
G1 X135.370 Y104.731 E0.04589
G1 X135.786 Y105.738 E0.04006
G1 X136.115 Y106.620 E0.03462
G1 X136.314 Y107.217 E0.02314
G1 X136.532 Y107.966 E0.02866
G1 X136.702 Y108.678 E0.02694
G1 X136.828 Y109.360 E0.02550
G1 X136.908 Y110.011 E0.02410
G1 X136.946 Y110.740 E0.02686
G1 X136.937 Y111.317 E0.02122
G1 X136.896 Y111.910 E0.02184
G1 X136.825 Y112.508 E0.02213
G1 X136.739 Y112.984 E0.01781
G1 X136.633 Y113.395 E0.01560
G1 X136.395 Y114.031 E0.02497
G1 X136.214 Y114.393 E0.01487
G1 X136.005 Y114.747 E0.01514
G1 X135.684 Y115.207 E0.02061
G1 X135.378 Y115.582 E0.01777
G1 X135.045 Y115.940 E0.01800
G1 X134.683 Y116.282 E0.01832
G1 X134.294 Y116.610 E0.01869
G1 X133.882 Y116.919 E0.01893
G1 X133.107 Y117.418 E0.03390
G1 X132.596 Y117.695 E0.02134
G1 X132.065 Y117.944 E0.02158
G1 X131.516 Y118.165 E0.02175
G1 X130.948 Y118.358 E0.02206
G1 X130.366 Y118.524 E0.02225
G1 X129.693 Y118.684 E0.02545
G1 X128.990 Y118.819 E0.02630
G1 X128.257 Y118.935 E0.02730
G1 X127.492 Y119.034 E0.02835
G1 X125.866 Y119.200 E0.06012
G1 X125.000 Y119.240 E0.03187
G1 X124.134 Y119.200 E0.03187
G1 X122.519 Y119.035 E0.05970
G1 X121.758 Y118.937 E0.02818
G1 X120.330 Y118.688 E0.05332
G1 X119.661 Y118.531 E0.02527
G1 X118.978 Y118.335 E0.02612
G1 X118.414 Y118.139 E0.02197
G1 X117.867 Y117.915 E0.02173
G1 X117.338 Y117.661 E0.02157
G1 X116.830 Y117.381 E0.02135
G1 X116.086 Y116.897 E0.03261
G1 X115.676 Y116.586 E0.01891
G1 X115.290 Y116.258 E0.01865
G1 X114.930 Y115.915 E0.01827
G1 X114.599 Y115.556 E0.01796
G1 X114.296 Y115.181 E0.01773
G1 X113.979 Y114.722 E0.02052
G1 X113.771 Y114.367 E0.01511
G1 X113.593 Y114.005 E0.01485
G1 X113.444 Y113.633 E0.01471
G1 X113.254 Y112.950 E0.02608
G1 X113.168 Y112.466 E0.01805
G1 X113.100 Y111.872 E0.02201
G1 X113.061 Y111.283 E0.02168
G1 X113.054 Y110.712 E0.02101
G1 X113.099 Y109.935 E0.02862
G1 X113.185 Y109.278 E0.02435
G1 X113.317 Y108.589 E0.02580
G1 X113.494 Y107.869 E0.02727
G1 X113.719 Y107.112 E0.02905
G1 X113.933 Y106.483 E0.02442
G1 X114.276 Y105.582 E0.03545
G1 X114.704 Y104.558 E0.04081
G1 X115.220 Y103.430 E0.04559
G1 X115.763 Y102.328 E0.04519
G1 X116.330 Y101.252 E0.04470
G1 X116.910 Y100.207 E0.04398
G1 X118.099 Y98.194 E0.08595
G1 X118.703 Y97.239 E0.04155
G1 X119.321 Y96.312 E0.04095
G1 X119.955 Y95.414 E0.04042
G1 X120.611 Y94.545 E0.04005
G1 X121.283 Y93.713 E0.03931
G1 X122.765 Y92.015 E0.08286
G1 X123.122 Y91.646 E0.01888
M73 Q6 S6
G1 X123.429 Y91.368 E0.01523
G1 X123.886 Y91.048 E0.02050
G1 X124.112 Y90.935 E0.00931
G1 X124.507 Y90.810 E0.01522
G1 X124.419 Y90.452 F10800.000
;TYPE:External perimeter
G1 F1200.000
G1 X124.783 Y90.397 E0.01355
G1 X125.101 Y90.393 E0.01167
G1 X125.473 Y90.428 E0.01375
G1 X125.753 Y90.493 E0.01056
G1 X126.052 Y90.604 E0.01173
G1 X126.305 Y90.733 E0.01045
G1 X126.618 Y90.937 E0.01374
G1 X126.906 Y91.169 E0.01358
G1 X127.492 Y91.750 E0.03036
M73 P6 R6
G1 X128.390 Y92.764 E0.04978
G1 X129.200 Y93.720 E0.04608
G1 X129.790 Y94.461 E0.03484
G1 X130.437 Y95.328 E0.03975
G1 X131.067 Y96.227 E0.04037
G1 X131.684 Y97.160 E0.04112
G1 X132.290 Y98.125 E0.04192
G1 X133.486 Y100.158 E0.08672
G1 X134.072 Y101.221 E0.04462
G1 X134.643 Y102.315 E0.04536
G1 X135.191 Y103.436 E0.04590
G1 X135.709 Y104.585 E0.04632
G1 X136.129 Y105.603 E0.04051
G1 X136.462 Y106.498 E0.03509
G1 X136.666 Y107.107 E0.02364
G1 X136.888 Y107.871 E0.02925
G1 X137.063 Y108.602 E0.02763
G1 X137.192 Y109.304 E0.02626
G1 X137.275 Y109.978 E0.02497
G1 X137.315 Y110.733 E0.02780
G1 X137.305 Y111.333 E0.02204
G1 X137.263 Y111.944 E0.02254
G1 X137.190 Y112.562 E0.02288
G1 X137.099 Y113.063 E0.01871
G1 X136.987 Y113.499 E0.01655
G1 X136.730 Y114.183 E0.02687
G1 X136.538 Y114.569 E0.01585
G1 X136.315 Y114.947 E0.01613
G1 X135.978 Y115.430 E0.02164
G1 X135.656 Y115.824 E0.01873
G1 X135.306 Y116.199 E0.01887
G1 X134.929 Y116.557 E0.01914
G1 X134.523 Y116.898 E0.01947
G1 X134.093 Y117.222 E0.01980
G1 X133.294 Y117.735 E0.03490
G1 X132.763 Y118.023 E0.02224
G1 X132.212 Y118.282 E0.02236
G1 X131.644 Y118.511 E0.02251
G1 X131.058 Y118.710 E0.02277
G1 X130.459 Y118.881 E0.02289
G1 X129.770 Y119.044 E0.02604
G1 X129.054 Y119.182 E0.02682
G1 X128.309 Y119.300 E0.02773
G1 X127.535 Y119.400 E0.02872
G1 X125.893 Y119.568 E0.06068
G1 X125.000 Y119.609 E0.03287
G1 X124.107 Y119.568 E0.03287
G1 X122.476 Y119.401 E0.06025
G1 X121.706 Y119.302 E0.02854
G1 X120.966 Y119.186 E0.02757
G1 X120.253 Y119.049 E0.02668
G1 X119.568 Y118.888 E0.02588
G1 X118.867 Y118.686 E0.02681
G1 X118.283 Y118.484 E0.02271
G1 X117.717 Y118.252 E0.02249
G1 X117.169 Y117.989 E0.02235
G1 X116.640 Y117.697 E0.02223
G1 X115.874 Y117.198 E0.03358
G1 X115.446 Y116.874 E0.01977
G1 X115.043 Y116.532 E0.01942
G1 X114.667 Y116.173 E0.01910
G1 X114.320 Y115.797 E0.01882
G1 X114.000 Y115.402 E0.01869
G1 X113.667 Y114.920 E0.02155
G1 X113.447 Y114.541 E0.01611
G1 X113.256 Y114.155 E0.01583
G1 X113.097 Y113.759 E0.01570
G1 X112.893 Y113.027 E0.02794
G1 X112.804 Y112.520 E0.01894
G1 X112.733 Y111.905 E0.02274
G1 X112.693 Y111.298 E0.02237
G1 X112.685 Y110.704 E0.02185
G1 X112.732 Y109.900 E0.02959
G1 X112.821 Y109.220 E0.02524
G1 X112.956 Y108.510 E0.02656
G1 X113.138 Y107.772 E0.02795
G1 X113.368 Y107.000 E0.02964
G1 X113.587 Y106.358 E0.02491
G1 X113.933 Y105.445 E0.03591
G1 X114.367 Y104.410 E0.04125
G1 X114.887 Y103.272 E0.04601
G1 X115.435 Y102.161 E0.04557
G1 X116.005 Y101.077 E0.04502
G1 X116.590 Y100.023 E0.04431
M73 Q7 S6
G1 X117.785 Y98.002 E0.08634
G1 X118.394 Y97.038 E0.04192
G1 X119.017 Y96.104 E0.04130
G1 X119.658 Y95.197 E0.04082
M73 P7 R6
G1 X120.321 Y94.318 E0.04049
G1 X121.000 Y93.478 E0.03972
G1 X122.494 Y91.765 E0.08358
G1 X122.865 Y91.381 E0.01963
G1 X123.193 Y91.085 E0.01624
G1 X123.447 Y90.891 E0.01173
G1 X123.704 Y90.727 E0.01121
G1 X123.965 Y90.596 E0.01074
G1 X124.361 Y90.467 E0.01531
G1 X124.669 Y90.723 F10800.000
;WIPE_START
G1 F8640.000
G1 X124.783 Y90.397 E-0.09887
G1 X125.101 Y90.393 E-0.07328
G1 X125.473 Y90.428 E-0.08634
G1 X125.753 Y90.493 E-0.06634
G1 X126.052 Y90.604 E-0.07367
G1 X126.305 Y90.733 E-0.06565
G1 X126.618 Y90.937 E-0.08626
G1 X126.906 Y91.169 E-0.08528
G1 X127.288 Y91.548 E-0.12432
;WIPE_END
G1 E-0.04000 F2100.000
G1 Z0.640 F10800.000
G1 X128.720 Y93.894
G1 Z0.240
G1 E0.80000 F2100.000
;TYPE:Solid infill
;WIDTH:0.425276
G1 F1200.000
G1 X126.475 Y91.651 E0.11836
G1 X126.238 Y91.460 E0.01135
G1 X125.982 Y91.292 E0.01142
G1 X125.793 Y91.196 E0.00791
G1 X125.567 Y91.112 E0.00899
G1 X125.363 Y91.065 E0.00781
G1 X129.653 Y95.356 E0.22627
G1 X130.534 Y96.590 E0.05656
G1 X130.876 Y97.108 E0.02315
G1 X124.812 Y91.044 E0.31984
G1 X124.615 Y91.068 E0.00740
G1 X124.373 Y91.133 E0.00934
G1 X131.795 Y98.555 E0.39145
G1 X132.549 Y99.838 E0.05550
G1 X124.009 Y91.298 E0.45044
G1 X123.695 Y91.512 E0.01418
G1 X133.251 Y101.068 E0.50400
M73 P8 R6
M73 Q8 S6
G1 X133.857 Y102.202 E0.04795
G1 X123.411 Y91.757 E0.55094
G1 X123.145 Y92.019 E0.01394
G1 X134.388 Y103.262 E0.59299
G1 X134.853 Y104.256 E0.04091
G1 X122.889 Y92.292 E0.63102
G1 X122.641 Y92.572 E0.01397
G1 X135.262 Y105.194 E0.66571
M73 Q9 S6
G1 X135.617 Y106.077 E0.03552
G1 X122.392 Y92.852 E0.69754
M73 P9 R6
G1 X122.144 Y93.133 E0.01397
G1 X135.919 Y106.908 E0.72656
G1 X136.160 Y107.677 E0.03006
G1 X121.900 Y93.417 E0.75212
G1 X121.656 Y93.702 E0.01398
G1 X136.351 Y108.397 E0.77503
M73 P10 R5
M73 Q10 S5
G1 X136.493 Y109.067 E0.02557
G1 X121.415 Y93.990 E0.79524
G1 X121.179 Y94.282 E0.01402
G1 X136.590 Y109.694 E0.81285
G1 X136.645 Y110.277 E0.02186
G1 X120.943 Y94.574 E0.82821
M73 P11 R5
M73 Q11 S5
G1 X120.711 Y94.871 E0.01405
G1 X136.669 Y110.829 E0.84165
G1 X136.658 Y111.347 E0.01932
G1 X120.484 Y95.173 E0.85308
G1 X120.257 Y95.474 E0.01408
G1 X136.624 Y111.841 E0.86327
M73 Q12 S5
G1 X136.570 Y112.316 E0.01781
G1 X120.035 Y95.781 E0.87210
M73 P12 R5
G1 X119.816 Y96.091 E0.01414
G1 X136.496 Y112.771 E0.87979
G1 X136.398 Y113.201 E0.01645
G1 X119.597 Y96.400 E0.88613
M73 Q13 S5
G1 X119.384 Y96.716 E0.01420
G1 X136.263 Y113.595 E0.89026
M73 P13 R5
G1 X136.114 Y113.974 E0.01520
G1 X119.173 Y97.033 E0.89354
G1 X118.961 Y97.350 E0.01422
G1 X135.934 Y114.323 E0.89521
M73 Q14 S5
G1 X135.734 Y114.652 E0.01435
G1 X118.756 Y97.673 E0.89552
M73 P14 R5
G1 X118.551 Y97.997 E0.01429
G1 X135.517 Y114.963 E0.89486
G1 X135.285 Y115.260 E0.01404
G1 X118.346 Y98.321 E0.89339
M73 Q15 S5
G1 X118.149 Y98.653 E0.01439
G1 X135.038 Y115.542 E0.89077
M73 P15 R5
G1 X134.779 Y115.811 E0.01394
G1 X117.953 Y98.985 E0.88745
G1 X117.757 Y99.317 E0.01439
G1 X134.507 Y116.068 E0.88349
M73 Q16 S5
G1 X134.221 Y116.310 E0.01399
G1 X117.560 Y99.649 E0.87874
M73 P16 R5
G1 X117.364 Y99.982 E0.01439
G1 X133.924 Y116.542 E0.87344
G1 X133.615 Y116.762 E0.01413
G1 X117.168 Y100.314 E0.86752
M73 Q17 S5
G1 X116.978 Y100.653 E0.01449
G1 X133.294 Y116.969 E0.86053
M73 P17 R5
G1 X132.972 Y117.176 E0.01427
G1 X116.790 Y100.993 E0.85351
G1 X116.601 Y101.333 E0.01450
G1 X132.630 Y117.362 E0.84541
G1 X132.278 Y117.539 E0.01468
G1 X116.418 Y101.678 E0.83653
M73 P18 R5
M73 Q18 S5
G1 X116.235 Y102.025 E0.01460
G1 X131.917 Y117.706 E0.82709
G1 X131.540 Y117.858 E0.01516
G1 X116.053 Y102.371 E0.81681
G1 X115.877 Y102.723 E0.01469
G1 X131.151 Y117.997 E0.80560
M73 P19 R5
M73 Q19 S5
G1 X130.751 Y118.127 E0.01565
G1 X115.702 Y103.077 E0.79376
G1 X115.527 Y103.431 E0.01472
G1 X130.340 Y118.244 E0.78128
G1 X129.915 Y118.347 E0.01633
G1 X115.359 Y103.791 E0.76773
M73 P20 R5
M73 Q20 S5
G1 X115.193 Y104.154 E0.01488
G1 X129.482 Y118.443 E0.75365
G1 X129.039 Y118.528 E0.01683
G1 X115.027 Y104.517 E0.73903
G1 X114.867 Y104.885 E0.01498
G1 X128.585 Y118.603 E0.72355
G1 X128.126 Y118.673 E0.01731
G1 X114.711 Y105.258 E0.70757
M73 P21 R5
M73 Q21 S5
G1 X114.555 Y105.630 E0.01506
G1 X127.658 Y118.734 E0.69111
G1 X127.184 Y118.787 E0.01782
