; generated by PrusaSlicer 2.3.3+win64 on 2022-04-20 at 10:23:43 UTC

; 

; external perimeters extrusion width = 0.45mm
; perimeters extrusion width = 0.45mm
; infill extrusion width = 0.45mm
; solid infill extrusion width = 0.45mm
; top infill extrusion width = 0.40mm
; first layer extrusion width = 0.42mm

M73 P0 R44
M73 Q0 S44
M201 X1000 Y1000 Z200 E5000 ; sets maximum accelerations, mm/sec^2
M203 X200 Y200 Z12 E120 ; sets maximum feedrates, mm/sec
M204 P1250 R1250 T1250 ; sets acceleration (P, T) and retract acceleration (R), mm/sec^2
M205 X8.00 Y8.00 Z0.40 E4.50 ; sets the jerk limits, mm/sec
M205 S0 T0 ; sets the minimum extruding and travel feed rate, mm/sec
M107
;TYPE:Custom
M862.3 P "MK3S" ; printer model check
M862.1 P0.4 ; nozzle diameter check
M115 U3.10.0 ; tell printer latest fw version
G90 ; use absolute coordinates
M83 ; extruder relative mode
M104 S215 ; set extruder temp
M140 S60 ; set bed temp
M190 S60 ; wait for bed temp
M109 S215 ; wait for extruder temp
G28 W ; home all without mesh bed level
G80 ; mesh bed leveling
G1 Y-3.0 F1000.0 ; go outside print area
G92 E0.0
G1 X60.0 E9.0 F1000.0 ; intro line
G1 X100.0 E12.5 F1000.0 ; intro line
G92 E0.0
M221 S95

; Don't change E values below. Excessive value can damage the printer.

G21 ; set units to millimeters
G90 ; use absolute coordinates
M83 ; use relative distances for extrusion
M900 K0.05 ; Filament gcode LA 1.5
M900 K30 ; Filament gcode LA 1.0
;LAYER_CHANGE
;Z:0.16
;HEIGHT:0.16
;BEFORE_LAYER_CHANGE
G92 E0.0
;0.16


G1 E-0.80000 F2100.000
G1 Z0.400 F10800.000
;AFTER_LAYER_CHANGE
;0.16
G1 X72.407 Y81.299
G1 Z0.160
G1 E0.80000 F2100.000
M204 S1000
;TYPE:Skirt
;WIDTH:0.42
G1 F1200.000
G1 X73.477 Y79.933 E0.04451
G1 X75.132 Y78.402 E0.05785
G1 X76.788 Y77.296 E0.05107
G1 X78.973 Y76.337 E0.06122
G1 X80.534 Y75.929 E0.04140
G1 X83.191 Y75.685 E0.06845
G1 X84.860 Y75.818 E0.04295
G1 X120.350 Y80.551 E0.91854
G1 X122.642 Y81.116 E0.06057
G1 X124.564 Y81.956 E0.05379
G1 X126.464 Y83.204 E0.05832
G1 X127.650 Y84.280 E0.04109
G1 X129.289 Y86.342 E0.06756
G1 X130.213 Y88.090 E0.05074
G1 X130.938 Y90.220 E0.05772
G1 X131.215 Y91.809 E0.04138
G1 X131.240 Y94.438 E0.06746
G1 X130.894 Y96.382 E0.05064
G1 X130.158 Y98.509 E0.05775
G1 X129.347 Y100.024 E0.04407
G1 X109.491 Y127.481 E0.86929
G1 X108.142 Y129.216 E0.05637
G1 X106.598 Y130.633 E0.05377
G1 X104.695 Y131.868 E0.05821
G1 X103.076 Y132.582 E0.04539
G1 X100.707 Y133.186 E0.06270
G1 X98.964 Y133.338 E0.04490
G1 X96.501 Y133.142 E0.06338
G1 X94.919 Y132.755 E0.04177
G1 X92.316 Y131.612 E0.07294
G1 X90.956 Y130.707 E0.04191
G1 X89.090 Y128.962 E0.06554
G1 X88.085 Y127.652 E0.04236
G1 X86.984 Y125.627 E0.05913
G1 X71.135 Y93.312 E0.92336
G1 X70.622 Y91.782 E0.04141
G1 X70.245 Y89.553 E0.05801
G1 X70.229 Y87.563 E0.05104
G1 X70.620 Y85.226 E0.06079
G1 X71.133 Y83.691 E0.04152
G1 X72.379 Y81.352 E0.06799
; printing object tomerRing.STL id:2 copy 0
;WIPE_START
G1 F8640.000
G1 X73.477 Y79.933 E-0.41430
G1 X74.576 Y78.916 E-0.34570
;WIPE_END
G1 E-0.04000 F2100.000
G1 Z0.560 F10800.000
G1 X75.749 Y82.849
G1 Z0.160
G1 E0.80000 F2100.000
;TYPE:External perimeter
G1 F1200.000
G1 X76.088 Y82.483 E0.01279
G1 X76.379 Y82.070 E0.01296
G1 X76.738 Y81.687 E0.01346
G1 X77.149 Y81.361 E0.01346
G1 X77.584 Y81.105 E0.01296
G1 X77.977 Y80.798 E0.01279
G1 X78.416 Y80.562 E0.01279
G1 X78.826 Y80.265 E0.01296
G1 X79.289 Y80.020 E0.01346
G1 X79.784 Y79.845 E0.01346
G1 X80.279 Y79.745 E0.01296
G1 X80.749 Y79.582 E0.01276
G1 X81.273 Y79.490 E0.01365
G1 X81.752 Y79.348 E0.01281
G1 X82.263 Y79.270 E0.01328
G1 X82.782 Y79.267 E0.01330
G1 X83.276 Y79.334 E0.01279
G1 X83.768 Y79.331 E0.01261
G1 X84.260 Y79.415 E0.01280
G1 X84.764 Y79.432 E0.01296
G1 X85.281 Y79.523 E0.01346
G1 X85.779 Y79.689 E0.01346
G1 X86.231 Y79.914 E0.01296
G1 X86.703 Y80.075 E0.01279
G1 X87.141 Y80.313 E0.01279
G1 X87.613 Y80.494 E0.01296
G1 X88.072 Y80.748 E0.01346
G1 X88.489 Y81.066 E0.01346
G1 X88.844 Y81.426 E0.01296
G1 X89.238 Y81.731 E0.01279
G1 X89.575 Y82.099 E0.01279
G1 X89.963 Y82.423 E0.01296
G1 X90.315 Y82.812 E0.01346
G1 X90.605 Y83.249 E0.01346
G1 X90.824 Y83.704 E0.01296
G1 X91.098 Y84.120 E0.01279
G1 X91.297 Y84.578 E0.01279
G1 X91.559 Y85.010 E0.01296
G1 X91.765 Y85.492 E0.01346
G1 X91.899 Y86.000 E0.01346
G1 X91.958 Y86.502 E0.01296
G1 X92.082 Y86.985 E0.01279
G1 X92.121 Y87.482 E0.01279
G1 X92.228 Y87.975 E0.01296
G1 X92.267 Y88.499 E0.01346
G1 X92.228 Y89.022 E0.01346
G1 X92.121 Y89.516 E0.01296
G1 X92.082 Y90.012 E0.01276
G1 X91.955 Y90.528 E0.01365
G1 X91.893 Y91.024 E0.01281
G1 X91.759 Y91.524 E0.01328
G1 X91.554 Y92.000 E0.01330
G1 X91.294 Y92.425 E0.01279
G1 X91.099 Y92.877 E0.01261
G1 X90.824 Y93.293 E0.01280
G1 X90.605 Y93.749 E0.01296
G1 X90.315 Y94.185 E0.01346
G1 X89.963 Y94.575 E0.01346
G1 X89.575 Y94.898 E0.01296
G1 X89.238 Y95.266 E0.01279
G1 X88.844 Y95.571 E0.01279
G1 X88.489 Y95.931 E0.01296
G1 X88.072 Y96.250 E0.01346
G1 X87.613 Y96.503 E0.01346
G1 X87.141 Y96.684 E0.01296
G1 X86.703 Y96.923 E0.01279
G1 X86.231 Y97.083 E0.01279
G1 X85.779 Y97.308 E0.01296
G1 X85.281 Y97.474 E0.01346
G1 X84.764 Y97.565 E0.01346
G1 X84.260 Y97.582 E0.01296
G1 X83.768 Y97.666 E0.01279
G1 X83.269 Y97.664 E0.01279
G1 X82.768 Y97.730 E0.01296
G1 X82.244 Y97.726 E0.01346
G1 X81.725 Y97.644 E0.01346
G1 X81.242 Y97.496 E0.01296
G1 X80.750 Y97.416 E0.01279
G1 X80.279 Y97.253 E0.01279
G1 X79.784 Y97.152 E0.01296
G1 X79.289 Y96.977 E0.01346
G1 X78.826 Y96.732 E0.01346
G1 X78.416 Y96.436 E0.01296
G1 X77.978 Y96.200 E0.01276
G1 X77.556 Y95.877 E0.01365
G1 X77.127 Y95.620 E0.01281
G1 X76.723 Y95.297 E0.01328
G1 X76.369 Y94.918 E0.01330
G1 X76.084 Y94.509 E0.01279
G1 X75.749 Y94.149 E0.01261
G1 X75.478 Y93.730 E0.01280
G1 X75.149 Y93.347 E0.01296
G1 X74.866 Y92.905 E0.01346
G1 X74.651 Y92.427 E0.01346
G1 X74.510 Y91.942 E0.01296
G1 X74.308 Y91.485 E0.01279
G1 X74.187 Y91.002 E0.01279
G1 X74.000 Y90.532 E0.01296
G1 X73.876 Y90.023 E0.01346
G1 X73.828 Y89.500 E0.01346
G1 X73.852 Y88.995 E0.01296
G1 X73.810 Y88.499 E0.01279
G1 X73.852 Y88.002 E0.01279
G1 X73.828 Y87.497 E0.01296
G1 X73.876 Y86.975 E0.01346
G1 X74.000 Y86.465 E0.01346
G1 X74.187 Y85.996 E0.01296
G1 X74.308 Y85.512 E0.01279
G1 X74.510 Y85.056 E0.01279
G1 X74.651 Y84.571 E0.01296
G1 X74.866 Y84.092 E0.01346
G1 X75.149 Y83.650 E0.01346
G1 X75.478 Y83.267 E0.01296
G1 X75.717 Y82.899 E0.01125
G1 X75.618 Y82.471 F10800.000
;WIPE_START
G1 F8640.000
G1 X76.088 Y82.483 E-0.12882
M73 P0 R43
G1 X76.379 Y82.070 E-0.11664
G1 X76.738 Y81.687 E-0.12115
G1 X77.149 Y81.361 E-0.12115
G1 X77.584 Y81.105 E-0.11664
G1 X77.977 Y80.798 E-0.11515
G1 X78.131 Y80.715 E-0.04045
;WIPE_END
G1 E-0.04000 F2100.000
G1 Z0.560 F10800.000
G1 X81.564 Y79.002
G1 Z0.160
G1 E0.80000 F2100.000
;TYPE:Perimeter
G1 F1200.000
G1 X81.573 Y78.993 E0.00032
;WIPE_START
G1 F8640.000
G1 X81.573 Y78.993 E0.00000
;WIPE_END
G1 E-0.80000 F2100.000
G1 Z0.560 F10800.000
G1 X79.764 Y79.456
G1 Z0.160
G1 E0.80000 F2100.000
G1 F1200.000
G1 X79.763 Y79.456 E0.00004
;WIPE_START
G1 F8640.000
G1 X79.763 Y79.456 E0.00000
;WIPE_END
G1 E-0.80000 F2100.000
G1 Z0.560 F10800.000
G1 X77.003 Y80.999
G1 Z0.160
G1 E0.80000 F2100.000
G1 F1200.000
G1 X77.002 Y81.000 E0.00003
;WIPE_START
G1 F8640.000
G1 X77.002 Y81.000 E0.00000
;WIPE_END
G1 E-0.80000 F2100.000
G1 Z0.560 F10800.000
G1 X74.894 Y83.355
G1 Z0.160
G1 E0.80000 F2100.000
G1 F1200.000
G1 X74.893 Y83.356 E0.00004
;WIPE_START
G1 F8640.000
G1 X74.893 Y83.356 E0.00000
;WIPE_END
G1 E-0.80000 F2100.000
G1 Z0.560 F10800.000
G1 X73.663 Y86.269
G1 Z0.160
G1 E0.80000 F2100.000
G1 F1200.000
G1 X73.663 Y86.270 E0.00003
;WIPE_START
G1 F8640.000
G1 X73.663 Y86.270 E0.00000
;WIPE_END
G1 E-0.80000 F2100.000
G1 Z0.560 F10800.000
G1 X73.446 Y89.424
G1 Z0.160
G1 E0.80000 F2100.000
G1 F1200.000
G1 X73.446 Y89.425 E0.00004
;WIPE_START
G1 F8640.000
G1 X73.446 Y89.425 E0.00000
;WIPE_END
G1 E-0.80000 F2100.000
G1 Z0.560 F10800.000
G1 X74.264 Y92.479
G1 Z0.160
G1 E0.80000 F2100.000
G1 F1200.000
G1 X74.264 Y92.480 E0.00003
;WIPE_START
G1 F8640.000
G1 X74.264 Y92.480 E0.00000
;WIPE_END
G1 E-0.80000 F2100.000
G1 Z0.560 F10800.000
G1 X76.969 Y95.975
G1 Z0.160
G1 E0.80000 F2100.000
G1 F1200.000
G1 X76.981 Y95.982 E0.00034
;WIPE_START
G1 F8640.000
G1 X76.981 Y95.982 E0.00000
;WIPE_END
G1 E-0.80000 F2100.000
G1 Z0.560 F10800.000
G1 X78.552 Y97.010
G1 Z0.160
G1 E0.80000 F2100.000
G1 F1200.000
G1 X78.560 Y97.015 E0.00023
;WIPE_START
G1 F8640.000
G1 X78.560 Y97.015 E0.00000
;WIPE_END
G1 E-0.80000 F2100.000
G1 Z0.560 F10800.000
G1 X81.558 Y97.996
G1 Z0.160
G1 E0.80000 F2100.000
G1 F1200.000
G1 X81.559 Y97.996 E0.00004
;WIPE_START
G1 F8640.000
G1 X81.559 Y97.996 E0.00000
;WIPE_END
G1 E-0.80000 F2100.000
G1 Z0.560 F10800.000
G1 X84.720 Y97.952
G1 Z0.160
G1 E0.80000 F2100.000
G1 F1200.000
G1 X84.721 Y97.952 E0.00003
;WIPE_START
G1 F8640.000
G1 X84.721 Y97.952 E0.00000
;WIPE_END
G1 E-0.80000 F2100.000
G1 Z0.560 F10800.000
G1 X87.697 Y96.884
G1 Z0.160
G1 E0.80000 F2100.000
G1 F1200.000
G1 X87.698 Y96.884 E0.00004
;WIPE_START
G1 F8640.000
G1 X87.698 Y96.884 E0.00000
;WIPE_END
G1 E-0.80000 F2100.000
G1 Z0.560 F10800.000
G1 X90.166 Y94.908
G1 Z0.160
G1 E0.80000 F2100.000
G1 F1200.000
G1 X90.167 Y94.907 E0.00003
;WIPE_START
G1 F8640.000
G1 X90.167 Y94.907 E0.00000
;WIPE_END
G1 E-0.80000 F2100.000
G1 Z0.560 F10800.000
G1 X92.281 Y91.026
G1 Z0.160
G1 E0.80000 F2100.000
G1 F1200.000
G1 X92.283 Y91.013 E0.00034
;WIPE_START
G1 F8640.000
G1 X92.283 Y91.013 E0.00000
;WIPE_END
G1 E-0.80000 F2100.000
G1 Z0.560 F10800.000
G1 X92.593 Y89.160
G1 Z0.160
G1 E0.80000 F2100.000
G1 F1200.000
G1 X92.593 Y89.159 E0.00004
;WIPE_START
G1 F8640.000
G1 X92.593 Y89.159 E0.00000
;WIPE_END
G1 E-0.80000 F2100.000
G1 Z0.560 F10800.000
G1 X90.978 Y83.134
G1 Z0.160
G1 E0.80000 F2100.000
G1 F1200.000
G1 X90.978 Y83.132 E0.00004
;WIPE_START
G1 F8640.000
G1 X90.978 Y83.132 E0.00000
;WIPE_END
G1 E-0.80000 F2100.000
G1 Z0.560 F10800.000
G1 X88.804 Y80.836
G1 Z0.160
G1 E0.80000 F2100.000
G1 F1200.000
G1 X88.803 Y80.835 E0.00004
;WIPE_START
G1 F8640.000
G1 X88.803 Y80.835 E0.00000
;WIPE_END
G1 E-0.80000 F2100.000
G1 Z0.560 F10800.000
G1 X86.002 Y79.370
G1 Z0.160
G1 E0.80000 F2100.000
G1 F1200.000
G1 X86.001 Y79.369 E0.00003
;WIPE_START
G1 F8640.000
G1 X86.001 Y79.369 E0.00000
;WIPE_END
G1 E-0.80000 F2100.000
G1 Z0.560 F10800.000
G1 X83.583 Y79.007
G1 Z0.160
M73 Q1 S44
G1 E0.80000 F2100.000
;TYPE:External perimeter
G1 F1200.000
G1 X83.796 Y78.990 E0.00549
G1 X84.005 Y79.042 E0.00552
G1 X84.520 Y78.721 E0.01558
G1 X84.642 Y78.618 E0.00409
G1 X85.658 Y78.887 E0.02695
G1 X86.277 Y79.030 E0.01630
M73 P1 R43
G1 X86.378 Y79.268 E0.00663
G1 X86.634 Y79.708 E0.01306
G1 X86.841 Y79.761 E0.00549
G1 X87.021 Y79.878 E0.00552
G1 X87.613 Y79.742 E0.01558
G1 X87.762 Y79.684 E0.00409
G1 X88.635 Y80.268 E0.02695
G1 X89.174 Y80.605 E0.01630
G1 X89.193 Y80.862 E0.00663
G1 X89.292 Y81.362 E0.01306
G1 X89.471 Y81.479 E0.00549
G1 X89.603 Y81.648 E0.00552
G1 X90.207 Y81.711 E0.01558
G1 X90.366 Y81.705 E0.00409
G1 X91.002 Y82.541 E0.02695
G1 X91.403 Y83.034 E0.01630
G1 X91.337 Y83.284 E0.00663
G1 X91.268 Y83.789 E0.01306
G1 X91.400 Y83.957 E0.00549
G1 X91.470 Y84.161 E0.00551
G1 X92.021 Y84.416 E0.01558
G1 X92.171 Y84.462 E0.00404
G1 X92.722 Y86.056 E0.04328
G1 X92.579 Y86.271 E0.00663
G1 X92.350 Y86.726 E0.01306
G1 X92.420 Y86.928 E0.00549
G1 X92.420 Y87.143 E0.00552
G1 X92.858 Y87.564 E0.01558
G1 X92.987 Y87.657 E0.00409
G1 X92.976 Y88.707 E0.02695
M73 Q1 S43
G1 X92.989 Y89.343 E0.01630
G1 X92.784 Y89.499 E0.00663
G1 X92.420 Y89.855 E0.01306
G1 X92.420 Y90.069 E0.00549
G1 X92.350 Y90.272 E0.00552
G1 X92.628 Y90.813 E0.01558
G1 X92.720 Y90.943 E0.00409
G1 X92.368 Y91.933 E0.02695
G1 X92.174 Y92.538 E0.01630
G1 X91.929 Y92.619 E0.00663
G1 X91.469 Y92.838 E0.01306
G1 X91.400 Y93.040 E0.00549
G1 X91.268 Y93.210 E0.00552
G1 X91.355 Y93.811 E0.01558
G1 X91.400 Y93.964 E0.00409
G1 X90.746 Y94.786 E0.02695
G1 X90.366 Y95.295 E0.01630
G1 X90.108 Y95.293 E0.00663
G1 X89.602 Y95.350 E0.01306
G1 X89.471 Y95.519 E0.00549
G1 X89.291 Y95.636 E0.00552
G1 X89.178 Y96.233 E0.01558
G1 X89.171 Y96.392 E0.00409
G1 X88.285 Y96.957 E0.02695
G1 X87.761 Y97.316 E0.01630
G1 X87.517 Y97.230 E0.00663
G1 X87.020 Y97.120 E0.01306
G1 X86.841 Y97.237 E0.00549
G1 X86.633 Y97.289 E0.00552
G1 X86.332 Y97.817 E0.01558
G1 X86.274 Y97.966 E0.00409
G1 X85.253 Y98.212 E0.02695
G1 X84.640 Y98.381 E0.01630
G1 X84.438 Y98.221 E0.00663
G1 X84.004 Y97.955 E0.01306
G1 X83.796 Y98.008 E0.00549
G1 X83.582 Y97.990 E0.00552
G1 X83.127 Y98.392 E0.01558
G1 X83.023 Y98.513 E0.00409
G1 X81.977 Y98.415 E0.02695
G1 X81.343 Y98.376 E0.01630
G1 X81.204 Y98.158 E0.00663
G1 X80.879 Y97.766 E0.01306
G1 X80.666 Y97.748 E0.00549
G1 X80.469 Y97.662 E0.00552
G1 X79.908 Y97.894 E0.01558
G1 X79.771 Y97.975 E0.00408
G1 X78.882 Y97.573 E0.02503
G1 X78.226 Y97.300 E0.01822
G1 X78.165 Y97.049 E0.00664
G1 X77.985 Y96.572 E0.01306
G1 X77.790 Y96.487 E0.00549
G1 X77.631 Y96.341 E0.00552
G1 X77.025 Y96.378 E0.01558
G1 X76.869 Y96.410 E0.00409
G1 X76.104 Y95.691 E0.02695
G1 X75.627 Y95.270 E0.01630
G1 X75.651 Y95.013 E0.00663
G1 X75.636 Y94.504 E0.01306
G1 X75.479 Y94.359 E0.00549
G1 X75.376 Y94.170 E0.00552
G1 X74.791 Y94.009 E0.01558
G1 X74.633 Y93.988 E0.00409
G1 X74.143 Y93.059 E0.02695
G1 X73.829 Y92.507 E0.01630
G1 X73.935 Y92.271 E0.00663
G1 X74.085 Y91.785 E0.01306
G1 X73.984 Y91.597 E0.00549
G1 X73.948 Y91.385 E0.00552
G1 X73.447 Y91.042 E0.01558
G1 X73.304 Y90.971 E0.00409
G1 X73.142 Y89.933 E0.02695
G1 X73.025 Y89.309 E0.01630
G1 X73.201 Y89.120 E0.00663
G1 X73.502 Y88.710 E0.01306
G1 X73.467 Y88.499 E0.00549
G1 X73.502 Y88.287 E0.00552
G1 X73.139 Y87.800 E0.01558
G1 X73.027 Y87.686 E0.00409
G1 X73.211 Y86.652 E0.02695
G1 X73.302 Y86.023 E0.01630
G1 X73.531 Y85.902 E0.00663
G1 X73.948 Y85.611 E0.01306
G1 X73.984 Y85.400 E0.00549
G1 X74.086 Y85.211 E0.00552
G1 X73.901 Y84.633 E0.01558
G1 X73.832 Y84.489 E0.00409
G1 X74.341 Y83.571 E0.02695
G1 X74.632 Y83.006 E0.01630
G1 X74.887 Y82.966 E0.00663
G1 X75.377 Y82.826 E0.01306
G1 X75.479 Y82.638 E0.00549
G1 X75.637 Y82.492 E0.00552
G1 X75.650 Y81.885 E0.01558
G1 X75.631 Y81.727 E0.00409
G1 X76.411 Y81.024 E0.02695
G1 X76.869 Y80.584 E0.01630
G1 X77.124 Y80.629 E0.00663
G1 X77.632 Y80.656 E0.01306
G1 X77.790 Y80.511 E0.00549
G1 X77.986 Y80.424 E0.00552
G1 X78.196 Y79.854 E0.01558
G1 X78.229 Y79.698 E0.00409
G1 X79.196 Y79.287 E0.02695
G1 X79.772 Y79.019 E0.01630
G1 X79.998 Y79.144 E0.00663
G1 X80.470 Y79.335 E0.01306
G1 X80.666 Y79.249 E0.00549
G1 X80.880 Y79.231 E0.00552
G1 X81.263 Y78.760 E0.01558
G1 X81.346 Y78.623 E0.00409
G1 X82.393 Y78.548 E0.02695
G1 X83.025 Y78.482 E0.01630
G1 X83.198 Y78.674 E0.00663
G1 X83.538 Y78.968 E0.01152
G1 X83.652 Y79.210 F10800.000
G1 X82.663 Y78.894
;TYPE:Gap fill
;WIDTH:0.377367
G1 F1200.000
G1 X82.247 Y78.914 E0.00950
;WIDTH:0.359332
G1 X81.789 Y78.965 E0.00997
;WIPE_START
G1 F8640.000
G1 X82.247 Y78.914 E-0.10648
;WIPE_END
G1 E-0.69352 F2100.000
G1 Z0.560 F10800.000
G1 X79.555 Y79.531
G1 Z0.160
G1 E0.80000 F2100.000
;WIDTH:0.37766
G1 F1200.000
G1 X79.157 Y79.689 E0.00978
;WIDTH:0.359951
G1 X78.750 Y79.883 E0.00977
;WIPE_START
G1 F8640.000
G1 X79.157 Y79.689 E-0.10413
;WIPE_END
G1 E-0.69587 F2100.000
G1 Z0.560 F10800.000
G1 X76.830 Y81.138
G1 Z0.160
G1 E0.80000 F2100.000
;WIDTH:0.377659
G1 F1200.000
G1 X76.506 Y81.417 E0.00978
;WIDTH:0.35995
G1 X76.183 Y81.732 E0.00977
;WIPE_START
G1 F8640.000
G1 X76.506 Y81.417 E-0.10413
;WIPE_END
G1 E-0.69587 F2100.000
G1 Z0.560 F10800.000
G1 X74.775 Y83.543
G1 Z0.160
G1 E0.80000 F2100.000
;WIDTH:0.377659
G1 F1200.000
G1 X74.559 Y83.912 E0.00978
;WIDTH:0.35995
G1 X74.356 Y84.315 E0.00977
;WIPE_START
G1 F8640.000
G1 X74.559 Y83.912 E-0.10413
;WIPE_END
G1 E-0.69587 F2100.000
G1 Z0.560 F10800.000
G1 X73.612 Y86.485
G1 Z0.160
G1 E0.80000 F2100.000
;WIDTH:0.377658
G1 F1200.000
G1 X73.527 Y86.904 E0.00978
;WIDTH:0.359948
G1 X73.466 Y87.351 E0.00977
;WIPE_START
G1 F8640.000
G1 X73.527 Y86.904 E-0.10413
;WIPE_END
G1 E-0.69587 F2100.000
G1 Z0.560 F10800.000
G1 X73.467 Y89.645
G1 Z0.160
G1 E0.80000 F2100.000
;WIDTH:0.359948
G1 F1200.000
