; generated by PrusaSlicer 2.3.3+win64 on 2022-04-20 at 11:26:58 UTC

; 

; external perimeters extrusion width = 0.45mm
; perimeters extrusion width = 0.45mm
; infill extrusion width = 0.45mm
; solid infill extrusion width = 0.45mm
; top infill extrusion width = 0.40mm
; first layer extrusion width = 0.42mm

M73 P0 R30
M73 Q0 S30
M201 X1000 Y1000 Z200 E5000 ; sets maximum accelerations, mm/sec^2
M203 X200 Y200 Z12 E120 ; sets maximum feedrates, mm/sec
M204 P1250 R1250 T1250 ; sets acceleration (P, T) and retract acceleration (R), mm/sec^2
M205 X8.00 Y8.00 Z0.40 E4.50 ; sets the jerk limits, mm/sec
M205 S0 T0 ; sets the minimum extruding and travel feed rate, mm/sec
M107
;TYPE:Custom
M862.3 P "MK3S" ; printer model check
M862.1 P0.4 ; nozzle diameter check
M115 U3.10.0 ; tell printer latest fw version
G90 ; use absolute coordinates
M83 ; extruder relative mode
M104 S215 ; set extruder temp
M140 S60 ; set bed temp
M190 S60 ; wait for bed temp
M109 S215 ; wait for extruder temp
G28 W ; home all without mesh bed level
G80 ; mesh bed leveling
G1 Y-3.0 F1000.0 ; go outside print area
G92 E0.0
G1 X60.0 E9.0 F1000.0 ; intro line
G1 X100.0 E12.5 F1000.0 ; intro line
G92 E0.0
M221 S95

; Don't change E values below. Excessive value can damage the printer.

G21 ; set units to millimeters
G90 ; use absolute coordinates
M83 ; use relative distances for extrusion
M900 K0.05 ; Filament gcode LA 1.5
M900 K30 ; Filament gcode LA 1.0
;LAYER_CHANGE
;Z:0.16
;HEIGHT:0.16
;BEFORE_LAYER_CHANGE
G92 E0.0
;0.16


G1 E-0.80000 F2100.000
G1 Z0.400 F10800.000
;AFTER_LAYER_CHANGE
;0.16
G1 X113.459 Y94.309
G1 Z0.160
G1 E0.80000 F2100.000
M204 S1000
;TYPE:Skirt
;WIDTH:0.42
G1 F1200.000
G1 X115.521 Y92.419 E0.07176
G1 X117.174 Y91.322 E0.05089
G1 X119.968 Y90.056 E0.07869
G1 X122.281 Y89.444 E0.06140
G1 X125.316 Y89.194 E0.07812
G1 X127.678 Y89.415 E0.06086
G1 X130.388 Y90.108 E0.07177
G1 X132.214 Y90.894 E0.05100
G1 X134.925 Y92.627 E0.08254
G1 X136.583 Y94.147 E0.05770
G1 X138.435 Y96.528 E0.07740
G1 X139.554 Y98.647 E0.06147
G1 X140.514 Y101.560 E0.07867
G1 X140.827 Y103.515 E0.05081
G1 X140.833 Y106.298 E0.07139
G1 X140.462 Y108.682 E0.06188
G1 X139.462 Y111.582 E0.07871
G1 X138.409 Y113.511 E0.05637
G1 X136.424 Y116.014 E0.08196
G1 X134.787 Y117.470 E0.05619
G1 X132.452 Y118.988 E0.07145
G1 X130.631 Y119.801 E0.05117
G1 X127.531 Y120.617 E0.08222
G1 X125.311 Y120.806 E0.05717
G1 X122.286 Y120.557 E0.07787
G1 X119.960 Y119.941 E0.06172
G1 X117.412 Y118.817 E0.07146
G1 X115.734 Y117.737 E0.05121
G1 X113.352 Y115.586 E0.08233
G1 X111.952 Y113.789 E0.05843
G1 X110.452 Y110.959 E0.08216
G1 X109.775 Y108.874 E0.05624
G1 X109.323 Y106.127 E0.07141
G1 X109.310 Y104.145 E0.05085
G1 X109.806 Y100.969 E0.08247
G1 X110.510 Y98.892 E0.05627
G1 X111.968 Y96.185 E0.07889
G1 X113.421 Y94.356 E0.05993
G1 X113.720 Y94.593 F10800.000
G1 F1200.000
G1 X115.763 Y92.719 E0.07112
G1 X117.385 Y91.645 E0.04990
G1 X120.118 Y90.411 E0.07693
G1 X122.348 Y89.824 E0.05916
G1 X125.316 Y89.580 E0.07640
G1 X127.589 Y89.791 E0.05855
G1 X130.270 Y90.475 E0.07099
G1 X132.059 Y91.247 E0.04999
G1 X134.698 Y92.938 E0.08041
G1 X136.298 Y94.407 E0.05572
G1 X138.113 Y96.740 E0.07583
G1 X139.189 Y98.773 E0.05902
G1 X140.133 Y101.623 E0.07701
G1 X140.442 Y103.544 E0.04992
G1 X140.447 Y106.298 E0.07065
G1 X140.089 Y108.586 E0.05941
G1 X139.110 Y111.425 E0.07704
G1 X138.091 Y113.293 E0.05459
G1 X136.158 Y115.734 E0.07987
G1 X134.576 Y117.147 E0.05442
G1 X132.266 Y118.650 E0.07071
G1 X130.480 Y119.446 E0.05015
G1 X127.460 Y120.238 E0.08011
G1 X125.311 Y120.420 E0.05533
G1 X122.348 Y120.176 E0.07626
G1 X120.111 Y119.586 E0.05935
G1 X117.589 Y118.474 E0.07070
G1 X115.948 Y117.416 E0.05009
G1 X113.627 Y115.316 E0.08031
G1 X112.277 Y113.581 E0.05640
G1 X110.814 Y110.825 E0.08005
G1 X110.156 Y108.810 E0.05437
G1 X109.707 Y106.089 E0.07076
G1 X109.695 Y104.145 E0.04985
G1 X110.182 Y101.056 E0.08024
G1 X110.865 Y99.040 E0.05459
G1 X112.292 Y96.395 E0.07711
G1 X113.683 Y94.640 E0.05745
; printing object tomerRing.STL id:0 copy 0
;WIPE_START
G1 F8640.000
G1 X115.763 Y92.719 E-0.65377
G1 X116.147 Y92.465 E-0.10623
;WIPE_END
G1 E-0.04000 F2100.000
G1 Z0.560 F10800.000
G1 X116.626 Y97.213
G1 Z0.160
G1 E0.80000 F2100.000
;TYPE:External perimeter
G1 F1200.000
G1 X117.307 Y96.546 E0.02445
G1 X118.017 Y95.930 E0.02410
G1 X118.791 Y95.359 E0.02468
G1 X119.623 Y94.881 E0.02462
G1 X120.047 Y94.668 E0.01217
G1 X120.904 Y94.293 E0.02400
G1 X121.347 Y94.125 E0.01217
G1 X122.263 Y93.836 E0.02462
G1 X123.234 Y93.649 E0.02537
G1 X123.699 Y93.588 E0.01204
G1 X124.622 Y93.512 E0.02375
G1 X125.091 Y93.498 E0.01205
G1 X126.041 Y93.523 E0.02437
G1 X126.993 Y93.657 E0.02468
M73 Q1 S30
G1 X127.911 Y93.860 E0.02410
G1 X128.814 Y94.118 E0.02410
G1 X129.716 Y94.454 E0.02468
G1 X130.571 Y94.889 E0.02462
G1 X130.981 Y95.128 E0.01217
G1 X131.764 Y95.639 E0.02400
M73 P1 R30
G1 X132.147 Y95.919 E0.01217
G1 X132.889 Y96.527 E0.02462
G1 X133.559 Y97.218 E0.02468
G1 X134.158 Y97.942 E0.02410
G1 X134.712 Y98.700 E0.02410
G1 X135.218 Y99.519 E0.02468
G1 X135.626 Y100.388 E0.02462
G1 X135.803 Y100.828 E0.01217
G1 X136.106 Y101.713 E0.02400
G1 X136.237 Y102.168 E0.01217
G1 X136.449 Y103.105 E0.02462
G1 X136.553 Y104.061 E0.02468
G1 X136.581 Y105.000 E0.02410
G1 X136.553 Y105.939 E0.02410
G1 X136.449 Y106.896 E0.02468
G1 X136.230 Y107.860 E0.02537
G1 X136.099 Y108.311 E0.01204
G1 X135.798 Y109.186 E0.02375
G1 X135.622 Y109.621 E0.01205
G1 X135.218 Y110.481 E0.02437
G1 X134.714 Y111.298 E0.02462
G1 X134.442 Y111.686 E0.01217
G1 X133.867 Y112.425 E0.02400
G1 X133.557 Y112.783 E0.01217
G1 X132.889 Y113.473 E0.02462
G1 X132.146 Y114.083 E0.02468
G1 X131.375 Y114.620 E0.02410
G1 X130.573 Y115.110 E0.02410
G1 X129.716 Y115.546 E0.02468
G1 X128.816 Y115.881 E0.02462
G1 X128.363 Y116.021 E0.01217
G1 X127.456 Y116.250 E0.02400
G1 X126.991 Y116.343 E0.01217
G1 X126.041 Y116.477 E0.02462
G1 X125.081 Y116.501 E0.02462
G1 X124.607 Y116.487 E0.01217
G1 X123.675 Y116.409 E0.02400
G1 X123.205 Y116.346 E0.01217
G1 X122.263 Y116.164 E0.02462
G1 X121.345 Y115.875 E0.02468
G1 X120.474 Y115.523 E0.02410
G1 X119.625 Y115.120 E0.02410
G1 X118.791 Y114.641 E0.02468
G1 X117.996 Y114.053 E0.02537
G1 X117.636 Y113.752 E0.01204
G1 X116.955 Y113.125 E0.02375
G1 X116.627 Y112.789 E0.01205
G1 X116.002 Y112.073 E0.02437
G1 X115.457 Y111.284 E0.02462
G1 X115.210 Y110.879 E0.01217
G1 X114.764 Y110.056 E0.02400
G1 X114.561 Y109.628 E0.01217
G1 X114.198 Y108.739 E0.02462
G1 X113.938 Y107.813 E0.02468
G1 X113.755 Y106.891 E0.02410
G1 X113.629 Y105.960 E0.02410
G1 X113.574 Y105.000 E0.02468
G1 X113.628 Y104.042 E0.02462
G1 X113.682 Y103.571 E0.01217
G1 X113.836 Y102.648 E0.02400
G1 X113.938 Y102.185 E0.01217
G1 X114.198 Y101.261 E0.02462
G1 X114.561 Y100.372 E0.02462
G1 X114.764 Y99.944 E0.01217
G1 X115.210 Y99.121 E0.02400
G1 X115.457 Y98.716 E0.01217
G1 X116.002 Y97.927 E0.02462
G1 X116.587 Y97.258 E0.02279
G1 X116.509 Y96.830 F10800.000
;WIPE_START
G1 F8640.000
G1 X117.307 Y96.546 E-0.23392
G1 X118.017 Y95.930 E-0.21695
G1 X118.791 Y95.359 E-0.22212
G1 X119.118 Y95.171 E-0.08701
;WIPE_END
G1 E-0.04000 F2100.000
G1 Z0.560 F10800.000
G1 X123.030 Y93.296
G1 Z0.160
G1 E0.80000 F2100.000
;TYPE:Perimeter
G1 F1200.000
G1 X123.236 Y92.932 E0.01073
G1 X124.942 Y92.791 E0.04393
G1 X125.219 Y93.116 E0.01094
G1 X124.600 Y93.127 E0.01587
G1 X123.658 Y93.205 E0.02424
G1 X123.088 Y93.285 E0.01476
;WIPE_START
G1 F8640.000
G1 X123.236 Y92.932 E-0.08823
G1 X124.942 Y92.791 E-0.39535
G1 X125.219 Y93.116 E-0.09850
G1 X124.600 Y93.127 E-0.14284
G1 X124.449 Y93.140 E-0.03508
;WIPE_END
G1 E-0.04000 F2100.000
G1 Z0.560 F10800.000
G1 X126.942 Y93.261
G1 Z0.160
G1 E0.80000 F2100.000
G1 F1200.000
G1 X127.255 Y92.984 E0.01071
G1 X128.915 Y93.404 E0.04393
G1 X129.071 Y93.802 E0.01097
G1 X128.005 Y93.486 E0.02851
G1 X127.002 Y93.269 E0.02635
;WIPE_START
G1 F8640.000
G1 X127.255 Y92.984 E-0.08801
G1 X128.915 Y93.404 E-0.39535
G1 X129.071 Y93.802 E-0.09870
G1 X128.332 Y93.583 E-0.17794
;WIPE_END
G1 E-0.04000 F2100.000
G1 Z0.560 F10800.000
G1 X130.654 Y94.498
G1 Z0.160
G1 E0.80000 F2100.000
G1 F1200.000
G1 X131.039 Y94.338 E0.01071
G1 X132.473 Y95.275 E0.04393
G1 X132.491 Y95.702 E0.01097
G1 X131.983 Y95.322 E0.01626
G1 X131.184 Y94.799 E0.02451
G1 X130.707 Y94.525 E0.01410
;WIPE_START
G1 F8640.000
G1 X131.039 Y94.338 E-0.08801
G1 X132.473 Y95.275 E-0.39535
G1 X132.491 Y95.702 E-0.09870
G1 X131.983 Y95.322 E-0.14638
G1 X131.869 Y95.247 E-0.03155
;WIPE_END
G1 E-0.04000 F2100.000
G1 Z0.560 F10800.000
G1 X133.762 Y96.874
G1 Z0.160
G1 E0.80000 F2100.000
G1 F1200.000
G1 X134.179 Y96.848 E0.01071
G1 X135.230 Y98.199 E0.04393
G1 X135.109 Y98.609 E0.01097
G1 X134.462 Y97.705 E0.02851
G1 X133.804 Y96.917 E0.02635
;WIPE_START
G1 F8640.000
G1 X134.179 Y96.848 E-0.08801
G1 X135.230 Y98.199 E-0.39535
G1 X135.109 Y98.609 E-0.09870
G1 X134.661 Y97.982 E-0.17794
;WIPE_END
G1 E-0.04000 F2100.000
G1 Z0.560 F10800.000
G1 X135.931 Y100.130
G1 Z0.160
G1 E0.80000 F2100.000
G1 F1200.000
G1 X136.333 Y100.241 E0.01069
G1 X136.889 Y101.860 E0.04393
G1 X136.641 Y102.208 E0.01096
G1 X136.474 Y101.597 E0.01626
G1 X136.164 Y100.693 E0.02451
G1 X135.956 Y100.184 E0.01410
;WIPE_START
G1 F8640.000
G1 X136.333 Y100.241 E-0.08789
G1 X136.889 Y101.860 E-0.39543
G1 X136.641 Y102.208 E-0.09867
G1 X136.474 Y101.597 E-0.14638
G1 X136.430 Y101.467 E-0.03163
;WIPE_END
G1 E-0.04000 F2100.000
G1 Z0.560 F10800.000
G1 X136.925 Y103.914
G1 Z0.160
G1 E0.80000 F2100.000
G1 F1200.000
G1 X137.269 Y104.149 E0.01071
G1 X137.269 Y105.861 E0.04393
G1 X136.922 Y106.110 E0.01097
G1 X136.967 Y105.000 E0.02851
G1 X136.931 Y103.974 E0.02635
;WIPE_START
G1 F8640.000
G1 X137.269 Y104.149 E-0.08801
G1 X137.269 Y105.861 E-0.39535
G1 X136.922 Y106.110 E-0.09870
G1 X136.953 Y105.340 E-0.17794
;WIPE_END
G1 E-0.04000 F2100.000
G1 Z0.560 F10800.000
G1 X136.635 Y107.815
G1 Z0.160
G1 E0.80000 F2100.000
G1 F1200.000
G1 X136.886 Y108.150 E0.01073
G1 X136.330 Y109.770 E0.04393
G1 X135.921 Y109.892 E0.01094
G1 X136.159 Y109.321 E0.01587
G1 X136.466 Y108.427 E0.02424
G1 X136.622 Y107.873 E0.01476
;WIPE_START
G1 F8640.000
G1 X136.886 Y108.150 E-0.08822
G1 X136.330 Y109.770 E-0.39535
G1 X135.921 Y109.892 E-0.09850
G1 X136.159 Y109.321 E-0.14284
G1 X136.209 Y109.177 E-0.03508
;WIPE_END
G1 E-0.04000 F2100.000
G1 Z0.560 F10800.000
G1 X135.096 Y111.412
G1 Z0.160
G1 E0.80000 F2100.000
G1 F1200.000
G1 X135.224 Y111.810 E0.01071
G1 X134.172 Y113.161 E0.04393
G1 X133.745 Y113.144 E0.01097
G1 X134.166 Y112.669 E0.01626
G1 X134.752 Y111.915 E0.02451
G1 X135.065 Y111.463 E0.01410
;WIPE_START
G1 F8640.000
G1 X135.224 Y111.810 E-0.08801
G1 X134.172 Y113.161 E-0.39535
G1 X133.745 Y113.144 E-0.09870
G1 X134.166 Y112.669 E-0.14638
G1 X134.250 Y112.562 E-0.03156
;WIPE_END
G1 E-0.04000 F2100.000
G1 Z0.560 F10800.000
G1 X132.472 Y114.314
G1 Z0.160
G1 E0.80000 F2100.000
G1 F1200.000
G1 X132.463 Y114.731 E0.01071
G1 X131.030 Y115.668 E0.04393
G1 X130.632 Y115.513 E0.01097
G1 X131.586 Y114.943 E0.02851
G1 X132.426 Y114.352 E0.02635
;WIPE_START
G1 F8640.000
G1 X132.463 Y114.731 E-0.08801
G1 X131.030 Y115.668 E-0.39535
G1 X130.632 Y115.513 E-0.09870
G1 X131.293 Y115.118 E-0.17794
;WIPE_END
G1 E-0.04000 F2100.000
G1 Z0.560 F10800.000
G1 X129.048 Y116.206
G1 Z0.160
G1 E0.80000 F2100.000
G1 F1200.000
G1 X128.904 Y116.598 E0.01071
G1 X127.245 Y117.019 E0.04393
G1 X126.918 Y116.743 E0.01097
G1 X127.541 Y116.627 E0.01626
G1 X128.467 Y116.392 E0.02451
G1 X128.992 Y116.227 E0.01410
;WIPE_START
G1 F8640.000
G1 X128.904 Y116.598 E-0.08801
G1 X127.245 Y117.019 E-0.39535
G1 X126.918 Y116.743 E-0.09870
G1 X127.541 Y116.627 E-0.14639
G1 X127.674 Y116.593 E-0.03155
;WIPE_END
G1 E-0.04000 F2100.000
G1 Z0.560 F10800.000
G1 X125.195 Y116.884
G1 Z0.160
G1 E0.80000 F2100.000
G1 F1200.000
G1 X124.932 Y117.208 E0.01071
G1 X123.225 Y117.067 E0.04393
G1 X123.006 Y116.700 E0.01097
G1 X123.633 Y116.793 E0.01626
G1 X124.585 Y116.872 E0.02451
G1 X125.135 Y116.886 E0.01410
;WIPE_START
G1 F8640.000
G1 X124.932 Y117.208 E-0.08801
G1 X123.225 Y117.067 E-0.39535
G1 X123.006 Y116.700 E-0.09870
G1 X123.633 Y116.793 E-0.14639
G1 X123.769 Y116.804 E-0.03155
;WIPE_END
G1 E-0.04000 F2100.000
G1 Z0.560 F10800.000
G1 X121.330 Y116.274
G1 Z0.160
G1 E0.80000 F2100.000
G1 F1200.000
G1 X120.976 Y116.495 E0.01070
G1 X119.408 Y115.808 E0.04393
G1 X119.320 Y115.390 E0.01097
G1 X120.319 Y115.877 E0.02851
G1 X121.273 Y116.256 E0.02635
;WIPE_START
G1 F8640.000
G1 X120.976 Y116.495 E-0.08798
G1 X119.408 Y115.808 E-0.39536
G1 X119.320 Y115.390 E-0.09871
G1 X120.013 Y115.727 E-0.17795
;WIPE_END
G1 E-0.04000 F2100.000
G1 Z0.560 F10800.000
G1 X117.874 Y114.443
G1 Z0.160
G1 E0.80000 F2100.000
G1 F1200.000
G1 X117.467 Y114.537 E0.01073
G1 X116.207 Y113.377 E0.04393
G1 X116.259 Y112.954 E0.01094
G1 X116.686 Y113.402 E0.01587
G1 X117.381 Y114.042 E0.02424
G1 X117.826 Y114.407 E0.01476
;WIPE_START
G1 F8640.000
G1 X117.467 Y114.537 E-0.08823
G1 X116.207 Y113.377 E-0.39535
G1 X116.259 Y112.954 E-0.09850
G1 X116.686 Y113.402 E-0.14284
G1 X116.798 Y113.504 E-0.03508
;WIPE_END
G1 E-0.04000 F2100.000
G1 Z0.560 F10800.000
G1 X115.198 Y111.588
G1 Z0.160
G1 E0.80000 F2100.000
G1 F1200.000
G1 X114.783 Y111.545 E0.01071
G1 X113.968 Y110.039 E0.04393
G1 X114.155 Y109.655 E0.01097
G1 X114.421 Y110.231 E0.01626
G1 X114.875 Y111.071 E0.02451
G1 X115.164 Y111.539 E0.01410
;WIPE_START
G1 F8640.000
G1 X114.783 Y111.545 E-0.08801
G1 X113.968 Y110.039 E-0.39535
G1 X114.155 Y109.655 E-0.09870
G1 X114.421 Y110.231 E-0.14638
G1 X114.486 Y110.351 E-0.03156
;WIPE_END
G1 E-0.04000 F2100.000
G1 Z0.560 F10800.000
G1 X113.595 Y108.019
G1 Z0.160
G1 E0.80000 F2100.000
G1 F1200.000
G1 X113.216 Y107.844 E0.01071
G1 X112.934 Y106.155 E0.04393
G1 X113.236 Y105.852 E0.01097
G1 X113.375 Y106.955 E0.02851
G1 X113.579 Y107.961 E0.02635
;WIPE_START
G1 F8640.000
G1 X113.216 Y107.844 E-0.08801
G1 X112.934 Y106.155 E-0.39535
G1 X113.236 Y105.852 E-0.09870
G1 X113.332 Y106.617 E-0.17794
;WIPE_END
G1 E-0.04000 F2100.000
G1 Z0.560 F10800.000
G1 X113.237 Y104.123
G1 Z0.160
G1 E0.80000 F2100.000
G1 F1200.000
G1 X112.936 Y103.834 E0.01071
G1 X113.218 Y102.146 E0.04393
G1 X113.602 Y101.957 E0.01097
G1 X113.457 Y102.575 E0.01626
G1 X113.300 Y103.517 E0.02451
G1 X113.241 Y104.063 E0.01410
;WIPE_START
G1 F8640.000
G1 X112.936 Y103.834 E-0.08801
G1 X113.218 Y102.146 E-0.39535
G1 X113.602 Y101.957 E-0.09870
G1 X113.457 Y102.575 E-0.14639
G1 X113.435 Y102.709 E-0.03155
;WIPE_END
G1 E-0.04000 F2100.000
G1 Z0.560 F10800.000
G1 X114.164 Y100.322
G1 Z0.160
G1 E0.80000 F2100.000
G1 F1200.000
G1 X113.973 Y99.951 E0.01071
G1 X114.788 Y98.445 E0.04393
G1 X115.212 Y98.392 E0.01097
G1 X114.875 Y98.929 E0.01626
G1 X114.421 Y99.769 E0.02451
G1 X114.187 Y100.267 E0.01410
;WIPE_START
G1 F8640.000
G1 X113.973 Y99.951 E-0.08801
G1 X114.788 Y98.445 E-0.39535
G1 X115.212 Y98.392 E-0.09870
G1 X114.875 Y98.929 E-0.14638
G1 X114.810 Y99.049 E-0.03155
;WIPE_END
G1 E-0.04000 F2100.000
G1 Z0.560 F10800.000
G1 X116.275 Y97.028
G1 Z0.160
G1 E0.80000 F2100.000
G1 F1200.000
G1 X116.215 Y96.615 E0.01071
G1 X117.474 Y95.456 E0.04393
G1 X117.893 Y95.543 E0.01097
G1 X117.046 Y96.262 E0.02851
G1 X116.315 Y96.983 E0.02635
;WIPE_START
G1 F8640.000
G1 X116.215 Y96.615 E-0.08801
G1 X117.474 Y95.456 E-0.39535
G1 X117.893 Y95.543 E-0.09870
G1 X117.305 Y96.041 E-0.17794
;WIPE_END
G1 E-0.04000 F2100.000
G1 Z0.560 F10800.000
G1 X119.341 Y94.598
G1 Z0.160
G1 E0.80000 F2100.000
G1 F1200.000
G1 X119.418 Y94.188 E0.01071
G1 X120.986 Y93.500 E0.04393
G1 X121.354 Y93.718 E0.01097
G1 X120.758 Y93.935 E0.01626
G1 X119.883 Y94.319 E0.02451
G1 X119.393 Y94.568 E0.01410
;WIPE_START
G1 F8640.000
G1 X119.418 Y94.188 E-0.08801
G1 X120.986 Y93.500 E-0.39535
G1 X121.354 Y93.718 E-0.09870
G1 X120.758 Y93.935 E-0.14638
G1 X120.633 Y93.990 E-0.03155
;WIPE_END
G1 E-0.04000 F2100.000
G1 Z0.560 F10800.000
G1 X125.772 Y93.153
G1 Z0.160
G1 E0.80000 F2100.000
;TYPE:External perimeter
G1 F1200.000
G1 X126.073 Y93.136 E0.00772
G1 X126.347 Y93.198 E0.00722
G1 X126.575 Y93.069 E0.00673
G1 X127.138 Y92.557 E0.01952
G1 X129.215 Y93.083 E0.05497
