; generated by PrusaSlicer 2.4.1+win64 on 2022-09-02 at 21:48:45 UTC

; 

; external perimeters extrusion width = 0.45mm
; perimeters extrusion width = 0.45mm
; infill extrusion width = 0.45mm
; solid infill extrusion width = 0.45mm
; top infill extrusion width = 0.40mm
; support material extrusion width = 0.35mm
; first layer extrusion width = 0.42mm

; external perimeters extrusion width = 0.45mm
; perimeters extrusion width = 0.45mm
; infill extrusion width = 0.45mm
; solid infill extrusion width = 0.45mm
; top infill extrusion width = 0.40mm
; support material extrusion width = 0.35mm
; first layer extrusion width = 0.42mm

; external perimeters extrusion width = 0.45mm
; perimeters extrusion width = 0.45mm
; infill extrusion width = 0.45mm
; solid infill extrusion width = 0.45mm
; top infill extrusion width = 0.40mm
; support material extrusion width = 0.35mm
; first layer extrusion width = 0.42mm

; external perimeters extrusion width = 0.45mm
; perimeters extrusion width = 0.45mm
; infill extrusion width = 0.45mm
; solid infill extrusion width = 0.45mm
; top infill extrusion width = 0.40mm
; support material extrusion width = 0.35mm
; first layer extrusion width = 0.42mm

M73 P0 R115
M73 Q0 S116
M107
;TYPE:Custom
M862.3 P "MK3S" ; printer model check
M862.1 P0.4 ; nozzle diameter check
M115 U3.10.0 ; tell printer latest fw version
G90 ; use absolute coordinates
M83 ; extruder relative mode
M104 S215 ; set extruder temp
M140 S60 ; set bed temp
M190 S60 ; wait for bed temp
M109 S215 ; wait for extruder temp
G28 W ; home all without mesh bed level
G80 ; mesh bed leveling
G1 Y-3.0 F1000.0 ; go outside print area
G92 E0.0
G1 X60.0 E9.0 F1000.0 ; intro line
G1 X100.0 E12.5 F1000.0 ; intro line
G92 E0.0
M221 S95

; Don't change E values below. Excessive value can damage the printer.

G21 ; set units to millimeters
G90 ; use absolute coordinates
M83 ; use relative distances for extrusion
M900 K0.05 ; Filament gcode LA 1.5
M900 K30 ; Filament gcode LA 1.0
M107
;LAYER_CHANGE
;Z:0.24
;HEIGHT:0.24
;BEFORE_LAYER_CHANGE
G92 E0.0
;0.24


G1 E-.8 F2100
M73 P0 R114
M73 Q0 S115
G1 Z.4 F10800
;AFTER_LAYER_CHANGE
;0.24
G1 X67.786 Y48.166
G1 Z.24
G1 E.8 F2100
M204 S1000
;TYPE:Skirt/Brim
;WIDTH:0.42
G1 F1200
G1 X70.594 Y44.724 E.15023
G1 X71.721 Y43.961 E.04607
G1 X72.429 Y43.853 E.02421
G1 X185.749 Y43.853 E3.83329
G1 X186.84 Y44.119 E.03801
G1 X190.32 Y45.927 E.13264
G1 X190.903 Y46.354 E.02445
G1 X192.538 Y47.988 E.07819
G1 X193.231 Y49.663 E.06132
G1 X193.231 Y105.344 E1.88354
G1 X193.181 Y105.83 E.01654
G1 X179.753 Y169.828 E2.21199
G1 X179.11 Y171.016 E.04571
G1 X177.475 Y172.65 E.07819
G1 X175.801 Y173.344 E.06132
G1 X161.647 Y173.344 E.47878
G1 X161.072 Y173.273 E.01958
G1 X68.789 Y150.203 E3.21775
G1 X61.693 Y147.845 E.25294
G1 X60.768 Y147.273 E.03682
G1 X59.133 Y145.638 E.07819
G1 X58.44 Y143.963 E.06132
G1 X58.447 Y134.241 E.32888
G1 X64.423 Y56.98 E2.62132
G1 X64.57 Y56.325 E.02271
G1 X67.407 Y48.825 E.27125
G1 X67.756 Y48.218 E.02371
; printing object BigTriangleSTL.STL id:0 copy 0
;WIPE_START
G1 F8640
G1 X69.831 Y45.663 E-.76
;WIPE_END
G1 E-.04 F2100
G1 Z.64 F10800
G1 X81.93 Y48.028
G1 Z.24
G1 E.8 F2100
;TYPE:Support material
G1 F1200
G1 X176.247 Y48.028 E3.19049
G1 X176.247 Y46.221 E.06113
G1 X185.749 Y46.221 E.3214
G1 X185.749 Y48.028 E.06113
G1 X189.229 Y48.028 E.11771
G1 X190.863 Y49.663 E.07819
G1 X190.863 Y105.344 E1.88354
G1 X189.229 Y106.978 E.07819
G1 X175.075 Y106.978 E.47878
G1 X173.44 Y105.344 E.07819
G1 X173.44 Y104.671 E.02276
G1 X170.461 Y104.671 E.1008
G1 X168.826 Y103.037 E.07819
G1 X168.826 Y102.364 E.02276
G1 X165.846 Y102.364 E.1008
G1 X164.212 Y100.73 E.07819
G1 X164.212 Y100.057 E.02276
G1 X158.925 Y100.057 E.17884
G1 X157.291 Y98.423 E.07819
G1 X157.291 Y97.75 E.02276
G1 X154.311 Y97.75 E.1008
G1 X152.677 Y96.116 E.07819
G1 X152.677 Y95.443 E.02276
G1 X147.39 Y95.443 E.17884
G1 X145.755 Y93.809 E.07819
G1 X145.755 Y93.136 E.02276
G1 X142.776 Y93.136 E.1008
G1 X141.141 Y91.502 E.07819
G1 X141.141 Y90.829 E.02276
G1 X138.161 Y90.829 E.1008
G1 X136.527 Y89.194 E.07819
G1 X136.527 Y88.522 E.02276
G1 X131.24 Y88.522 E.17884
G1 X129.606 Y86.887 E.07819
G1 X129.606 Y86.215 E.02276
G1 X126.626 Y86.215 E.1008
G1 X124.992 Y84.58 E.07819
G1 X124.992 Y83.908 E.02276
G1 X119.705 Y83.908 E.17884
G1 X118.07 Y82.273 E.07819
G1 X118.07 Y81.601 E.02276
G1 X115.091 Y81.601 E.1008
G1 X113.456 Y79.966 E.07819
G1 X113.456 Y79.293 E.02276
G1 X110.477 Y79.293 E.1008
G1 X108.842 Y77.659 E.07819
G1 X108.842 Y76.986 E.02276
G1 X103.555 Y76.986 E.17884
G1 X101.921 Y75.352 E.07819
G1 X101.921 Y74.679 E.02276
G1 X98.941 Y74.679 E.1008
G1 X97.307 Y73.045 E.07819
G1 X97.307 Y72.372 E.02276
G1 X92.02 Y72.372 E.17884
G1 X90.386 Y70.738 E.07819
G1 X90.386 Y70.065 E.02276
G1 X87.406 Y70.065 E.1008
G1 X85.771 Y68.431 E.07819
G1 X85.771 Y67.758 E.02276
G1 X82.792 Y67.758 E.1008
G1 X81.157 Y66.124 E.07819
G1 X81.157 Y65.451 E.02276
G1 X75.87 Y65.451 E.17884
G1 X74.236 Y63.817 E.07819
G1 X74.236 Y63.144 E.02276
G1 X71.256 Y63.144 E.1008
G1 X69.622 Y61.51 E.07819
G1 X69.622 Y49.663 E.40074
G1 X71.256 Y48.028 E.07819
G1 X72.429 Y48.028 E.03967
G1 X72.429 Y46.221 E.06113
G1 X81.93 Y46.221 E.3214
G1 X81.93 Y47.973 E.05926
;WIPE_START
G1 F8640
G1 X81.93 Y46.221 E-.4045
G1 X80.391 Y46.221 E-.3555
;WIPE_END
G1 E-.04 F2100
G1 Z.64 F10800
G1 X137.8 Y63.144
G1 Z.24
G1 E.8 F2100
G1 F1200
G1 X137.8 Y73.406 E.34715
G1 X140.78 Y73.406 E.1008
G1 X142.414 Y75.041 E.07819
G1 X142.414 Y75.713 E.02276
G1 X147.701 Y75.713 E.17884
G1 X149.335 Y77.348 E.07819
G1 X149.335 Y78.021 E.02276
G1 X152.315 Y78.021 E.1008
G1 X153.95 Y79.655 E.07819
G1 X153.95 Y80.328 E.02276
G1 X156.929 Y80.328 E.1008
G1 X158.564 Y81.962 E.07819
G1 X158.564 Y82.635 E.02276
G1 X163.851 Y82.635 E.17884
G1 X165.485 Y84.269 E.07819
G1 X165.485 Y84.942 E.02276
G1 X168.465 Y84.942 E.1008
G1 X170.099 Y86.576 E.07819
G1 X170.099 Y87.249 E.02276
G1 X175.386 Y87.249 E.17884
G1 X177.02 Y88.883 E.07819
G1 X177.02 Y89.556 E.02276
G1 X178.055 Y89.556 E.03498
G1 X178.055 Y63.144 E.89344
G1 X137.855 Y63.144 E1.35983
;WIPE_START
G1 F8640
G1 X141.147 Y63.144 E-.76
;WIPE_END
G1 E-.04 F2100
G1 Z.64 F10800
G1 X114.368 Y63.144
G1 Z.24
G1 E.8 F2100
G1 F1200
G1 X114.729 Y63.505 E.01729
G1 X114.729 Y64.178 E.02276
G1 X120.016 Y64.178 E.17884
G1 X121.65 Y65.812 E.07819
G1 X121.65 Y66.485 E.02276
G1 X124.63 Y66.485 E.1008
G1 X124.992 Y66.847 E.01729
G1 X124.992 Y63.144 E.12525
G1 X114.423 Y63.144 E.35751
;WIPE_START
G1 F8640
G1 X117.715 Y63.144 E-.76
;WIPE_END
G1 E-.04 F2100
G1 Z.64 F10800
G1 X124.641 Y66.965
G1 Z.24
G1 E.8 F2100
G1 F1200
G1 X125.323 Y67.647 E.03262
;WIPE_START
G1 F8640
G1 X124.641 Y66.965 E-.22266
;WIPE_END
G1 E-.57734 F2100
G1 Z.64 F10800
G1 X190.531 Y50.179
G1 Z.24
G1 E.8 F2100
G1 F1200
G1 X190.531 Y49.8 E.0128
G1 X189.091 Y48.36 E.06889
G1 X188.529 Y48.36 E.01903
G1 X190.531 Y50.363 E.0958
G1 X190.531 Y50.942 E.01959
G1 X187.95 Y48.36 E.1235
G1 X187.371 Y48.36 E.01959
G1 X190.531 Y51.521 E.1512
G1 X190.531 Y52.1 E.01959
G1 X186.792 Y48.36 E.1789
G1 X186.212 Y48.36 E.01959
G1 X190.531 Y52.679 E.20661
G1 X190.531 Y53.258 E.01959
G1 X185.633 Y48.36 E.23431
G1 X185.417 Y48.144 F10800
G1 F1200
G1 X183.826 Y46.553 E.0761
G1 X184.405 Y46.553 E.01959
G1 X185.417 Y47.565 E.0484
G1 X185.417 Y46.986 E.01959
G1 X184.984 Y46.553 E.0207
G1 X185.417 Y46.553 E.01464
G1 X185.417 Y46.801 E.0084
;WIPE_START
G1 F8640
G1 X185.417 Y46.553 E-.05736
G1 X184.984 Y46.553 E-.0999
G1 X185.417 Y46.986 E-.14128
G1 X185.417 Y47.565 E-.1337
G1 X184.413 Y46.561 E-.32776
;WIPE_END
G1 E-.04 F2100
G1 Z.64 F10800
G1 X183.642 Y46.553
G1 Z.24
G1 E.8 F2100
G1 F1200
G1 X183.247 Y46.553 E.01335
G1 X190.531 Y53.837 E.34845
G1 X190.531 Y54.416 E.01959
G1 X182.668 Y46.553 E.37615
G1 X182.089 Y46.553 E.01959
G1 X190.531 Y54.995 E.40385
G1 X190.531 Y55.574 E.01959
G1 X181.51 Y46.553 E.43156
G1 X180.931 Y46.553 E.01959
M73 P0 R113
G1 X190.531 Y56.153 E.45926
G1 X190.531 Y56.732 E.01959
M73 Q0 S114
G1 X180.352 Y46.553 E.48696
G1 X179.773 Y46.553 E.01959
G1 X190.531 Y57.311 E.51466
G1 X190.531 Y57.89 E.01959
G1 X179.194 Y46.553 E.54236
G1 X178.615 Y46.553 E.01959
G1 X190.531 Y58.469 E.57006
G1 X190.531 Y59.048 E.01959
G1 X178.036 Y46.553 E.59776
G1 X177.457 Y46.553 E.01959
M73 P1 R113
M73 Q1 S114
G1 X190.531 Y59.627 E.62546
G1 X190.531 Y60.206 E.01959
G1 X176.878 Y46.553 E.65316
G1 X176.579 Y46.553 E.01011
G1 X176.579 Y46.833 E.00948
G1 X190.531 Y60.785 E.66745
G1 X190.531 Y61.364 E.01959
G1 X176.579 Y47.412 E.66745
G1 X176.579 Y47.991 E.01959
G1 X190.531 Y61.943 E.66745
G1 X190.531 Y62.523 E.01959
G1 X176.369 Y48.36 E.67751
G1 X175.79 Y48.36 E.01959
G1 X190.531 Y63.102 E.70521
G1 X190.531 Y63.681 E.01959
G1 X175.211 Y48.36 E.73291
G1 X174.632 Y48.36 E.01959
G1 X190.531 Y64.26 E.76061
G1 X190.531 Y64.839 E.01959
G1 X174.053 Y48.36 E.78831
G1 X173.474 Y48.36 E.01959
G1 X190.531 Y65.418 E.81601
G1 X190.531 Y65.997 E.01959
G1 X172.895 Y48.36 E.84371
G1 X172.316 Y48.36 E.01959
G1 X190.531 Y66.576 E.87141
G1 X190.531 Y67.155 E.01959
G1 X171.737 Y48.36 E.89911
G1 X171.158 Y48.36 E.01959
G1 X190.531 Y67.734 E.92681
G1 X190.531 Y68.313 E.01959
G1 X170.579 Y48.36 E.95451
G1 X170 Y48.36 E.01959
G1 X190.531 Y68.892 E.98221
G1 X190.531 Y69.471 E.01959
G1 X169.421 Y48.36 E1.00991
G1 X168.841 Y48.36 E.01959
G1 X190.531 Y70.05 E1.03761
G1 X190.531 Y70.629 E.01959
G1 X168.262 Y48.36 E1.06531
G1 X167.683 Y48.36 E.01959
G1 X190.531 Y71.208 E1.09301
G1 X190.531 Y71.787 E.01959
G1 X167.104 Y48.36 E1.12072
G1 X166.525 Y48.36 E.01959
G1 X190.531 Y72.366 E1.14842
G1 X190.531 Y72.945 E.01959
G1 X165.946 Y48.36 E1.17612
G1 X165.367 Y48.36 E.01959
G1 X190.531 Y73.524 E1.20382
G1 X190.531 Y74.103 E.01959
G1 X164.788 Y48.36 E1.23152
G1 X164.209 Y48.36 E.01959
G1 X190.531 Y74.682 E1.25922
G1 X190.531 Y75.261 E.01959
G1 X178.386 Y63.116 E.58101
G1 X178.386 Y63.695 E.01959
G1 X190.531 Y75.84 E.58101
G1 X190.531 Y76.419 E.01959
G1 X178.386 Y64.274 E.58101
G1 X178.386 Y64.853 E.01959
G1 X190.531 Y76.998 E.58101
G1 X190.531 Y77.577 E.01959
G1 X178.386 Y65.432 E.58101
G1 X178.386 Y66.011 E.01959
G1 X190.531 Y78.156 E.58101
G1 X190.531 Y78.735 E.01959
G1 X178.386 Y66.59 E.58101
G1 X178.386 Y67.169 E.01959
G1 X190.531 Y79.315 E.58101
G1 X190.531 Y79.894 E.01959
G1 X178.386 Y67.748 E.58101
G1 X178.386 Y68.328 E.01959
G1 X190.531 Y80.473 E.58101
G1 X190.531 Y81.052 E.01959
G1 X178.386 Y68.907 E.58101
G1 X178.386 Y69.486 E.01959
G1 X190.531 Y81.631 E.58101
G1 X190.531 Y82.21 E.01959
G1 X178.386 Y70.065 E.58101
G1 X178.386 Y70.644 E.01959
G1 X190.531 Y82.789 E.58101
G1 X190.531 Y83.368 E.01959
G1 X178.386 Y71.223 E.58101
G1 X178.386 Y71.802 E.01959
G1 X190.531 Y83.947 E.58101
G1 X190.531 Y84.526 E.01959
G1 X178.386 Y72.381 E.58101
G1 X178.386 Y72.96 E.01959
G1 X190.531 Y85.105 E.58101
G1 X190.531 Y85.684 E.01959
G1 X178.386 Y73.539 E.58101
G1 X178.386 Y74.118 E.01959
G1 X190.531 Y86.263 E.58101
G1 X190.531 Y86.842 E.01959
M73 P1 R112
M73 Q1 S113
G1 X178.386 Y74.697 E.58101
G1 X178.386 Y75.276 E.01959
G1 X190.531 Y87.421 E.58101
G1 X190.531 Y88 E.01959
G1 X178.386 Y75.855 E.58101
G1 X178.386 Y76.434 E.01959
G1 X190.531 Y88.579 E.58101
G1 X190.531 Y89.158 E.01959
G1 X178.386 Y77.013 E.58101
G1 X178.386 Y77.592 E.01959
G1 X190.531 Y89.737 E.58101
G1 X190.531 Y90.316 E.01959
G1 X178.386 Y78.171 E.58101
G1 X178.386 Y78.75 E.01959
G1 X190.531 Y90.895 E.58101
G1 X190.531 Y91.474 E.01959
G1 X178.386 Y79.329 E.58101
G1 X178.386 Y79.908 E.01959
G1 X190.531 Y92.053 E.58101
G1 X190.531 Y92.632 E.01959
G1 X178.386 Y80.487 E.58101
G1 X178.386 Y81.066 E.01959
G1 X190.531 Y93.211 E.58101
G1 X190.531 Y93.79 E.01959
G1 X178.386 Y81.645 E.58101
G1 X178.386 Y82.224 E.01959
G1 X190.531 Y94.369 E.58101
G1 X190.531 Y94.948 E.01959
G1 X178.386 Y82.803 E.58101
G1 X178.386 Y83.382 E.01959
M73 P2 R112
G1 X190.531 Y95.528 E.58101
G1 X190.531 Y96.107 E.01959
M73 Q2 S113
G1 X178.386 Y83.961 E.58101
G1 X178.386 Y84.541 E.01959
G1 X190.531 Y96.686 E.58101
G1 X190.531 Y97.265 E.01959
G1 X178.386 Y85.12 E.58101
G1 X178.386 Y85.699 E.01959
G1 X190.531 Y97.844 E.58101
G1 X190.531 Y98.423 E.01959
G1 X178.386 Y86.278 E.58101
G1 X178.386 Y86.857 E.01959
G1 X190.531 Y99.002 E.58101
G1 X190.531 Y99.581 E.01959
G1 X178.386 Y87.436 E.58101
G1 X178.386 Y88.015 E.01959
G1 X190.531 Y100.16 E.58101
G1 X190.531 Y100.739 E.01959
G1 X178.386 Y88.594 E.58101
G1 X178.386 Y89.173 E.01959
G1 X190.531 Y101.318 E.58101
G1 X190.531 Y101.897 E.01959
G1 X178.386 Y89.752 E.58101
G1 X178.386 Y89.888 E.00459
G1 X177.943 Y89.888 E.015
G1 X190.531 Y102.476 E.60221
G1 X190.531 Y103.055 E.01959
G1 X177.364 Y89.888 E.62991
G1 X176.785 Y89.888 E.01959
G1 X190.531 Y103.634 E.65761
G1 X190.531 Y104.213 E.01959
G1 X173.899 Y87.58 E.79568
G1 X174.478 Y87.58 E.01959
G1 X176.689 Y89.791 E.10577
G1 X176.689 Y89.212 E.01959
G1 X175.057 Y87.58 E.07807
;WIPE_START
G1 F8640
G1 X176.689 Y89.212 E-.53291
G1 X176.689 Y89.791 E-.1337
G1 X176.403 Y89.505 E-.09339
;WIPE_END
G1 E-.04 F2100
G1 Z.64 F10800
G1 X114.398 Y63.979
G1 Z.24
G1 E.8 F2100
G1 F1200
G1 X98.778 Y48.36 E.7472
G1 X99.358 Y48.36 E.01959
G1 X113.81 Y62.812 E.69137
G1 X114.389 Y62.812 E.01959
G1 X99.937 Y48.36 E.69137
G1 X100.516 Y48.36 E.01959
G1 X114.968 Y62.812 E.69137
G1 X115.547 Y62.812 E.01959
G1 X101.095 Y48.36 E.69137
G1 X101.674 Y48.36 E.01959
G1 X116.126 Y62.812 E.69137
G1 X116.705 Y62.812 E.01959
G1 X102.253 Y48.36 E.69137
G1 X102.832 Y48.36 E.01959
G1 X117.284 Y62.812 E.69137
G1 X117.863 Y62.812 E.01959
G1 X103.411 Y48.36 E.69137
G1 X103.99 Y48.36 E.01959
G1 X118.442 Y62.812 E.69137
G1 X119.021 Y62.812 E.01959
G1 X104.569 Y48.36 E.69137
G1 X105.148 Y48.36 E.01959
G1 X119.6 Y62.812 E.69137
G1 X120.179 Y62.812 E.01959
G1 X105.727 Y48.36 E.69137
G1 X106.306 Y48.36 E.01959
G1 X120.758 Y62.812 E.69137
G1 X121.337 Y62.812 E.01959
G1 X106.885 Y48.36 E.69137
G1 X107.464 Y48.36 E.01959
G1 X121.916 Y62.812 E.69137
G1 X122.495 Y62.812 E.01959
G1 X108.043 Y48.36 E.69137
G1 X108.622 Y48.36 E.01959
G1 X123.074 Y62.812 E.69137
G1 X123.653 Y62.812 E.01959
G1 X109.201 Y48.36 E.69137
G1 X109.78 Y48.36 E.01959
G1 X124.232 Y62.812 E.69137
G1 X124.811 Y62.812 E.01959
G1 X110.359 Y48.36 E.69137
G1 X110.938 Y48.36 E.01959
G1 X162.303 Y99.726 E2.45725
G1 X162.882 Y99.726 E.01959
G1 X111.517 Y48.36 E2.45725
G1 X112.096 Y48.36 E.01959
M73 P2 R111
G1 X137.468 Y73.732 E1.21378
G1 X137.468 Y73.153 E.01959
M73 Q2 S112
G1 X112.675 Y48.36 E1.18608
G1 X113.254 Y48.36 E.01959
G1 X137.468 Y72.574 E1.15838
G1 X137.468 Y71.995 E.01959
G1 X113.833 Y48.36 E1.13068
G1 X114.412 Y48.36 E.01959
G1 X137.468 Y71.416 E1.10298
G1 X137.468 Y70.837 E.01959
G1 X114.991 Y48.36 E1.07528
G1 X115.57 Y48.36 E.01959
G1 X137.468 Y70.258 E1.04757
G1 X137.468 Y69.679 E.01959
G1 X116.149 Y48.36 E1.01987
G1 X116.728 Y48.36 E.01959
G1 X137.468 Y69.1 E.99217
G1 X137.468 Y68.521 E.01959
G1 X117.308 Y48.36 E.96447
G1 X117.887 Y48.36 E.01959
G1 X137.468 Y67.942 E.93677
G1 X137.468 Y67.363 E.01959
G1 X118.466 Y48.36 E.90907
G1 X119.045 Y48.36 E.01959
G1 X137.468 Y66.784 E.88137
G1 X137.468 Y66.205 E.01959
G1 X119.624 Y48.36 E.85367
G1 X120.203 Y48.36 E.01959
G1 X137.468 Y65.626 E.82597
G1 X137.468 Y65.047 E.01959
M73 P3 R111
G1 X120.782 Y48.36 E.79827
G1 X121.361 Y48.36 E.01959
M73 Q3 S112
G1 X137.468 Y64.468 E.77057
G1 X137.468 Y63.889 E.01959
G1 X121.94 Y48.36 E.74287
G1 X122.519 Y48.36 E.01959
G1 X137.468 Y63.31 E.71517
G1 X137.468 Y62.812 E.01683
G1 X137.55 Y62.812 E.00276
G1 X123.098 Y48.36 E.69137
G1 X123.677 Y48.36 E.01959
G1 X138.129 Y62.812 E.69137
G1 X138.708 Y62.812 E.01959
G1 X124.256 Y48.36 E.69137
G1 X124.835 Y48.36 E.01959
G1 X139.287 Y62.812 E.69137
G1 X139.866 Y62.812 E.01959
G1 X125.414 Y48.36 E.69137
G1 X125.993 Y48.36 E.01959
G1 X140.445 Y62.812 E.69137
G1 X141.024 Y62.812 E.01959
G1 X126.572 Y48.36 E.69137
G1 X127.151 Y48.36 E.01959
G1 X141.603 Y62.812 E.69137
G1 X142.182 Y62.812 E.01959
G1 X127.73 Y48.36 E.69137
G1 X128.309 Y48.36 E.01959
G1 X142.761 Y62.812 E.69137
G1 X143.34 Y62.812 E.01959
G1 X128.888 Y48.36 E.69137
G1 X129.467 Y48.36 E.01959
G1 X143.919 Y62.812 E.69137
G1 X144.498 Y62.812 E.01959
