; generated by PrusaSlicer 2.4.1+win64 on 2022-10-29 at 09:56:36 UTC


;
;
; 

; external perimeters extrusion width = 0.45mm
; perimeters extrusion width = 0.45mm
; infill extrusion width = 0.45mm
; solid infill extrusion width = 0.45mm
; top infill extrusion width = 0.40mm
; first layer extrusion width = 0.42mm

M73 P0 R95
M73 Q0 S96
M201 X1000 Y1000 Z200 E5000 ; sets maximum accelerations, mm/sec^2
M203 X200 Y200 Z12 E120 ; sets maximum feedrates, mm / sec
M204 P1250 R1250 T1250 ; sets acceleration (P, T) and retract acceleration (R), mm/sec^2
M205 X8.00 Y8.00 Z0.40 E4.50 ; sets the jerk limits, mm/sec
M205 S0 T0 ; sets the minimum extruding and travel feed rate, mm/sec
M107
;TYPE:Custom
M862.3 P "MK3S" ; printer model check
M862.1 P0.4 ; nozzle diameter check
M115 U3.11.0 ; tell printer latest fw version
G90 ; use absolute coordinates
M83 ; extruder relative mode
M104 S215 ; set extruder temp
M140 S60 ; set bed temp
M190 S60 ; wait for bed temp
M109 S215 ; wait for extruder temp
G28 W ; home all without mesh bed level
G80 ; mesh bed leveling

G1 Z0.2 F720
G1 Y-3 F1000 ; go outside print area
G92 E0
G1 X60 E9 F1000 ; intro line
G1 X100 E12.5 F1000 ; intro line

G92 E0
M221 S95

; Don't change E values below. Excessive value can damage the printer.

G21 ; set units to millimeters
G90 ; use absolute coordinates
M83 ; use relative distances for extrusion
M900 K0.05 ; Filament gcode LA 1.5
M900 K30 ; Filament gcode LA 1.0
M107
;LAYER_CHANGE
;Z:0.24
;HEIGHT:0.24
;BEFORE_LAYER_CHANGE
G92 E0.0
;0.24


G1 E-.8 F2100
G1 Z.4 F10800
;AFTER_LAYER_CHANGE
;0.24
G1 X89.263 Y88.255
G1 Z.24
G1 E.8 F2100
M204 S1000
;TYPE:Skirt/Brim
;WIDTH:0.42
G1 F1200
G1 X90.36 Y87.35 E.04812
G1 X91.346 Y86.713 E.0397
G1 X92.562 Y86.091 E.04623
G1 X93.654 Y85.678 E.0395
G1 X95.04 Y85.301 E.04856
G1 X96.731 Y85.016 E.05804
G1 X98.936 Y84.85 E.07479
G1 X113.55 Y84.832 E.49436
G1 X115.518 Y85 E.06682
G1 X117.269 Y85.412 E.06082
G1 X118.148 Y85.722 E.03155
G1 X119.349 Y86.275 E.04472
G1 X120.678 Y87.096 E.05284
G1 X121.984 Y88.183 E.05748
G1 X123.152 Y89.507 E.05974
G1 X124.101 Y91.015 E.06027
G1 X124.868 Y92.896 E.06871
G1 X125.188 Y94.284 E.04816
G1 X125.322 Y95.789 E.05113
G1 X125.312 Y114.492 E.63266
G1 X125.186 Y115.728 E.04202
G1 X124.865 Y117.113 E.04812
G1 X124.393 Y118.381 E.04575
G1 X123.806 Y119.515 E.0432
G1 X123.072 Y120.599 E.04429
G1 X122.052 Y121.75 E.05203
G1 X121.166 Y122.537 E.04009
G1 X119.962 Y123.378 E.04967
G1 X118.709 Y124.039 E.04794
G1 X117.387 Y124.55 E.04795
G1 X116.01 Y124.91 E.04812
G1 X114.79 Y125.097 E.04175
G1 X113.497 Y125.168 E.04383
G1 X100.206 Y125.168 E.4496
G1 X97.804 Y125.089 E.08129
G1 X95.726 Y124.835 E.07079
G1 X94.107 Y124.461 E.05622
G1 X92.562 Y123.909 E.05549
G1 X91.249 Y123.234 E.04996
G1 X90.136 Y122.489 E.0453
G1 X89.384 Y121.867 E.03303
G1 X88.166 Y120.575 E.06003
G1 X87.454 Y119.58 E.0414
G1 X86.781 Y118.322 E.04828
G1 X86.23 Y116.819 E.05414
G1 X85.902 Y115.1 E.05922
G1 X85.869 Y95.604 E.65947
G1 X86.115 Y93.654 E.0665
G1 X86.583 Y92.148 E.05333
G1 X87.275 Y90.748 E.05284
G1 X87.775 Y89.946 E.03195
G1 X88.465 Y89.063 E.03791
G1 X89.221 Y88.298 E.03637
;WIPE_START
G1 F8640
G1 X90.36 Y87.35 E-.34224
G1 X91.346 Y86.713 E-.27096
G1 X91.911 Y86.424 E-.14679
;WIPE_END
G1 E-.04 F2100
G1 Z.64 F10800
G1 X91.203 Y90.385
G1 Z.24
G1 E.8 F2100
G1 F1200
G1 X91.912 Y89.712 E.03309
G1 X93.461 Y88.779 E.06114
G1 X94.94 Y88.226 E.05344
G1 X95.932 Y87.99 E.03448
G1 X96.933 Y87.827 E.03432
G1 X97.962 Y87.722 E.03497
G1 X98.878 Y87.668 E.03106
G1 X100.173 Y87.646 E.0438
G1 X113.974 Y87.658 E.46684
G1 X115.737 Y87.917 E.06028
G1 X116.948 Y88.277 E.04275
G1 X118.312 Y88.92 E.05099
G1 X119.539 Y89.771 E.05054
G1 X120.648 Y90.88 E.05304
G1 X121.536 Y92.156 E.05259
G1 X122.388 Y94.698 E.09068
G1 X122.509 Y114.374 E.6656
G1 X122.044 Y116.678 E.07952
G1 X120.94 Y118.735 E.07898
G1 X119.349 Y120.387 E.07756
G1 X118.413 Y121.022 E.03828
G1 X117.384 Y121.547 E.03906
G1 X115.76 Y122.083 E.05787
G1 X114.701 Y122.272 E.03636
G1 X113.635 Y122.351 E.03615
G1 X100.192 Y122.354 E.45475
G1 X98.711 Y122.324 E.05012
G1 X97.829 Y122.266 E.0299
G1 X96.339 Y122.083 E.05077
G1 X94.849 Y121.747 E.05166
G1 X93.881 Y121.407 E.03472
G1 X92.956 Y120.963 E.03472
G1 X91.706 Y120.16 E.05025
G1 X89.487 Y117.468 E.11801
G1 X88.93 Y115.936 E.05514
G1 X88.678 Y114.317 E.05542
G1 X88.678 Y95.675 E.6306
G1 X89.214 Y93.15 E.08733
G1 X89.718 Y92.14 E.03818
G1 X90.344 Y91.201 E.03818
G1 X91.159 Y90.426 E.03804
G1 X91.411 Y90.693 F10800
M73 P0 R94
G1 F1200
G1 X92.15 Y89.993 E.03442
G1 X93.635 Y89.104 E.05854
G1 X95.037 Y88.582 E.0506
G1 X95.998 Y88.352 E.03342
G1 X96.987 Y88.191 E.0339
G1 X97.995 Y88.089 E.03428
G1 X98.896 Y88.036 E.03054
G1 X100.178 Y88.015 E.04335
G1 X113.96 Y88.026 E.46622
G1 X115.67 Y88.279 E.05846
G1 X116.829 Y88.626 E.04094
G1 X118.14 Y89.246 E.04906
G1 X119.315 Y90.064 E.04843
G1 X120.375 Y91.128 E.05081
G1 X121.218 Y92.344 E.05004
G1 X122.03 Y94.786 E.08705
G1 X122.141 Y114.357 E.66205
G1 X121.706 Y116.528 E.07488
G1 X120.627 Y118.538 E.07719
G1 X119.127 Y120.092 E.07307
G1 X118.215 Y120.71 E.03725
G1 X117.23 Y121.212 E.03742
G1 X115.682 Y121.723 E.05514
G1 X114.665 Y121.905 E.03496
G1 X113.615 Y121.983 E.0356
G1 X100.194 Y121.986 E.454
G1 X98.722 Y121.955 E.04979
G1 X97.868 Y121.9 E.02896
G1 X96.411 Y121.722 E.04966
G1 X94.961 Y121.396 E.05025
G1 X94.013 Y121.062 E.03401
G1 X93.126 Y120.636 E.0333
G1 X91.929 Y119.866 E.04813
G1 X89.822 Y117.312 E.11198
G1 X89.282 Y115.827 E.05346
G1 X89.047 Y114.303 E.05216
G1 X89.047 Y95.694 E.62948
G1 X89.555 Y93.293 E.08304
G1 X90.031 Y92.334 E.0362
G1 X90.639 Y91.423 E.03707
G1 X91.367 Y90.734 E.03392
G1 X91.618 Y91 F10800
G1 F1200
G1 X92.388 Y90.276 E.03576
G1 X93.809 Y89.43 E.05594
G1 X95.133 Y88.938 E.04779
G1 X96.077 Y88.712 E.03281
G1 X97.04 Y88.556 E.03302
G1 X98.028 Y88.456 E.03359
G1 X98.914 Y88.404 E.03002
G1 X100.182 Y88.383 E.04289
G1 X113.946 Y88.395 E.4656
G1 X115.602 Y88.642 E.05664
G1 X116.709 Y88.975 E.03912
G1 X117.968 Y89.572 E.04713
G1 X119.09 Y90.356 E.04631
G1 X120.102 Y91.376 E.04859
G1 X120.9 Y92.531 E.04749
G1 X121.67 Y94.873 E.08341
G1 X121.772 Y114.34 E.65851
G1 X121.35 Y116.427 E.07204
G1 X120.315 Y118.34 E.07358
G1 X118.904 Y119.798 E.06862
G1 X118.018 Y120.399 E.03621
G1 X117.076 Y120.877 E.03576
G1 X115.604 Y121.362 E.05242
G1 X114.609 Y121.541 E.03419
G1 X113.595 Y121.615 E.03439
G1 X100.196 Y121.617 E.45326
G1 X98.734 Y121.587 E.04945
G1 X97.907 Y121.533 E.02802
G1 X96.482 Y121.36 E.04856
G1 X95.073 Y121.044 E.04886
G1 X94.163 Y120.726 E.03261
G1 X93.296 Y120.309 E.03256
G1 X92.153 Y119.571 E.046
G1 X90.157 Y117.156 E.10598
G1 X89.643 Y115.752 E.05057
G1 X89.415 Y114.289 E.0501
G1 X89.415 Y95.713 E.62835
G1 X89.895 Y93.436 E.07874
G1 X90.356 Y92.509 E.035
G1 X90.933 Y91.645 E.03516
G1 X91.575 Y91.041 E.02979
G1 X91.825 Y91.308 F10800
G1 F1200
G1 X92.625 Y90.559 E.03709
G1 X93.982 Y89.755 E.05335
G1 X95.23 Y89.294 E.045
G1 X96.156 Y89.072 E.03221
G1 X97.093 Y88.921 E.03213
G1 X98.061 Y88.823 E.0329
G1 X98.932 Y88.772 E.0295
G1 X100.186 Y88.751 E.04244
G1 X113.932 Y88.763 E.46497
G1 X115.534 Y89.004 E.0548
G1 X116.589 Y89.323 E.0373
G1 X117.795 Y89.898 E.0452
G1 X118.865 Y90.648 E.04419
G1 X119.828 Y91.623 E.04636
G1 X120.581 Y92.718 E.04493
G1 X121.311 Y94.96 E.07978
G1 X121.403 Y114.323 E.65499
G1 X120.995 Y116.326 E.06918
M73 Q0 S95
G1 X120.004 Y118.142 E.06996
G1 X118.682 Y119.504 E.06422
G1 X117.841 Y120.076 E.03439
G1 X116.921 Y120.542 E.03489
G1 X115.526 Y121.002 E.04969
G1 X114.554 Y121.176 E.03342
G1 X113.575 Y121.247 E.03318
G1 X100.198 Y121.249 E.45253
G1 X98.746 Y121.219 E.04912
G1 X97.946 Y121.167 E.02709
G1 X96.554 Y120.999 E.04746
G1 X95.184 Y120.693 E.04747
G1 X94.313 Y120.389 E.0312
G1 X93.466 Y119.982 E.03181
G1 X92.377 Y119.277 E.04387
G1 X90.492 Y116.999 E.10002
G1 X90.005 Y115.677 E.04768
G1 X89.784 Y114.274 E.04802
G1 X89.784 Y95.732 E.62722
G1 X90.235 Y93.579 E.07444
G1 X90.68 Y92.684 E.0338
G1 X91.228 Y91.868 E.03323
G1 X91.781 Y91.349 E.02566
G1 X92.03 Y91.617 F10800
G1 F1200
G1 X92.861 Y90.842 E.03842
G1 X94.154 Y90.081 E.05076
G1 X95.326 Y89.65 E.04225
G1 X96.221 Y89.435 E.03114
G1 X97.147 Y89.285 E.03171
G1 X98.094 Y89.19 E.03221
G1 X98.95 Y89.14 E.02899
G1 X100.191 Y89.12 E.04199
G1 X113.918 Y89.132 E.46434
G1 X115.465 Y89.366 E.05294
G1 X116.469 Y89.672 E.03549
G1 X117.597 Y90.209 E.04228
G1 X118.615 Y90.92 E.04201
G1 X119.534 Y91.845 E.04412
G1 X120.262 Y92.904 E.04345
G1 X120.952 Y95.046 E.07611
G1 X121.035 Y114.305 E.65149
G1 X120.64 Y116.224 E.06629
G1 X119.694 Y117.942 E.06633
G1 X118.459 Y119.21 E.05986
G1 X117.644 Y119.764 E.03336
G1 X116.767 Y120.207 E.03321
G1 X115.448 Y120.641 E.04699
G1 X114.517 Y120.809 E.03199
G1 X113.555 Y120.879 E.03262
G1 X100.199 Y120.88 E.45179
G1 X98.757 Y120.85 E.04879
G1 X97.985 Y120.8 E.02617
G1 X96.624 Y120.637 E.04637
G1 X95.295 Y120.341 E.04606
G1 X94.445 Y120.045 E.03047
G1 X93.636 Y119.655 E.03035
G1 X92.601 Y118.984 E.04175
G1 X90.827 Y116.842 E.09406
G1 X90.357 Y115.566 E.046
G1 X90.152 Y114.26 E.04473
G1 X90.152 Y95.751 E.6261
G1 X90.576 Y93.721 E.07016
G1 X90.993 Y92.879 E.03177
G1 X91.522 Y92.091 E.0321
G1 X91.986 Y91.658 E.0215
G1 X92.235 Y91.926 F10800
G1 F1200
G1 X93.096 Y91.126 E.03975
G1 X94.326 Y90.408 E.04817
G1 X95.423 Y90.005 E.03952
G1 X96.287 Y89.798 E.03008
G1 X97.2 Y89.65 E.03128
G1 X98.127 Y89.557 E.03152
G1 X98.967 Y89.508 E.02847
G1 X100.195 Y89.488 E.04153
G1 X113.903 Y89.5 E.46371
G1 X115.396 Y89.728 E.05107
G1 X116.347 Y90.02 E.03367
G1 X117.424 Y90.535 E.04037
G1 X118.39 Y91.212 E.03991
G1 X119.26 Y92.092 E.04188
G1 X119.942 Y93.089 E.04086
G1 X120.592 Y95.13 E.07245
G1 X120.666 Y114.287 E.64802
G1 X120.285 Y116.121 E.06339
G1 X119.384 Y117.741 E.06269
G1 X118.236 Y118.915 E.05555
G1 X117.467 Y119.441 E.03153
G1 X116.614 Y119.872 E.03233
G1 X115.37 Y120.281 E.04429
G1 X114.462 Y120.445 E.03122
G1 X113.536 Y120.511 E.0314
G1 X100.201 Y120.512 E.45107
G1 X98.769 Y120.482 E.04846
G1 X98.024 Y120.434 E.02525
G1 X96.695 Y120.275 E.04528
G1 X95.406 Y119.99 E.04467
G1 X94.595 Y119.708 E.02904
G1 X93.807 Y119.328 E.02959
G1 X92.825 Y118.69 E.03962
G1 X91.162 Y116.684 E.08814
G1 X90.718 Y115.49 E.04309
G1 X90.521 Y114.245 E.04263
G1 X90.521 Y95.77 E.62497
G1 X90.917 Y93.863 E.06588
G1 X91.318 Y93.054 E.03056
G1 X91.815 Y92.315 E.03013
G1 X92.191 Y91.966 E.01734
G1 X92.438 Y92.235 F10800
G1 F1200
G1 X93.331 Y91.411 E.04108
G1 X94.496 Y90.735 E.04558
G1 X95.519 Y90.361 E.03683
G1 X96.353 Y90.16 E.02902
G1 X97.242 Y90.016 E.03047
G1 X98.16 Y89.924 E.0312
G1 X98.985 Y89.876 E.02795
G1 X100.199 Y89.857 E.04108
G1 X113.889 Y89.869 E.46308
G1 X115.326 Y90.091 E.04919
G1 X116.225 Y90.368 E.03184
G1 X117.25 Y90.86 E.03847
G1 X118.164 Y91.503 E.03779
G1 X118.986 Y92.339 E.03964
G1 X119.622 Y93.274 E.03826
G1 X120.232 Y95.214 E.0688
G1 X120.298 Y114.269 E.64459
G1 X119.949 Y115.967 E.05863
G1 X119.074 Y117.54 E.06088
G1 X118.014 Y118.621 E.05123
G1 X117.269 Y119.13 E.0305
G1 X116.46 Y119.537 E.03063
G1 X115.292 Y119.921 E.04161
G1 X114.406 Y120.08 E.03044
G1 X113.517 Y120.142 E.03016
G1 X100.203 Y120.143 E.45036
G1 X98.781 Y120.114 E.04813
G1 X98.053 Y120.066 E.02468
G1 X96.765 Y119.913 E.04386
G1 X95.516 Y119.638 E.04326
G1 X94.726 Y119.363 E.0283
G1 X93.978 Y119.002 E.0281
G1 X93.05 Y118.396 E.0375
G1 X91.496 Y116.526 E.08227
G1 X91.079 Y115.414 E.04018
G1 X90.889 Y114.231 E.04052
G1 X90.889 Y95.789 E.62384
G1 X91.258 Y94.005 E.06162
G1 X91.63 Y93.249 E.0285
G1 X92.109 Y92.539 E.02897
G1 X92.394 Y92.275 E.01314
G1 X92.641 Y92.544 F10800
G1 F1200
G1 X93.565 Y91.697 E.0424
G1 X94.666 Y91.062 E.043
G1 X95.616 Y90.717 E.03418
G1 X96.419 Y90.523 E.02796
G1 X97.285 Y90.382 E.02966
G1 X98.193 Y90.291 E.03088
G1 X99.002 Y90.244 E.02743
G1 X100.203 Y90.225 E.04063
G1 X113.874 Y90.237 E.46244
G1 X115.255 Y90.452 E.04729
G1 X116.103 Y90.716 E.03002
G1 X117.052 Y91.171 E.03559
G1 X117.914 Y91.775 E.03561
G1 X118.691 Y92.56 E.03737
G1 X119.302 Y93.458 E.03675
G1 X119.872 Y95.296 E.0651
G1 X119.929 Y114.251 E.64118
G1 X119.594 Y115.864 E.05572
M73 P1 R94
G1 X118.765 Y117.337 E.0572
G1 X117.791 Y118.327 E.04697
G1 X117.072 Y118.818 E.02948
M73 Q1 S95
G1 X116.308 Y119.201 E.02891
G1 X115.213 Y119.56 E.03896
G1 X114.37 Y119.714 E.02899
G1 X113.51 Y119.774 E.02916
G1 X100.205 Y119.775 E.45007
G1 X98.793 Y119.745 E.04779
G1 X98.082 Y119.699 E.0241
G1 X96.835 Y119.551 E.04245
G1 X95.627 Y119.286 E.04186
G1 X94.877 Y119.027 E.02684
G1 X94.149 Y118.675 E.02733
G1 X93.274 Y118.103 E.03537
G1 X91.83 Y116.367 E.07639
G1 X91.43 Y115.302 E.0385
G1 X91.258 Y114.216 E.03717
G1 X91.258 Y95.807 E.62272
G1 X91.599 Y94.147 E.05735
G1 X91.955 Y93.424 E.02727
G1 X92.402 Y92.763 E.02695
G1 X92.597 Y92.585 E.00895
G1 X92.842 Y92.854 F10800
G1 F1200
G1 X93.797 Y91.983 E.04372
G1 X94.835 Y91.39 E.04042
G1 X95.712 Y91.073 E.03156
G1 X96.485 Y90.885 E.02691
G1 X97.327 Y90.748 E.02884
G1 X98.226 Y90.659 E.03055
G1 X99.02 Y90.612 E.02691
G1 X100.208 Y90.594 E.04018
G1 X113.859 Y90.606 E.4618
G1 X115.184 Y90.814 E.04538
G1 X115.98 Y91.063 E.02819
G1 X116.878 Y91.496 E.03372
G1 X117.688 Y92.066 E.03351
G1 X118.416 Y92.806 E.03511
G1 X118.981 Y93.641 E.03411
G1 X119.512 Y95.378 E.06142
G1 X119.561 Y114.232 E.6378
G1 X119.24 Y115.759 E.05278
G1 X118.457 Y117.133 E.0535
G1 X117.569 Y118.033 E.04277
G1 X116.895 Y118.494 E.02762
G1 X116.155 Y118.866 E.02802
G1 X115.135 Y119.2 E.0363
G1 X114.314 Y119.349 E.02822
G1 X113.504 Y119.405 E.02748
G1 X100.207 Y119.406 E.4498
G1 X98.804 Y119.377 E.04746
G1 X98.11 Y119.332 E.02352
G1 X96.905 Y119.189 E.04106
G1 X95.737 Y118.934 E.04046
G1 X95.008 Y118.682 E.02609
G1 X94.321 Y118.349 E.02581
G1 X93.499 Y117.81 E.03325
G1 X92.163 Y116.208 E.07057
G1 X91.791 Y115.224 E.03558
G1 X91.626 Y114.201 E.03505
G1 X91.626 Y95.826 E.6216
G1 X91.94 Y94.287 E.05311
G1 X92.268 Y93.619 E.02518
G1 X92.694 Y92.988 E.02577
G1 X92.797 Y92.894 E.00472
G1 X93.042 Y93.164 F10800
G1 F1200
G1 X94.029 Y92.271 E.04505
G1 X95.002 Y91.719 E.03784
G1 X95.809 Y91.429 E.02899
G1 X96.552 Y91.248 E.02587
G1 X97.369 Y91.115 E.02802
G1 X98.258 Y91.026 E.03023
G1 X99.037 Y90.98 E.02639
G1 X100.212 Y90.962 E.03973
G1 X113.844 Y90.974 E.46115
G1 X115.113 Y91.176 E.04344
G1 X115.856 Y91.411 E.02637
G1 X116.679 Y91.807 E.03089
G1 X117.438 Y92.338 E.03133
G1 X118.12 Y93.027 E.03281
G1 X118.66 Y93.824 E.03257
G1 X119.151 Y95.458 E.0577
G1 X119.192 Y114.213 E.63444
G1 X118.886 Y115.653 E.04981
G1 X118.151 Y116.928 E.04978
G1 X117.346 Y117.739 E.03865
G1 X116.718 Y118.171 E.02575
G1 X116.002 Y118.53 E.02712
G1 X115.056 Y118.84 E.03365
G1 X114.278 Y118.982 E.02676
G1 X113.497 Y119.037 E.02648
G1 X100.209 Y119.038 E.44951
G1 X98.816 Y119.009 E.04713
G1 X98.139 Y118.964 E.02294
G1 X96.974 Y118.827 E.03968
G1 X95.846 Y118.582 E.03906
G1 X95.158 Y118.346 E.02459
G1 X94.493 Y118.023 E.02502
G1 X93.725 Y117.517 E.03113
G1 X92.496 Y116.047 E.06479
G1 X92.151 Y115.146 E.03265
G1 X91.995 Y114.186 E.03289
G1 X91.995 Y95.844 E.62047
G1 X92.281 Y94.428 E.04886
G1 X92.593 Y93.793 E.02393
G1 X92.997 Y93.204 E.02417
G1 X93.279 Y93.44 F10800
G1 F1200
G1 X94.26 Y92.559 E.04461
G1 X95.169 Y92.048 E.03528
G1 X95.905 Y91.784 E.02646
G1 X96.618 Y91.61 E.02483
G1 X97.412 Y91.481 E.0272
G1 X98.291 Y91.393 E.0299
G1 X99.055 Y91.348 E.02587
G1 X100.216 Y91.331 E.03928
G1 X113.829 Y91.343 E.4605
G1 X115.04 Y91.538 E.04149
G1 X115.731 Y91.758 E.02454
G1 X116.505 Y92.132 E.02905
G1 X117.212 Y92.629 E.02925
G1 X117.845 Y93.273 E.03055
G1 X118.338 Y94.006 E.02988
G1 X118.79 Y95.536 E.05399
G1 X118.824 Y114.194 E.63113
G1 X118.532 Y115.546 E.04681
G1 X117.845 Y116.721 E.04604
G1 X117.122 Y117.446 E.03461
G1 X116.541 Y117.847 E.02389
G1 X115.849 Y118.195 E.02621
G1 X114.977 Y118.48 E.03102
G1 X114.242 Y118.616 E.02529
G1 X113.491 Y118.668 E.02547
G1 X100.211 Y118.669 E.44923
G1 X98.828 Y118.64 E.04679
G1 X98.168 Y118.597 E.02237
G1 X97.043 Y118.465 E.03831
G1 X95.955 Y118.23 E.03765
G1 X95.289 Y118.001 E.02383
G1 X94.666 Y117.697 E.02346
G1 X93.95 Y117.224 E.02902
G1 X92.829 Y115.887 E.05902
G1 X92.502 Y115.032 E.03096
G1 X92.363 Y114.172 E.02948
