; generated by PrusaSlicer 2.4.1+win64 on 2022-10-27 at 19:14:39 UTC


;
;
; 

; external perimeters extrusion width = 0.45mm
; perimeters extrusion width = 0.45mm
; infill extrusion width = 0.45mm
; solid infill extrusion width = 0.45mm
; top infill extrusion width = 0.40mm
; first layer extrusion width = 0.42mm

M73 P0 R19
M73 Q0 S19
M201 X1000 Y1000 Z200 E5000 ; sets maximum accelerations, mm/sec^2
M203 X200 Y200 Z12 E120 ; sets maximum feedrates, mm / sec
M204 P1250 R1250 T1250 ; sets acceleration (P, T) and retract acceleration (R), mm/sec^2
M205 X8.00 Y8.00 Z0.40 E4.50 ; sets the jerk limits, mm/sec
M205 S0 T0 ; sets the minimum extruding and travel feed rate, mm/sec
M107
;TYPE:Custom
M862.3 P "MK3S" ; printer model check
M862.1 P0.4 ; nozzle diameter check
M115 U3.11.0 ; tell printer latest fw version
G90 ; use absolute coordinates
M83 ; extruder relative mode
M104 S215 ; set extruder temp
M140 S45 ; set bed temp
M190 S45 ; wait for bed temp
M109 S215 ; wait for extruder temp
G28 W ; home all without mesh bed level
G80 ; mesh bed leveling

G1 Z0.2 F720
G1 Y-3 F1000 ; go outside print area
G92 E0
G1 X60 E9 F1000 ; intro line
G1 X100 E12.5 F1000 ; intro line

G92 E0
M221 S95

; Don't change E values below. Excessive value can damage the printer.

G21 ; set units to millimeters
G90 ; use absolute coordinates
M83 ; use relative distances for extrusion
M900 K0.05 ; Filament gcode LA 1.5
M900 K30 ; Filament gcode LA 1.0
M107
;LAYER_CHANGE
;Z:0.24
;HEIGHT:0.24
;BEFORE_LAYER_CHANGE
G92 E0.0
;0.24


G1 E-.8 F2100
G1 Z.4 F10800
;AFTER_LAYER_CHANGE
;0.24
G1 X107.853 Y78.804
G1 Z.24
G1 E.8 F2100
M204 S1000
;TYPE:Skirt/Brim
;WIDTH:0.42
G1 F1200
G1 X107.953 Y78.667 E.00572
G1 X109.682 Y76.681 E.08907
G1 X111.517 Y74.933 E.08572
G1 X113.439 Y73.431 E.08254
G1 X115.655 Y72.056 E.08818
G1 X117.723 Y71.075 E.07745
G1 X119.579 Y70.421 E.06658
G1 X121.7 Y69.917 E.07371
G1 X123.838 Y69.659 E.07285
G1 X126.178 Y69.659 E.07918
G1 X128.288 Y69.911 E.07186
G1 X130.121 Y70.329 E.06361
G1 X132.176 Y71.027 E.07341
G1 X134.172 Y71.953 E.07443
G1 X136.111 Y73.111 E.0764
G1 X138.15 Y74.635 E.08609
G1 X139.914 Y76.249 E.08091
G1 X141.592 Y78.087 E.08419
G1 X143.17 Y80.146 E.08774
G1 X144.651 Y82.451 E.09267
G1 X145.894 Y84.758 E.08865
G1 X147.087 Y87.424 E.09881
G1 X148.12 Y90.272 E.10246
G1 X148.973 Y93.277 E.10568
G1 X149.633 Y96.408 E.10823
G1 X150.09 Y99.647 E.11066
G1 X150.335 Y102.962 E.11245
G1 X150.359 Y106.298 E.11286
G1 X150.161 Y109.624 E.11271
G1 X149.743 Y112.916 E.11224
G1 X149.108 Y116.135 E.11099
G1 X148.268 Y119.234 E.10861
G1 X147.236 Y122.177 E.10551
G1 X146.023 Y124.953 E.10249
M73 Q1 S19
G1 X144.644 Y127.536 E.09902
G1 X143.032 Y130.025 E.10031
M73 P1 R19
G1 X141.362 Y132.16 E.09169
G1 X139.573 Y134.061 E.08832
G1 X137.683 Y135.719 E.08502
G1 X135.712 Y137.124 E.08189
G1 X133.679 Y138.274 E.07902
G1 X131.839 Y139.079 E.06793
G1 X129.732 Y139.75 E.07482
G1 X127.347 Y140.206 E.08212
G1 X125.038 Y140.356 E.07829
G1 X122.755 Y140.216 E.07735
G1 X120.66 Y139.842 E.072
G1 X118.596 Y139.233 E.07279
G1 X116.814 Y138.502 E.06515
G1 X114.845 Y137.457 E.07541
G1 X112.758 Y136.047 E.08522
G1 X110.955 Y134.542 E.07943
G1 X109.233 Y132.812 E.08255
G1 X107.604 Y130.86 E.08603
G1 X106.058 Y128.652 E.09116
M73 P1 R18
G1 X104.757 Y126.441 E.08682
G1 X103.491 Y123.869 E.09694
G1 X102.378 Y121.107 E.10073
G1 X101.436 Y118.175 E.10418
G1 X100.648 Y114.943 E.11252
G1 X100.102 Y111.757 E.10936
G1 X99.763 Y108.472 E.11169
G1 X99.645 Y104.329 E.1402
G1 X99.809 Y100.902 E.11606
G1 X100.191 Y97.601 E.11244
M73 Q1 S18
G1 X100.792 Y94.359 E.11153
G1 X101.602 Y91.228 E.10938
G1 X102.607 Y88.25 E.10634
G1 X103.799 Y85.434 E.10343
G1 X105.154 Y82.818 E.09965
G1 X106.458 Y80.713 E.08378
G1 X107.818 Y78.852 E.07796
; printing object elipsePrint.STL id:0 copy 0
;WIPE_START
G1 F8640
G1 X107.953 Y78.667 E-.05292
G1 X109.682 Y76.681 E-.60799
G1 X109.993 Y76.385 E-.09909
;WIPE_END
G1 E-.04 F2100
G1 Z.64 F10800
G1 X110.061 Y80.491
G1 Z.24
G1 E.8 F2100
;TYPE:External perimeter
G1 F1200
G1 X110.186 Y80.321 E.00714
G1 X111.758 Y78.528 E.08067
G1 X113.411 Y76.967 E.0769
G1 X115.124 Y75.641 E.07327
G1 X116.88 Y74.55 E.06995
G1 X118.669 Y73.688 E.06715
G1 X120.482 Y73.049 E.06504
G1 X122.301 Y72.63 E.06313
G1 X124.128 Y72.423 E.0622
G1 X125.89 Y72.423 E.05963
G1 X127.693 Y72.626 E.06136
G1 X129.482 Y73.033 E.06206
G1 X131.244 Y73.645 E.0631
G1 X132.968 Y74.458 E.06446
G1 X134.657 Y75.478 E.06678
G1 X136.297 Y76.705 E.06926
G1 X137.881 Y78.144 E.07241
G1 X139.403 Y79.799 E.07606
G1 X140.846 Y81.668 E.07988
G1 X142.213 Y83.783 E.08516
G1 X143.44 Y86.062 E.08757
G1 X144.543 Y88.54 E.09174
G1 X145.501 Y91.2 E.09563
G1 X146.295 Y94.017 E.09903
G1 X146.91 Y96.962 E.10177
G1 X147.337 Y100.018 E.10435
G1 X147.563 Y103.149 E.1062
G1 X147.58 Y106.3 E.1066
G1 X147.388 Y109.441 E.10645
G1 X146.989 Y112.547 E.10594
G1 X146.386 Y115.579 E.10457
G1 X145.592 Y118.488 E.10198
G1 X144.621 Y121.238 E.09867
G1 X143.486 Y123.82 E.09541
G1 X142.204 Y126.206 E.09162
G1 X140.826 Y128.334 E.08575
G1 X139.317 Y130.278 E.08323
G1 X137.716 Y131.994 E.07941
G1 X136.041 Y133.477 E.07566
G1 X134.312 Y134.724 E.07212
G1 X132.544 Y135.737 E.06893
G1 X130.746 Y136.525 E.06641
G1 X128.928 Y137.09 E.06438
G1 X127.107 Y137.438 E.06271
G1 X125.385 Y137.573 E.05843
G1 X125.018 Y137.577 E.01242
G1 X123.202 Y137.474 E.06155
G1 X121.408 Y137.166 E.06157
G1 X119.63 Y136.654 E.06259
G1 X117.888 Y135.94 E.06367
G1 X116.18 Y135.021 E.06562
G1 X114.514 Y133.894 E.06802
G1 X112.903 Y132.56 E.07074
M73 Q2 S18
G1 X111.349 Y131.011 E.07425
G1 X109.865 Y129.246 E.078
M73 P2 R18
G1 X108.444 Y127.228 E.08347
G1 X107.159 Y125.045 E.08571
G1 X105.994 Y122.662 E.08972
G1 X104.963 Y120.088 E.09379
G1 X104.087 Y117.344 E.09745
G1 X103.383 Y114.456 E.10053
G1 X102.864 Y111.453 E.10309
G1 X102.539 Y108.353 E.10544
G1 X102.419 Y105.196 E.10688
G1 X102.423 Y104.351 E.0286
G1 X102.571 Y101.204 E.10657
G1 X102.926 Y98.088 E.10607
G1 X103.486 Y95.036 E.10498
G1 X104.241 Y92.097 E.10262
G1 X105.174 Y89.312 E.09936
G1 X106.276 Y86.692 E.09615
G1 X107.528 Y84.261 E.09251
G1 X108.711 Y82.339 E.07635
G1 X110.026 Y80.54 E.07538
G1 X110.271 Y80.511 F10800
G1 X110.323 Y80.757
;TYPE:Perimeter
G1 F1200
G1 X110.474 Y80.552 E.00861
G1 X112.024 Y78.784 E.07953
G1 X113.651 Y77.247 E.07571
G1 X115.334 Y75.944 E.07201
G1 X117.058 Y74.873 E.06864
G1 X118.81 Y74.029 E.0658
G1 X120.585 Y73.403 E.06365
G1 X122.363 Y72.994 E.06172
G1 X124.149 Y72.791 E.06079
G1 X125.87 Y72.791 E.05822
G1 X127.631 Y72.989 E.05997
G1 X129.38 Y73.388 E.06068
G1 X131.105 Y73.986 E.06175
G1 X132.793 Y74.783 E.06315
G1 X134.451 Y75.784 E.06552
G1 X136.062 Y76.99 E.06806
G1 X137.622 Y78.406 E.07125
G1 X139.121 Y80.037 E.07496
G1 X140.545 Y81.881 E.07882
G1 X141.895 Y83.97 E.08415
G1 X143.109 Y86.224 E.0866
G1 X144.201 Y88.677 E.09081
G1 X145.15 Y91.312 E.09473
G1 X145.937 Y94.105 E.09816
G1 X146.547 Y97.026 E.10092
G1 X146.97 Y100.056 E.10352
G1 X147.195 Y103.163 E.10537
G1 X147.212 Y106.29 E.10577
G1 X147.021 Y109.406 E.10561
G1 X146.625 Y112.488 E.1051
G1 X146.027 Y115.495 E.1037
G1 X145.24 Y118.378 E.10109
G1 X144.278 Y121.103 E.09775
G1 X143.154 Y123.659 E.09445
G1 X141.887 Y126.019 E.09062
G1 X140.526 Y128.121 E.08471
G1 X139.037 Y130.038 E.08213
G1 X137.458 Y131.73 E.07825
G1 X135.811 Y133.189 E.07445
G1 X134.112 Y134.414 E.07084
G1 X132.378 Y135.408 E.06761
G1 X130.617 Y136.179 E.06505
G1 X128.839 Y136.732 E.06298
G1 X127.058 Y137.072 E.06132
G1 X125.369 Y137.204 E.05733
G1 X125.026 Y137.209 E.01158
G1 X123.243 Y137.107 E.06041
G1 X121.49 Y136.807 E.06018
G1 X119.751 Y136.305 E.06122
G1 X118.046 Y135.606 E.06234
G1 X116.371 Y134.705 E.06434
G1 X114.735 Y133.599 E.06679
G1 X113.151 Y132.287 E.06956
G1 X111.62 Y130.761 E.07312
G1 X110.157 Y129.021 E.07692
G1 X108.754 Y127.029 E.08243
G1 X107.484 Y124.87 E.08472
G1 X106.331 Y122.513 E.08878
G1 X105.31 Y119.963 E.09288
G1 X104.442 Y117.244 E.09657
G1 X103.744 Y114.381 E.09967
G1 X103.229 Y111.403 E.10225
G1 X102.907 Y108.327 E.10461
G1 X102.788 Y105.19 E.1062
G1 X102.792 Y104.36 E.02807
G1 X102.938 Y101.233 E.10589
G1 X103.291 Y98.142 E.10523
G1 X103.846 Y95.115 E.10412
G1 X104.594 Y92.202 E.10174
G1 X105.519 Y89.443 E.09844
G1 X106.61 Y86.848 E.09521
G1 X107.85 Y84.442 E.09155
G1 X109.018 Y82.544 E.07538
G1 X110.288 Y80.805 E.07285
;WIPE_START
M73 Q3 S18
G1 F8640
G1 X110.474 Y80.552 E-.07262
G1 X112.024 Y78.784 E-.5429
G1 X112.479 Y78.354 E-.14448
;WIPE_END
G1 E-.04 F2100
G1 Z.64 F10800
G1 X111.997 Y81.545
M73 P3 R18
G1 Z.24
G1 E.8 F2100
;TYPE:External perimeter
G1 F1200
G1 X113.67 Y79.69 E.0845
G1 X115.465 Y78.098 E.08118
G1 X117.363 Y76.785 E.07809
G1 X119.347 Y75.766 E.07542
G1 X121.394 Y75.055 E.07331
G1 X123.483 Y74.661 E.0719
G1 X125.589 Y74.588 E.07129
G1 X127.688 Y74.839 E.07152
G1 X129.757 Y75.408 E.07258
G1 X131.772 Y76.289 E.07439
G1 X133.711 Y77.472 E.07683
G1 X135.555 Y78.941 E.07975
G1 X137.285 Y80.68 E.08298
G1 X138.884 Y82.671 E.08638
G1 X140.337 Y84.892 E.08977
G1 X141.629 Y87.32 E.09304
G1 X142.747 Y89.93 E.09605
G1 X143.681 Y92.695 E.09872
G1 X144.422 Y95.587 E.10097
G1 X144.961 Y98.575 E.10272
G1 X145.295 Y101.629 E.10393
G1 X145.418 Y104.717 E.10456
G1 X145.331 Y107.809 E.10462
G1 X145.034 Y110.871 E.10408
G1 X144.53 Y113.873 E.10297
G1 X143.824 Y116.784 E.10131
G1 X142.923 Y119.573 E.09915
G1 X141.836 Y122.212 E.09655
G1 X140.574 Y124.674 E.09358
G1 X139.148 Y126.932 E.09035
G1 X137.574 Y128.965 E.08697
G1 X135.866 Y130.75 E.08357
G1 X134.04 Y132.267 E.0803
G1 X132.116 Y133.5 E.07731
G1 X130.113 Y134.435 E.07477
G1 X128.052 Y135.06 E.07285
G1 X125.965 Y135.365 E.07135
G1 X125 Y135.398 E.03265
G1 X122.905 Y135.237 E.07108
G1 X120.826 Y134.755 E.07221
G1 X118.794 Y133.958 E.07382
G1 X116.832 Y132.858 E.0761
G1 X114.96 Y131.466 E.07891
G1 X113.197 Y129.799 E.08207
G1 X111.56 Y127.876 E.08544
G1 X110.066 Y125.716 E.08885
G1 X108.728 Y123.342 E.09216
G1 X107.561 Y120.78 E.09525
G1 X106.575 Y118.054 E.09803
G1 X105.78 Y115.195 E.1004
G1 X105.185 Y112.23 E.10229
G1 X104.794 Y109.191 E.10365
G1 X104.613 Y106.109 E.10445
G1 X104.642 Y103.015 E.10466
G1 X104.881 Y99.942 E.10429
G1 X105.328 Y96.92 E.10333
G1 X105.979 Y93.981 E.10182
G1 X106.828 Y91.156 E.09979
G1 X107.864 Y88.473 E.0973
G1 X109.08 Y85.96 E.09443
G1 X110.462 Y83.642 E.09126
G1 X111.961 Y81.594 E.08588
G1 X111.855 Y81.171 F10800
G1 X111.664 Y81.376
;TYPE:Perimeter
G1 F1200
G1 X113.41 Y79.428 E.08848
G1 X115.237 Y77.807 E.08262
G1 X117.174 Y76.468 E.07966
G1 X119.202 Y75.427 E.07711
G1 X121.299 Y74.698 E.0751
G1 X123.442 Y74.294 E.07377
G1 X125.605 Y74.219 E.0732
G1 X127.76 Y74.476 E.07342
G1 X129.881 Y75.06 E.07442
G1 X131.942 Y75.962 E.07613
G1 X133.923 Y77.169 E.07846
G1 X135.801 Y78.666 E.08125
G1 X137.56 Y80.434 E.08437
G1 X139.183 Y82.454 E.08765
G1 X140.654 Y84.704 E.09094
G1 X141.961 Y87.161 E.09412
G1 X143.091 Y89.798 E.09707
G1 X144.035 Y92.59 E.09968
G1 X144.782 Y95.508 E.10188
G1 X145.326 Y98.522 E.1036
G1 X145.662 Y101.601 E.10479
G1 X145.787 Y104.715 E.10542
G1 X145.699 Y107.832 E.10547
G1 X145.4 Y110.92 E.10494
M73 Q4 S18
G1 X144.892 Y113.947 E.10385
G1 X144.179 Y116.884 E.10222
M73 P4 R18
G1 X143.27 Y119.7 E.1001
G1 X142.171 Y122.366 E.09755
G1 X140.894 Y124.856 E.09466
G1 X139.451 Y127.144 E.09151
G1 X137.853 Y129.206 E.08822
G1 X136.117 Y131.02 E.08493
G1 X134.258 Y132.565 E.08178
G1 X132.294 Y133.824 E.07891
G1 X130.245 Y134.78 E.0765
G1 X128.133 Y135.42 E.07467
G1 X125.998 Y135.732 E.07298
G1 X124.993 Y135.767 E.03403
G1 X122.849 Y135.602 E.07272
G1 X120.716 Y135.108 E.07407
G1 X118.636 Y134.292 E.07559
G1 X116.631 Y133.168 E.07776
G1 X114.722 Y131.749 E.08044
G1 X112.929 Y130.053 E.08349
G1 X111.267 Y128.1 E.08674
G1 X109.753 Y125.911 E.09004
G1 X108.399 Y123.509 E.09327
G1 X107.219 Y120.919 E.09629
G1 X106.224 Y118.167 E.099
G1 X105.422 Y115.281 E.10132
G1 X104.821 Y112.29 E.10318
G1 X104.427 Y109.226 E.10452
G1 X104.244 Y106.118 E.1053
G1 X104.273 Y102.999 E.10551
G1 X104.515 Y99.9 E.10514
G1 X104.966 Y96.853 E.1042
G1 X105.623 Y93.888 E.10272
G1 X106.479 Y91.036 E.10073
G1 X107.526 Y88.326 E.09829
G1 X108.755 Y85.785 E.09549
G1 X110.154 Y83.439 E.0924
G1 X111.628 Y81.424 E.08444
;WIPE_START
G1 F8640
G1 X113.41 Y79.428 E-.61777
G1 X113.871 Y79.02 E-.14223
;WIPE_END
G1 E-.04 F2100
G1 Z.64 F10800
G1 X135.623 Y76.799
G1 Z.24
G1 E.8 F2100
;TYPE:Solid infill
;WIDTH:0.422124
G1 F1200
G1 X137.442 Y78.618 E.08751
G1 X138.91 Y80.215 E.07381
G1 X140.248 Y81.948 E.07449
G1 X134.362 Y76.063 E.28317
G1 X133.014 Y75.239 E.05375
G1 X141.238 Y83.463 E.39568
G1 X141.657 Y84.111 E.02626
G1 X142.001 Y84.75 E.0247
G1 X138.851 Y81.6 E.15156
G1 X137.766 Y80.25 E.05894
G1 X135.986 Y78.46 E.08589
G1 X134.631 Y77.38 E.05895
G1 X131.934 Y74.683 E.12974
G1 X130.953 Y74.227 E.03681
G1 X133.025 Y76.298 E.09967
G1 X132.07 Y75.716 E.03804
G1 X131.801 Y75.598 E.01
G1 X130.151 Y73.948 E.07942
G1 X129.348 Y73.669 E.02891
G1 X130.869 Y75.191 E.07322
G1 X129.946 Y74.791 E.03424
G1 X128.662 Y73.508 E.06175
G1 X127.984 Y73.353 E.02368
G1 X129.222 Y74.592 E.05961
G1 X128.499 Y74.393 E.02552
G1 X127.341 Y73.235 E.05572
G1 X126.75 Y73.168 E.02022
G1 X127.782 Y74.2 E.04965
G1 X127.187 Y74.129 E.02039
G1 X126.16 Y73.102 E.04944
G1 X125.854 Y73.067 E.01046
G1 X125.601 Y73.067 E.0086
G1 X126.592 Y74.059 E.04769
G1 X125.997 Y73.988 E.02039
G1 X125.077 Y73.067 E.04427
G1 X124.553 Y73.067 E.01783
G1 X125.434 Y73.949 E.04239
G1 X124.927 Y73.966 E.01725
G1 X124.043 Y73.081 E.04257
G1 X123.572 Y73.135 E.01612
G1 X124.421 Y73.983 E.04084
G1 X123.914 Y74.001 E.01725
G1 X123.101 Y73.188 E.03911
G1 X122.63 Y73.241 E.01612
G1 X123.408 Y74.019 E.03741
G1 X122.967 Y74.102 E.01526
G1 X122.183 Y73.319 E.03771
G1 X121.757 Y73.417 E.01487
G1 X122.526 Y74.185 E.03699
G1 X122.085 Y74.269 E.01526
G1 X121.331 Y73.515 E.03627
G1 X120.905 Y73.613 E.01487
G1 X121.644 Y74.352 E.03556
G1 X121.206 Y74.438 E.01519
G1 X120.496 Y73.728 E.03418
G1 X120.108 Y73.864 E.01398
G1 X120.817 Y74.573 E.03411
G1 X120.428 Y74.708 E.01401
G1 X119.721 Y74.001 E.03403
G1 X119.333 Y74.138 E.01398
G1 X120.039 Y74.843 E.03396
G1 X119.65 Y74.978 E.01401
G1 X118.946 Y74.274 E.03388
G1 X118.917 Y74.285 E.00106
G1 X118.59 Y74.442 E.01235
G1 X119.261 Y75.114 E.03231
G1 X119.093 Y75.172 E.00607
G1 X118.896 Y75.273 E.00751
G1 X118.236 Y74.613 E.03177
G1 X117.882 Y74.783 E.01336
G1 X118.55 Y75.451 E.03212
G1 X118.204 Y75.628 E.01325
G1 X117.529 Y74.953 E.03248
G1 X117.176 Y75.125 E.01334
G1 X117.857 Y75.806 E.03277
G1 X117.511 Y75.984 E.01325
G1 X116.853 Y75.326 E.03166
G1 X116.53 Y75.527 E.01295
G1 X117.165 Y76.162 E.03055
G1 X116.841 Y76.362 E.01296
G1 X116.206 Y75.728 E.03053
G1 X115.883 Y75.928 E.01295
G1 X116.531 Y76.576 E.03118
G1 X116.221 Y76.791 E.01282
G1 X115.56 Y76.129 E.03183
G1 X115.258 Y76.352 E.01275
G1 X115.911 Y77.005 E.03141
G1 X115.601 Y77.219 E.01282
M73 Q5 S18
G1 X114.963 Y76.581 E.03072
G1 X114.667 Y76.809 E.01271
G1 X115.291 Y77.433 E.03003
G1 X114.99 Y77.656 E.01275
G1 X114.372 Y77.038 E.02975
G1 X114.076 Y77.267 E.01271
G1 X114.713 Y77.903 E.03061
M73 P5 R18
G1 X114.435 Y78.149 E.01263
G1 X113.785 Y77.5 E.03125
G1 X113.516 Y77.754 E.01261
G1 X114.157 Y78.396 E.03086
G1 X113.88 Y78.642 E.01263
G1 X113.246 Y78.009 E.03046
G1 X112.977 Y78.264 E.01261
G1 X113.602 Y78.889 E.03006
G1 X113.324 Y79.135 E.01263
G1 X112.707 Y78.518 E.02967
G1 X112.438 Y78.773 E.01261
G1 X113.064 Y79.399 E.03012
G1 X112.816 Y79.675 E.01263
G1 X112.174 Y79.033 E.03089
G1 X111.929 Y79.312 E.01264
G1 X112.567 Y79.95 E.03072
G1 X112.318 Y80.226 E.01263
G1 X111.684 Y79.591 E.03054
G1 X111.439 Y79.87 E.01264
G1 X112.07 Y80.501 E.03036
G1 X111.821 Y80.777 E.01263
G1 X111.194 Y80.15 E.03019
G1 X110.949 Y80.429 E.01264
G1 X111.573 Y81.053 E.03001
G1 X111.343 Y81.347 E.0127
G1 X110.704 Y80.708 E.03074
G1 X110.481 Y81.009 E.01275
G1 X111.121 Y81.649 E.03079
G1 X110.9 Y81.952 E.01276
G1 X110.26 Y81.312 E.03078
G1 X110.039 Y81.615 E.01276
G1 X110.678 Y82.255 E.03077
G1 X110.457 Y82.557 E.01276
G1 X109.817 Y81.918 E.03076
G1 X109.596 Y82.221 E.01276
G1 X110.235 Y82.86 E.03075
G1 X110.014 Y83.163 E.01276
