; generated by PrusaSlicer 2.4.1+win64 on 2022-10-04 at 12:24:01 UTC

; 

; external perimeters extrusion width = 0.45mm
; perimeters extrusion width = 0.45mm
; infill extrusion width = 0.45mm
; solid infill extrusion width = 0.45mm
; top infill extrusion width = 0.40mm
; support material extrusion width = 0.35mm
; first layer extrusion width = 0.42mm

M73 P0 R5
M73 Q0 S5
M107
;TYPE:Custom
M862.3 P "MK3S" ; printer model check
M862.1 P0.4 ; nozzle diameter check
M115 U3.10.0 ; tell printer latest fw version
G90 ; use absolute coordinates
M83 ; extruder relative mode
M104 S215 ; set extruder temp
M140 S60 ; set bed temp
M190 S60 ; wait for bed temp
M109 S215 ; wait for extruder temp
G28 W ; home all without mesh bed level
G80 ; mesh bed leveling
G1 Y-3.0 F1000.0 ; go outside print area
G92 E0.0
G1 X60.0 E9.0 F1000.0 ; intro line
G1 X100.0 E12.5 F1000.0 ; intro line
G92 E0.0
M221 S95

; Don't change E values below. Excessive value can damage the printer.

G21 ; set units to millimeters
G90 ; use absolute coordinates
M83 ; use relative distances for extrusion
M900 K0.05 ; Filament gcode LA 1.5
M900 K30 ; Filament gcode LA 1.0
M107
;LAYER_CHANGE
;Z:0.24
;HEIGHT:0.24
;BEFORE_LAYER_CHANGE
G92 E0.0
;0.24


M73 P1 R4
M73 Q1 S4
G1 E-.8 F2100
M73 P2 R4
M73 Q2 S4
G1 Z.4 F10800
;AFTER_LAYER_CHANGE
;0.24
G1 X118.232 Y90.756
G1 Z.24
G1 E.8 F2100
M204 S1000
;TYPE:Skirt/Brim
;WIDTH:0.42
G1 F1200
G1 X120.289 Y88.469 E.10406
G1 X121.294 Y87.619 E.04452
G1 X122.17 Y87.058 E.0352
G1 X123.078 Y86.644 E.03377
G1 X124.033 Y86.376 E.03352
G1 X124.594 Y86.292 E.0192
G1 X125.917 Y86.369 E.04482
G1 X126.922 Y86.644 E.03524
G1 X128.15 Y87.244 E.04625
G1 X129.53 Y88.299 E.05876
G1 X130.523 Y89.3 E.04768
G1 X131.768 Y90.756 E.06482
G1 X134.431 Y94.346 E.15118
G1 X135.516 Y96 E.06693
G1 X136.577 Y97.816 E.07114
G1 X139.629 Y103.599 E.22118
G1 X140.331 Y105.088 E.0557
G1 X140.904 Y106.554 E.05323
M73 Q3 S4
G1 X141.27 Y107.812 E.04432
G1 X141.486 Y108.905 E.0377
G1 X141.657 Y110.395 E.05074
G1 X141.724 Y112.078 E.05697
G1 X141.57 Y114.129 E.06958
M73 P3 R4
G1 X141.333 Y115.159 E.03573
G1 X140.957 Y116.166 E.03638
G1 X140.423 Y117.154 E.03799
G1 X139.572 Y118.298 E.04823
G1 X138.06 Y119.765 E.07126
G1 X136.894 Y120.649 E.04951
G1 X135.434 Y121.555 E.05812
G1 X134.103 Y122.207 E.05015
G1 X132.992 Y122.637 E.04029
G1 X131.624 Y123.037 E.04822
G1 X130.221 Y123.327 E.04846
G1 X128.541 Y123.553 E.05735
G1 X124.936 Y123.737 E.12209
G1 X121.459 Y123.553 E.11778
G1 X119.954 Y123.356 E.05135
G1 X118.585 Y123.087 E.04719
G1 X117.249 Y122.717 E.04692
G1 X115.897 Y122.207 E.04886
G1 X114.566 Y121.555 E.05015
G1 X113.301 Y120.782 E.05015
G1 X112.119 Y119.911 E.04966
G1 X111.027 Y118.938 E.04947
G1 X110.239 Y118.071 E.03963
G1 X109.577 Y117.154 E.03826
G1 X109.043 Y116.166 E.03799
G1 X108.489 Y114.446 E.06112
G1 X108.325 Y113.303 E.03908
G1 X108.276 Y112.078 E.04146
G1 X108.343 Y110.395 E.05697
G1 X108.514 Y108.905 E.05074
G1 X108.795 Y107.553 E.04672
G1 X109.599 Y105.251 E.08249
G1 X111.907 Y100.642 E.17436
G1 X114.484 Y96 E.17959
M73 Q4 S4
G1 X115.569 Y94.346 E.06693
M73 P4 R4
G1 X118.196 Y90.804 E.14916
G1 X118.519 Y91.064 F10800
G1 F1200
G1 X119.634 Y89.674 E.06027
G1 X120.552 Y88.726 E.04465
G1 X121.5 Y87.924 E.04198
G1 X122.333 Y87.388 E.03351
G1 X123.719 Y86.827 E.05058
G1 X124.649 Y86.656 E.03198
G1 X125.862 Y86.733 E.04113
G1 X126.81 Y86.995 E.03325
G1 X127.944 Y87.549 E.04272
G1 X129.291 Y88.579 E.05735
G1 X130.259 Y89.557 E.04655
G1 X131.476 Y90.98 E.06333
G1 X134.132 Y94.561 E.1508
G1 X135.208 Y96.202 E.06639
G1 X136.258 Y98.002 E.07049
G1 X139.302 Y103.768 E.22056
G1 X139.998 Y105.245 E.05523
G1 X140.551 Y106.66 E.05141
G1 X140.908 Y107.884 E.04311
G1 X141.125 Y108.977 E.0377
G1 X141.29 Y110.434 E.04963
G1 X141.356 Y112.067 E.05526
G1 X141.204 Y114.083 E.06839
G1 X140.976 Y115.07 E.03426
G1 X140.615 Y116.029 E.03467
G1 X140.103 Y116.971 E.03626
M73 Q5 S4
G1 X139.302 Y118.046 E.04535
G1 X137.816 Y119.49 E.0701
G1 X136.673 Y120.354 E.04845
G1 X135.269 Y121.225 E.05591
M73 P5 R4
G1 X133.97 Y121.863 E.04896
G1 X132.859 Y122.293 E.04029
G1 X131.523 Y122.682 E.04706
G1 X130.148 Y122.965 E.04748
G1 X128.513 Y123.185 E.05584
G1 X124.945 Y123.369 E.12085
G1 X121.487 Y123.185 E.11712
G1 X120.003 Y122.991 E.05064
G1 X118.477 Y122.682 E.05267
G1 X117.141 Y122.293 E.04706
G1 X115.824 Y121.772 E.0479
G1 X114.731 Y121.225 E.04135
G1 X113.495 Y120.469 E.04901
G1 X112.339 Y119.616 E.04859
G1 X111.296 Y118.687 E.04726
G1 X110.534 Y117.85 E.03829
G1 X109.897 Y116.971 E.03673
G1 X109.385 Y116.029 E.03626
G1 X109.024 Y115.07 E.03467
G1 X108.796 Y114.083 E.03426
G1 X108.645 Y111.898 E.07407
G1 X108.71 Y110.434 E.04957
G1 X108.875 Y108.977 E.04963
G1 X109.147 Y107.659 E.0455
G1 X109.512 Y106.478 E.04181
G1 X110.698 Y103.768 E.10008
G1 X113.701 Y98.074 E.21776
G1 X114.727 Y96.308 E.06907
G1 X117.221 Y92.682 E.14888
G1 X118.482 Y91.111 E.06814
; printing object farkashPick.STL id:0 copy 0
;WIPE_START
M73 Q6 S4
G1 F8640
G1 X119.634 Y89.674 E-.42523
G1 X120.552 Y88.726 E-.30475
G1 X120.652 Y88.642 E-.03002
;WIPE_END
M73 P6 R4
G1 E-.04 F2100
G1 Z.64 F10800
G1 X125 Y89.786
G1 Z.24
G1 E.8 F2100
;TYPE:Perimeter
G1 F1200
G1 X125.352 Y89.839 E.01205
G1 X125.8 Y89.977 E.01585
G1 X126.228 Y90.188 E.01615
G1 X126.704 Y90.509 E.0194
G1 X127.22 Y90.95 E.02297
G1 X127.989 Y91.737 E.03722
G1 X128.99 Y92.911 E.0522
G1 X130.274 Y94.586 E.07141
G1 X131.566 Y96.384 E.07488
G1 X132.563 Y97.908 E.06161
G1 X133.531 Y99.572 E.06511
G1 X135.38 Y103.03 E.13266
G1 X136.499 Y105.199 E.08254
G1 X137.139 Y106.56 E.05088
G1 X137.547 Y107.6 E.0378
G1 X137.829 Y108.532 E.03294
G1 X138.031 Y109.554 E.03523
G1 X138.158 Y110.744 E.04046
G1 X138.21 Y111.999 E.0425
G1 X138.182 Y112.898 E.03042
G1 X138.088 Y113.642 E.02537
G1 X137.935 Y114.258 E.02147
G1 X137.714 Y114.809 E.02007
G1 X137.395 Y115.366 E.02173
G1 X136.973 Y115.929 E.02379
G1 X136.429 Y116.513 E.02701
G1 X135.75 Y117.115 E.03069
G1 X134.816 Y117.813 E.03945
G1 X133.828 Y118.427 E.03935
G1 X132.8 Y118.942 E.03889
G1 X131.757 Y119.345 E.03781
G1 X130.694 Y119.646 E.03739
G1 X129.555 Y119.875 E.0393
G1 X128.251 Y120.049 E.04451
G1 X126.41 Y120.19 E.06246
G1 X125 Y120.223 E.04769
G1 X123.59 Y120.19 E.04769
G1 X121.749 Y120.049 E.06246
G1 X120.445 Y119.875 E.04451
G1 X119.306 Y119.646 E.0393
M73 Q7 S4
G1 X118.243 Y119.345 E.03739
G1 X117.2 Y118.942 E.03781
G1 X116.172 Y118.427 E.03889
G1 X115.184 Y117.813 E.03935
G1 X114.25 Y117.115 E.03945
M73 P7 R4
G1 X113.571 Y116.513 E.03069
G1 X113.027 Y115.929 E.02701
G1 X112.605 Y115.366 E.02379
G1 X112.286 Y114.809 E.02173
G1 X112.065 Y114.258 E.02007
G1 X111.912 Y113.642 E.02147
G1 X111.818 Y112.898 E.02537
G1 X111.79 Y111.999 E.03042
G1 X111.842 Y110.744 E.0425
G1 X111.969 Y109.554 E.04046
G1 X112.171 Y108.532 E.03523
G1 X112.453 Y107.6 E.03294
G1 X112.861 Y106.56 E.0378
G1 X113.501 Y105.199 E.05088
G1 X114.62 Y103.03 E.08254
G1 X116.469 Y99.572 E.13266
G1 X117.437 Y97.908 E.06511
G1 X118.434 Y96.384 E.06161
G1 X119.726 Y94.586 E.07488
G1 X121.01 Y92.911 E.07141
G1 X122.011 Y91.737 E.0522
G1 X122.78 Y90.95 E.03722
G1 X123.296 Y90.509 E.02297
G1 X123.772 Y90.188 E.0194
G1 X124.203 Y89.975 E.01625
G1 X124.616 Y89.844 E.01467
G1 X124.941 Y89.795 E.01111
G1 X125 Y89.413 F10800
;TYPE:External perimeter
G1 F1200
G1 X125.434 Y89.479 E.01486
G1 X125.937 Y89.633 E.01778
G1 X126.414 Y89.868 E.01799
G1 X126.927 Y90.215 E.02096
G1 X127.472 Y90.68 E.02424
G1 X128.261 Y91.488 E.0382
G1 X129.277 Y92.679 E.05294
G1 X130.57 Y94.367 E.07192
G1 X131.87 Y96.175 E.07534
G1 X132.877 Y97.714 E.06221
G1 X133.853 Y99.392 E.06566
G1 X135.706 Y102.859 E.13297
G1 X136.83 Y105.036 E.08287
G1 X137.477 Y106.414 E.05152
M73 Q8 S4
G1 X137.896 Y107.479 E.03871
G1 X138.187 Y108.443 E.03406
G1 X138.396 Y109.499 E.0364
G1 X138.526 Y110.716 E.04143
G1 X138.578 Y111.997 E.04335
M73 P8 R4
G1 X138.55 Y112.927 E.03146
G1 X138.451 Y113.71 E.0267
G1 X138.286 Y114.371 E.02306
G1 X138.047 Y114.97 E.0218
G1 X137.704 Y115.569 E.02337
G1 X137.256 Y116.166 E.02523
G1 X136.686 Y116.777 E.02826
G1 X135.983 Y117.401 E.0318
G1 X135.024 Y118.118 E.04051
G1 X134.008 Y118.749 E.04045
G1 X132.949 Y119.279 E.04005
G1 X131.874 Y119.695 E.03899
G1 X130.781 Y120.005 E.03845
G1 X129.616 Y120.238 E.04019
G1 X128.289 Y120.416 E.04527
G1 X126.428 Y120.558 E.06315
G1 X125 Y120.591 E.04832
G1 X123.572 Y120.558 E.04832
G1 X121.711 Y120.416 E.06315
G1 X120.384 Y120.238 E.04527
G1 X119.219 Y120.005 E.04019
G1 X118.126 Y119.695 E.03845
G1 X117.051 Y119.279 E.03899
G1 X115.992 Y118.749 E.04005
G1 X114.976 Y118.118 E.04045
G1 X114.017 Y117.401 E.04051
G1 X113.314 Y116.777 E.0318
G1 X112.744 Y116.166 E.02826
G1 X112.296 Y115.569 E.02523
G1 X111.953 Y114.97 E.02337
G1 X111.714 Y114.371 E.0218
G1 X111.549 Y113.71 E.02306
G1 X111.45 Y112.927 E.0267
G1 X111.422 Y111.997 E.03146
G1 X111.474 Y110.716 E.04335
G1 X111.604 Y109.499 E.04143
G1 X111.813 Y108.443 E.0364
G1 X112.104 Y107.479 E.03406
G1 X112.523 Y106.414 E.03871
G1 X113.17 Y105.036 E.05152
G1 X114.294 Y102.859 E.08287
G1 X116.147 Y99.392 E.13297
G1 X117.123 Y97.714 E.06566
G1 X118.13 Y96.175 E.06221
G1 X119.43 Y94.367 E.07534
M73 Q9 S4
G1 X120.723 Y92.679 E.07192
G1 X121.739 Y91.488 E.05294
G1 X122.528 Y90.68 E.0382
M73 P9 R4
G1 X123.073 Y90.215 E.02424
G1 X123.586 Y89.868 E.02096
G1 X124.064 Y89.633 E.01803
G1 X124.532 Y89.484 E.0166
G1 X124.941 Y89.422 E.01398
G1 X125.192 Y89.764 F10800
;WIPE_START
G1 F8640
G1 X125.434 Y89.479 E-.11475
G1 X125.937 Y89.633 E-.12134
G1 X126.414 Y89.868 E-.12281
G1 X126.927 Y90.215 E-.14305
G1 X127.472 Y90.68 E-.16547
G1 X127.752 Y90.967 E-.09259
;WIPE_END
G1 E-.04 F2100
G1 Z.64 F10800
G1 X129.058 Y93.181
G1 Z.24
G1 E.8 F2100
;TYPE:Solid infill
;WIDTH:0.4237
G1 F1200
G1 X127.014 Y91.137 E.09881
G1 X126.536 Y90.729 E.02145
G1 X126.089 Y90.427 E.01842
G1 X125.698 Y90.234 E.01492
G1 X125.535 Y90.184 E.00582
G1 X129.891 Y94.54 E.21046
G1 X131.271 Y96.447 E.08045
G1 X124.904 Y90.08 E.30766
G1 X124.679 Y90.114 E.00779
G1 X124.476 Y90.178 E.00726
G1 X132.285 Y97.987 E.37731
G1 X133.028 Y99.256 E.05025
G1 X124.104 Y90.332 E.4312
G1 X123.911 Y90.427 E.00736
M73 P10 R4
M73 Q10 S4
G1 X123.769 Y90.523 E.00586
G1 X133.678 Y100.433 E.47881
G1 X134.282 Y101.563 E.04381
G1 X123.455 Y90.736 E.52315
G1 X123.171 Y90.979 E.01276
G1 X134.887 Y102.694 E.56607
G1 X135.466 Y103.8 E.04265
G1 X122.894 Y91.228 E.60745
G1 X122.634 Y91.494 E.01272
M73 P11 R4
M73 Q11 S4
G1 X136.028 Y104.888 E.64717
G1 X136.532 Y105.919 E.0392
G1 X122.374 Y91.761 E.6841
G1 X122.121 Y92.034 E.01273
G1 X136.968 Y106.881 E.71738
G1 X137.301 Y107.74 E.03151
M73 P12 R4
M73 Q12 S4
G1 X121.879 Y92.318 E.7452
G1 X121.636 Y92.602 E.01276
G1 X137.529 Y108.494 E.76791
G1 X137.672 Y109.164 E.02341
M73 Q13 S4
G1 X121.394 Y92.886 E.78655
G1 X121.156 Y93.174 E.01277
M73 P13 R4
G1 X137.779 Y109.798 E.80323
G1 X137.842 Y110.387 E.02025
G1 X120.928 Y93.472 E.81731
G1 X120.699 Y93.77 E.01283
M73 P14 R4
M73 Q14 S4
G1 X137.891 Y110.962 E.83068
G1 X137.913 Y111.511 E.01876
G1 X120.471 Y94.068 E.8428
G1 X120.242 Y94.366 E.01283
M73 Q15 S4
G1 X137.931 Y112.055 E.85472
G1 X137.916 Y112.566 E.01746
M73 P15 R4
G1 X120.014 Y94.664 E.865
G1 X119.792 Y94.968 E.01287
G1 X137.883 Y113.06 E.87417
G1 X137.824 Y113.527 E.01609
M73 P16 R4
M73 Q16 S4
G1 X119.571 Y95.274 E.88195
G1 X119.351 Y95.581 E.01289
G1 X137.725 Y113.955 E.88782
G1 X137.671 Y114.173 E.00767
M73 P17 R4
M73 Q17 S4
G1 X137.598 Y114.354 E.00668
G1 X119.131 Y95.887 E.89232
G1 X118.911 Y96.193 E.01289
G1 X137.443 Y114.725 E.89547
G1 X137.252 Y115.06 E.01318
M73 P18 R4
M73 Q18 S4
G1 X118.691 Y96.499 E.89685
G1 X118.481 Y96.816 E.01298
G1 X137.042 Y115.377 E.89684
G1 X136.816 Y115.678 E.01285
G1 X118.273 Y97.134 E.896
M73 Q19 S4
G1 X118.065 Y97.452 E.01299
M73 P19 R4
G1 X136.569 Y115.957 E.89412
G1 X136.315 Y116.229 E.01272
G1 X117.857 Y97.771 E.8919
G1 X117.65 Y98.09 E.01301
M73 P20 R4
M73 Q20 S4
G1 X136.044 Y116.484 E.88878
G1 X135.765 Y116.732 E.01274
M73 P20 R3
G1 X117.457 Y98.423 E.88467
G1 X117.263 Y98.756 E.01315
M73 P21 R3
M73 Q21 S3
G1 X135.48 Y116.973 E.8802
G1 X135.178 Y117.198 E.01285
G1 X117.069 Y99.089 E.875
G1 X116.876 Y99.422 E.01315
M73 P22 R3
M73 Q22 S3
G1 X134.877 Y117.423 E.8698
G1 X134.569 Y117.641 E.0129
G1 X116.684 Y99.756 E.86421
G1 X116.501 Y100.099 E.01329
G1 X134.245 Y117.843 E.85738
G1 X133.92 Y118.045 E.01306
M73 P23 R3
M73 Q23 S3
G1 X116.317 Y100.442 E.85055
G1 X116.134 Y100.785 E.01329
G1 X133.587 Y118.238 E.84334
G1 X133.237 Y118.414 E.0134
M73 P24 R3
M73 Q24 S3
G1 X115.95 Y101.128 E.83525
G1 X115.767 Y101.471 E.01329
G1 X132.886 Y118.59 E.82716
G1 X132.522 Y118.753 E.01361
M73 Q25 S3
G1 X115.584 Y101.814 E.81846
G1 X115.4 Y102.157 E.01329
M73 P25 R3
G1 X132.143 Y118.9 E.80898
G1 X131.763 Y119.046 E.0139
G1 X115.217 Y102.5 E.7995
G1 X115.034 Y102.843 E.01329
M73 P26 R3
M73 Q26 S3
G1 X131.361 Y119.17 E.78891
G1 X130.951 Y119.286 E.01456
G1 X114.851 Y103.187 E.77793
G1 X114.672 Y103.534 E.01335
G1 X130.534 Y119.397 E.76648
M73 Q27 S3
G1 X130.096 Y119.484 E.01528
M73 P27 R3
G1 X114.492 Y103.881 E.75395
G1 X114.313 Y104.228 E.01335
G1 X129.657 Y119.572 E.74143
G1 X129.202 Y119.643 E.01575
M73 P28 R3
M73 Q28 S3
G1 X114.134 Y104.575 E.72807
G1 X113.955 Y104.922 E.01335
G1 X128.737 Y119.705 E.7143
G1 X128.273 Y119.767 E.016
G1 X113.775 Y105.269 E.70052
G1 X113.606 Y105.626 E.01349
M73 P29 R3
M73 Q29 S3
G1 X127.787 Y119.807 E.68523
G1 X127.298 Y119.845 E.01676
G1 X113.437 Y105.984 E.66974
G1 X113.269 Y106.342 E.01352
G1 X126.809 Y119.882 E.65424
G1 X126.316 Y119.915 E.01688
M73 P30 R3
M73 Q30 S3
G1 X113.103 Y106.702 E.63846
G1 X112.954 Y107.08 E.01387
G1 X125.802 Y119.927 E.62079
G1 X125.287 Y119.939 E.01758
G1 X112.806 Y107.458 E.60311
G1 X112.667 Y107.846 E.01407
M73 P31 R3
M73 Q31 S3
G1 X124.762 Y119.941 E.58442
G1 X124.223 Y119.928 E.01842
G1 X112.545 Y108.25 E.56427
G1 X112.428 Y108.659 E.01454
G1 X123.684 Y119.915 E.5439
G1 X123.119 Y119.876 E.01936
G1 X112.341 Y109.098 E.52079
G1 X112.254 Y109.538 E.0153
M73 P32 R3
M73 Q32 S3
G1 X122.549 Y119.833 E.49746
G1 X121.979 Y119.789 E.01953
G1 X112.198 Y110.008 E.47261
G1 X112.147 Y110.484 E.01634
G1 X121.385 Y119.721 E.44635
G1 X120.777 Y119.64 E.02094
G1 X112.109 Y110.972 E.41885
G1 X112.088 Y111.478 E.01729
M73 P33 R3
M73 Q33 S3
G1 X120.143 Y119.532 E.38919
G1 X119.485 Y119.4 E.02294
G1 X112.068 Y111.983 E.35838
G1 X112.083 Y112.525 E.01851
G1 X118.763 Y119.205 E.32278
G1 X118.33 Y119.082 E.01537
G1 X117.978 Y118.946 E.01292
G1 X112.12 Y113.089 E.28301
G1 X112.213 Y113.708 E.02139
G1 X117.075 Y118.57 E.23494
G1 X116.307 Y118.186 E.02936
M73 Q34 S3
G1 X115.931 Y117.952 E.01514
G1 X112.447 Y114.469 E.16831
M73 P34 R3
G1 X112.535 Y114.688 E.00809
G1 X112.836 Y115.214 E.02071
G1 X113.239 Y115.751 E.02293
G1 X113.732 Y116.279 E.02468
G1 X114.962 Y117.509 E.05944
; stop printing object farkashPick.STL id:0 copy 0
M106 S84.15
;LAYER_CHANGE
;Z:0.44
;HEIGHT:0.2
;BEFORE_LAYER_CHANGE
G92 E0.0
;0.44


;WIPE_START
G1 F8640
G1 X113.732 Y116.279 E-.40168
G1 X113.239 Y115.751 E-.16679
G1 X112.836 Y115.214 E-.15496
G1 X112.758 Y115.077 E-.03657
;WIPE_END
G1 E-.04 F2100
G1 Z.64 F10800
;AFTER_LAYER_CHANGE
;0.44
G1 X109.429 Y116.879
G1 Z.44
G1 E.8 F2100
;TYPE:Skirt/Brim
;WIDTH:0.42
G1 F3000
G1 X109.043 Y116.166 E.02339
G1 X108.489 Y114.446 E.05212
G1 X108.325 Y113.303 E.03333
G1 X108.276 Y112.078 E.03535
G1 X108.343 Y110.395 E.04858
G1 X108.514 Y108.905 E.04327
G1 X108.795 Y107.553 E.03984
G1 X109.599 Y105.251 E.07034
G1 X111.907 Y100.642 E.14868
G1 X114.484 Y96 E.15314
G1 X115.569 Y94.346 E.05708
G1 X118.232 Y90.756 E.12892
G1 X120.289 Y88.469 E.08874
G1 X121.294 Y87.619 E.03797
G1 X122.17 Y87.058 E.03002
G1 X123.078 Y86.644 E.0288
G1 X124.033 Y86.376 E.02859
G1 X124.594 Y86.292 E.01637
G1 X125.917 Y86.369 E.03822
G1 X126.922 Y86.644 E.03005
G1 X128.15 Y87.244 E.03944
G1 X129.53 Y88.299 E.05011
G1 X130.523 Y89.3 E.04066
G1 X131.768 Y90.756 E.05528
G1 X134.431 Y94.346 E.12892
G1 X135.516 Y96 E.05708
G1 X136.577 Y97.816 E.06067
G1 X139.629 Y103.599 E.18861
G1 X140.331 Y105.088 E.0475
G1 X140.904 Y106.554 E.04539
