; generated by PrusaSlicer 2.4.1+win64 on 2022-10-04 at 12:09:09 UTC

; 

; external perimeters extrusion width = 0.45mm
; perimeters extrusion width = 0.45mm
; infill extrusion width = 0.45mm
; solid infill extrusion width = 0.45mm
; top infill extrusion width = 0.40mm
; support material extrusion width = 0.35mm
; first layer extrusion width = 0.42mm

M73 P0 R7
M73 Q0 S7
M107
;TYPE:Custom
M862.3 P "MK3S" ; printer model check
M862.1 P0.4 ; nozzle diameter check
M115 U3.10.0 ; tell printer latest fw version
G90 ; use absolute coordinates
M83 ; extruder relative mode
M104 S215 ; set extruder temp
M140 S60 ; set bed temp
M190 S60 ; wait for bed temp
M109 S215 ; wait for extruder temp
G28 W ; home all without mesh bed level
G80 ; mesh bed leveling
G1 Y-3.0 F1000.0 ; go outside print area
G92 E0.0
G1 X60.0 E9.0 F1000.0 ; intro line
G1 X100.0 E12.5 F1000.0 ; intro line
G92 E0.0
M221 S95

; Don't change E values below. Excessive value can damage the printer.

G21 ; set units to millimeters
G90 ; use absolute coordinates
M83 ; use relative distances for extrusion
M900 K0.05 ; Filament gcode LA 1.5
M900 K30 ; Filament gcode LA 1.0
M107
;LAYER_CHANGE
;Z:0.24
;HEIGHT:0.24
;BEFORE_LAYER_CHANGE
G92 E0.0
;0.24


M73 P0 R6
G1 E-.8 F2100
M73 P1 R6
M73 Q1 S6
G1 Z.4 F10800
;AFTER_LAYER_CHANGE
;0.24
G1 X116.876 Y92.528
G1 Z.24
G1 E.8 F2100
M204 S1000
;TYPE:Skirt/Brim
;WIDTH:0.42
G1 F1200
G1 X119.353 Y89.436 E.13402
G1 X120.288 Y88.469 E.0455
G1 X121.293 Y87.619 E.04453
G1 X122.17 Y87.058 E.03521
G1 X123.078 Y86.644 E.03377
G1 X124.033 Y86.376 E.03352
G1 X125.406 Y86.292 E.04655
G1 X126.393 Y86.476 E.03397
G1 X127.83 Y87.058 E.05244
G1 X128.707 Y87.619 E.03521
G1 X129.712 Y88.469 E.04453
G1 X131.769 Y90.758 E.10411
G1 X134.434 Y94.35 E.15128
G1 X135.595 Y96.127 E.07183
M73 Q2 S6
G1 X136.626 Y97.904 E.06949
G1 X139.615 Y103.569 E.21667
M73 P2 R6
G1 X140.827 Y106.331 E.10203
G1 X141.267 Y107.8 E.05187
G1 X141.522 Y109.136 E.04601
G1 X141.723 Y111.872 E.09279
G1 X141.676 Y113.291 E.04804
G1 X141.336 Y115.15 E.0639
G1 X140.961 Y116.158 E.03639
G1 X140.427 Y117.147 E.03802
G1 X139.766 Y118.065 E.03827
G1 X138.979 Y118.933 E.03963
G1 X137.887 Y119.906 E.04948
G1 X136.706 Y120.778 E.04966
G1 X135.441 Y121.551 E.05014
G1 X134.11 Y122.204 E.05017
G1 X132.758 Y122.715 E.04889
G1 X131.421 Y123.086 E.04694
G1 X130.052 Y123.355 E.04719
G1 X128.547 Y123.552 E.05134
G1 X125.064 Y123.737 E.11799
G1 X123.336 Y123.696 E.05846
G1 X121.299 Y123.536 E.06914
G1 X118.37 Y123.035 E.10051
G1 X117.001 Y122.634 E.04823
G1 X115.652 Y122.099 E.04911
G1 X114.34 Y121.428 E.04983
G1 X113.099 Y120.645 E.04965
G1 X111.933 Y119.76 E.04952
G1 X110.423 Y118.292 E.07125
G1 X109.759 Y117.43 E.03681
G1 X109.204 Y116.5 E.03665
G1 X108.779 Y115.506 E.03654
G1 X108.487 Y114.436 E.03753
G1 X108.324 Y113.291 E.03911
G1 X108.276 Y112.065 E.0415
G1 X108.478 Y109.136 E.09932
G1 X108.733 Y107.8 E.04601
G1 X109.101 Y106.541 E.04437
G1 X109.675 Y105.075 E.05326
G1 X110.385 Y103.569 E.05632
G1 X113.374 Y97.904 E.21667
G1 X114.405 Y96.127 E.06949
G1 X116.842 Y92.577 E.14566
M73 Q3 S6
G1 X117.146 Y92.786 F10800
G1 F1200
G1 X119.634 Y89.675 E.13474
G1 X120.552 Y88.727 E.04467
M73 P3 R6
G1 X121.5 Y87.925 E.04199
G1 X122.333 Y87.388 E.03352
G1 X123.19 Y86.995 E.03191
G1 X124.087 Y86.741 E.03153
G1 X125.351 Y86.656 E.04285
G1 X126.281 Y86.827 E.03198
G1 X127.667 Y87.388 E.05058
G1 X128.5 Y87.925 E.03352
G1 X129.448 Y88.727 E.04199
G1 X131.477 Y90.982 E.10262
G1 X134.134 Y94.565 E.1509
G1 X135.276 Y96.313 E.07063
G1 X136.301 Y98.078 E.06906
G1 X139.287 Y103.739 E.21648
G1 X140.484 Y106.467 E.10076
G1 X140.906 Y107.872 E.04964
G1 X141.155 Y109.176 E.0449
G1 X141.355 Y111.887 E.09197
G1 X141.31 Y113.245 E.04598
G1 X140.978 Y115.061 E.06243
G1 X140.619 Y116.021 E.03468
G1 X140.107 Y116.964 E.0363
G1 X139.471 Y117.844 E.03673
G1 X138.551 Y118.836 E.04576
G1 X136.68 Y120.35 E.08142
G1 X135.465 Y121.115 E.04857
G1 X134.183 Y121.769 E.04869
G1 X132.865 Y122.291 E.04792
G1 X131.529 Y122.681 E.04708
G1 X128.652 Y123.17 E.09872
G1 X125.055 Y123.369 E.12186
G1 X123.364 Y123.329 E.05722
G1 X121.348 Y123.17 E.06843
G1 X118.471 Y122.681 E.09872
G1 X117.135 Y122.291 E.04708
G1 X115.817 Y121.769 E.04792
G1 X114.535 Y121.115 E.04869
G1 X113.32 Y120.35 E.04857
G1 X112.178 Y119.485 E.04846
G1 X110.693 Y118.04 E.07008
G1 X110.054 Y117.209 E.03547
M73 Q4 S6
G1 X109.524 Y116.317 E.03511
G1 X109.121 Y115.37 E.03482
G1 X108.845 Y114.347 E.03582
G1 X108.69 Y113.245 E.03765
G1 X108.644 Y112.054 E.04031
G1 X108.845 Y109.176 E.09762
M73 P4 R6
G1 X109.094 Y107.872 E.0449
G1 X109.453 Y106.648 E.04315
G1 X110.008 Y105.232 E.05145
G1 X110.713 Y103.739 E.05586
G1 X113.699 Y98.078 E.21648
G1 X114.724 Y96.313 E.06906
G1 X117.112 Y92.835 E.14269
; printing object farkashPick.STL id:0 copy 0
;WIPE_START
G1 F8640
G1 X119.165 Y90.263 E-.76
;WIPE_END
G1 E-.04 F2100
G1 Z.64 F10800
G1 X125 Y89.786
G1 Z.24
G1 E.8 F2100
;TYPE:Perimeter
G1 F1200
G1 X125.384 Y89.844 E.01314
G1 X125.797 Y89.975 E.01467
G1 X126.228 Y90.188 E.01625
G1 X126.704 Y90.509 E.01941
G1 X127.22 Y90.95 E.02298
G1 X127.989 Y91.738 E.03724
G1 X128.991 Y92.912 E.05223
G1 X130.276 Y94.589 E.07146
G1 X131.569 Y96.388 E.07491
G1 X132.566 Y97.912 E.06163
G1 X133.533 Y99.576 E.06511
G1 X135.363 Y102.999 E.13128
G1 X136.485 Y105.17 E.08269
G1 X137.134 Y106.549 E.05155
G1 X137.544 Y107.59 E.03786
G1 X137.827 Y108.523 E.03298
G1 X138.03 Y109.546 E.03529
G1 X138.158 Y110.735 E.04043
G1 X138.21 Y111.989 E.04246
G1 X138.183 Y112.89 E.03049
G1 X138.089 Y113.636 E.02542
G1 X137.936 Y114.253 E.02151
G1 X137.716 Y114.804 E.02009
G1 X137.398 Y115.362 E.02174
G1 X136.977 Y115.925 E.02377
G1 X136.433 Y116.509 E.02699
G1 X135.755 Y117.111 E.03067
G1 X134.821 Y117.81 E.03945
G1 X133.834 Y118.424 E.03934
G1 X132.805 Y118.939 E.03891
G1 X131.763 Y119.343 E.03783
G1 X130.699 Y119.645 E.0374
G1 X129.56 Y119.874 E.03929
G1 X128.257 Y120.048 E.0445
G1 X126.416 Y120.189 E.06245
G1 X125 Y120.223 E.04791
G1 X123.584 Y120.189 E.04791
G1 X121.743 Y120.048 E.06245
G1 X120.44 Y119.874 E.0445
G1 X119.301 Y119.645 E.03929
M73 Q5 S6
G1 X118.237 Y119.343 E.0374
G1 X117.195 Y118.939 E.03783
G1 X116.166 Y118.424 E.03891
G1 X115.179 Y117.81 E.03934
G1 X114.245 Y117.111 E.03945
M73 P5 R6
G1 X113.567 Y116.509 E.03067
G1 X113.023 Y115.925 E.02699
G1 X112.602 Y115.362 E.02377
G1 X112.284 Y114.804 E.02174
G1 X112.064 Y114.253 E.02008
G1 X111.911 Y113.636 E.02151
G1 X111.817 Y112.89 E.02542
G1 X111.79 Y111.989 E.03049
G1 X111.842 Y110.735 E.04246
G1 X111.97 Y109.546 E.04043
G1 X112.173 Y108.523 E.03529
G1 X112.456 Y107.59 E.03298
G1 X112.866 Y106.549 E.03786
G1 X113.515 Y105.17 E.05155
G1 X114.637 Y102.999 E.08269
G1 X116.467 Y99.576 E.13128
G1 X117.434 Y97.912 E.06511
G1 X118.431 Y96.387 E.06163
G1 X119.724 Y94.589 E.07491
G1 X121.009 Y92.912 E.07147
G1 X122.011 Y91.738 E.05222
G1 X122.78 Y90.95 E.03724
G1 X123.296 Y90.509 E.02298
G1 X123.772 Y90.188 E.01941
G1 X124.203 Y89.975 E.01625
G1 X124.616 Y89.844 E.01467
G1 X124.941 Y89.795 E.01111
G1 X125 Y89.413 F10800
;TYPE:External perimeter
G1 F1200
G1 X125.468 Y89.484 E.01601
G1 X125.936 Y89.633 E.0166
G1 X126.414 Y89.868 E.01803
G1 X126.927 Y90.215 E.02096
G1 X127.473 Y90.681 E.02425
G1 X128.262 Y91.489 E.03822
G1 X129.278 Y92.68 E.05297
G1 X130.572 Y94.369 E.07198
G1 X131.873 Y96.179 E.07538
G1 X132.88 Y97.719 E.06223
G1 X133.855 Y99.397 E.06566
G1 X135.689 Y102.827 E.13159
G1 X136.816 Y105.007 E.083
G1 X137.472 Y106.403 E.05218
G1 X137.892 Y107.469 E.03877
G1 X138.184 Y108.434 E.03409
G1 X138.395 Y109.491 E.03645
G1 X138.526 Y110.708 E.0414
G1 X138.578 Y111.987 E.04331
G1 X138.551 Y112.919 E.03153
G1 X138.452 Y113.703 E.02675
G1 X138.288 Y114.366 E.0231
G1 X138.049 Y114.965 E.02181
G1 X137.706 Y115.565 E.02338
G1 X137.26 Y116.162 E.02522
G1 X136.69 Y116.773 E.02825
G1 X135.988 Y117.397 E.03178
G1 X135.029 Y118.114 E.04051
G1 X134.014 Y118.746 E.04045
G1 X132.955 Y119.277 E.04007
G1 X131.88 Y119.693 E.039
G1 X130.786 Y120.004 E.03847
G1 X129.621 Y120.237 E.04018
G1 X128.295 Y120.415 E.04526
G1 X126.434 Y120.558 E.06313
G1 X125 Y120.591 E.04853
M73 Q6 S6
G1 X123.566 Y120.558 E.04853
G1 X121.705 Y120.415 E.06313
G1 X120.379 Y120.237 E.04526
G1 X119.214 Y120.004 E.04018
M73 P6 R6
G1 X118.12 Y119.693 E.03847
G1 X117.045 Y119.277 E.039
G1 X115.986 Y118.746 E.04007
G1 X114.971 Y118.114 E.04045
G1 X114.012 Y117.397 E.04051
G1 X113.31 Y116.773 E.03178
G1 X112.74 Y116.162 E.02825
G1 X112.294 Y115.565 E.02522
G1 X111.951 Y114.965 E.02338
G1 X111.712 Y114.366 E.02181
G1 X111.548 Y113.703 E.0231
G1 X111.449 Y112.919 E.02675
G1 X111.422 Y111.987 E.03153
G1 X111.474 Y110.708 E.04331
G1 X111.605 Y109.491 E.0414
G1 X111.816 Y108.434 E.03645
G1 X112.108 Y107.469 E.03409
G1 X112.528 Y106.403 E.03877
G1 X113.184 Y105.007 E.05218
G1 X114.311 Y102.827 E.083
G1 X116.145 Y99.397 E.13159
G1 X117.12 Y97.719 E.06566
G1 X118.127 Y96.179 E.06223
G1 X119.428 Y94.369 E.07538
G1 X120.722 Y92.68 E.07198
G1 X121.738 Y91.489 E.05297
G1 X122.527 Y90.681 E.03822
G1 X123.073 Y90.215 E.02425
G1 X123.586 Y89.868 E.02096
G1 X124.064 Y89.633 E.01803
G1 X124.532 Y89.484 E.0166
G1 X124.941 Y89.422 E.01398
G1 X125.192 Y89.764 F10800
;WIPE_START
G1 F8640
G1 X125.468 Y89.484 E-.12259
G1 X125.936 Y89.633 E-.11334
G1 X126.414 Y89.868 E-.12306
G1 X126.927 Y90.215 E-.14309
G1 X127.473 Y90.681 E-.16553
G1 X127.752 Y90.967 E-.09239
;WIPE_END
G1 E-.04 F2100
G1 Z.64 F10800
G1 X129.059 Y93.182
G1 Z.24
G1 E.8 F2100
;TYPE:Solid infill
;WIDTH:0.423701
G1 F1200
G1 X127.014 Y91.137 E.0988
G1 X126.536 Y90.729 E.02145
G1 X126.089 Y90.427 E.01843
G1 X125.694 Y90.232 E.01507
G1 X125.531 Y90.181 E.00583
G1 X129.89 Y94.54 E.21063
G1 X131.271 Y96.447 E.08044
G1 X124.904 Y90.08 E.30765
G1 X124.679 Y90.114 E.00779
G1 X124.476 Y90.178 E.00726
G1 X132.284 Y97.986 E.37729
G1 X133.028 Y99.256 E.05027
M73 Q7 S6
G1 X124.104 Y90.332 E.4312
M73 P7 R6
G1 X123.911 Y90.427 E.00736
G1 X123.769 Y90.523 E.00586
G1 X133.678 Y100.433 E.47882
G1 X134.282 Y101.564 E.04381
G1 X123.455 Y90.736 E.52317
G1 X123.171 Y90.979 E.01276
G1 X134.887 Y102.694 E.5661
G1 X135.466 Y103.8 E.04262
G1 X122.894 Y91.228 E.60745
G1 X122.634 Y91.494 E.01272
M73 Q8 S6
G1 X136.028 Y104.889 E.6472
G1 X136.532 Y105.918 E.03915
M73 P8 R6
G1 X122.374 Y91.761 E.68407
G1 X122.121 Y92.034 E.01273
G1 X136.967 Y106.88 E.71736
G1 X137.301 Y107.74 E.0315
G1 X121.879 Y92.318 E.74517
G1 X121.636 Y92.602 E.01276
M73 Q9 S6
G1 X137.529 Y108.495 E.76793
G1 X137.672 Y109.164 E.02339
M73 P9 R6
G1 X121.394 Y92.886 E.78656
G1 X121.156 Y93.174 E.01277
G1 X137.779 Y109.798 E.80323
G1 X137.843 Y110.387 E.02027
G1 X120.928 Y93.472 E.81732
G1 X120.699 Y93.77 E.01283
M73 P10 R6
M73 Q10 S6
G1 X137.891 Y110.962 E.83068
G1 X137.913 Y111.511 E.01877
G1 X120.471 Y94.068 E.84281
G1 X120.242 Y94.366 E.01283
G1 X137.931 Y112.055 E.8547
G1 X137.916 Y112.566 E.01748
M73 Q11 S6
G1 X120.014 Y94.664 E.86501
G1 X119.792 Y94.968 E.01287
M73 P11 R6
G1 X137.883 Y113.06 E.87417
G1 X137.824 Y113.527 E.0161
G1 X119.571 Y95.274 E.88197
G1 X119.351 Y95.581 E.01289
G1 X137.725 Y113.955 E.88783
G1 X137.673 Y114.168 E.0075
M73 P12 R6
M73 Q12 S6
G1 X137.598 Y114.354 E.00685
G1 X119.131 Y95.887 E.89232
G1 X118.911 Y96.193 E.01289
G1 X137.443 Y114.725 E.89546
G1 X137.252 Y115.06 E.01318
G1 X118.691 Y96.5 E.89685
G1 X118.481 Y96.816 E.01298
M73 P13 R6
M73 Q13 S6
G1 X137.042 Y115.377 E.89684
G1 X136.817 Y115.678 E.01285
G1 X118.273 Y97.134 E.89601
G1 X118.065 Y97.452 E.01299
G1 X136.569 Y115.957 E.89412
G1 X136.315 Y116.229 E.01272
M73 P14 R6
M73 Q14 S6
G1 X117.857 Y97.771 E.8919
G1 X117.65 Y98.09 E.01301
G1 X136.044 Y116.484 E.88879
G1 X135.765 Y116.732 E.01274
G1 X117.457 Y98.423 E.88468
G1 X117.263 Y98.756 E.01315
M73 P15 R5
M73 Q15 S6
G1 X135.479 Y116.972 E.8802
G1 X135.178 Y117.198 E.01285
M73 Q15 S5
G1 X117.07 Y99.089 E.875
G1 X116.876 Y99.422 E.01315
G1 X134.877 Y117.423 E.8698
G1 X134.569 Y117.641 E.0129
M73 Q16 S5
G1 X116.684 Y99.756 E.86421
M73 P16 R5
G1 X116.5 Y100.099 E.01329
G1 X134.245 Y117.843 E.85738
G1 X133.92 Y118.045 E.01306
G1 X116.317 Y100.442 E.85056
G1 X116.134 Y100.785 E.01329
G1 X133.587 Y118.238 E.84333
G1 X133.236 Y118.414 E.0134
M73 P17 R5
M73 Q17 S5
G1 X115.95 Y101.128 E.83525
G1 X115.767 Y101.471 E.01329
G1 X132.886 Y118.59 E.82717
G1 X132.522 Y118.753 E.01361
G1 X115.584 Y101.814 E.81846
G1 X115.4 Y102.157 E.01329
M73 P18 R5
M73 Q18 S5
G1 X132.143 Y118.9 E.80899
G1 X131.763 Y119.046 E.0139
G1 X115.217 Y102.5 E.79951
G1 X115.034 Y102.843 E.01329
G1 X131.361 Y119.17 E.78891
G1 X130.951 Y119.286 E.01456
G1 X114.851 Y103.187 E.77793
G1 X114.672 Y103.534 E.01335
M73 P19 R5
M73 Q19 S5
G1 X130.534 Y119.396 E.76647
G1 X130.096 Y119.484 E.01528
G1 X114.492 Y103.881 E.75395
G1 X114.313 Y104.228 E.01335
G1 X129.657 Y119.572 E.74143
G1 X129.202 Y119.643 E.01576
M73 P20 R5
M73 Q20 S5
G1 X114.134 Y104.575 E.72808
G1 X113.954 Y104.922 E.01335
G1 X128.737 Y119.705 E.71431
G1 X128.273 Y119.767 E.016
G1 X113.775 Y105.269 E.70055
G1 X113.606 Y105.626 E.0135
G1 X127.787 Y119.807 E.68521
G1 X127.298 Y119.845 E.01675
M73 P21 R5
M73 Q21 S5
G1 X113.437 Y105.984 E.66973
G1 X113.269 Y106.342 E.01352
G1 X126.809 Y119.882 E.65424
G1 X126.316 Y119.915 E.01689
G1 X113.103 Y106.702 E.63844
G1 X112.954 Y107.08 E.01387
G1 X125.802 Y119.927 E.62078
G1 X125.287 Y119.939 E.01758
G1 X112.805 Y107.458 E.60312
G1 X112.667 Y107.846 E.01408
M73 P22 R5
M73 Q22 S5
G1 X124.762 Y119.941 E.5844
G1 X124.223 Y119.928 E.01842
G1 X112.545 Y108.25 E.56427
G1 X112.428 Y108.659 E.01455
G1 X123.684 Y119.915 E.54388
G1 X123.119 Y119.877 E.01935
G1 X112.341 Y109.098 E.52079
G1 X112.253 Y109.537 E.01529
M73 Q23 S5
G1 X122.549 Y119.833 E.49747
G1 X121.979 Y119.789 E.01953
M73 P23 R5
G1 X112.198 Y110.009 E.47259
G1 X112.147 Y110.484 E.01633
G1 X121.385 Y119.721 E.44636
G1 X120.777 Y119.64 E.02095
G1 X112.109 Y110.972 E.41883
G1 X112.088 Y111.478 E.01729
G1 X120.143 Y119.532 E.3892
G1 X119.484 Y119.4 E.02295
G1 X112.067 Y111.983 E.35838
G1 X112.083 Y112.525 E.01852
G1 X118.763 Y119.205 E.32278
G1 X118.325 Y119.081 E.01554
M73 P24 R5
M73 Q24 S5
G1 X117.978 Y118.946 E.01274
G1 X112.121 Y113.089 E.283
G1 X112.214 Y113.708 E.02139
G1 X117.076 Y118.57 E.23493
G1 X116.301 Y118.182 E.02958
G1 X115.931 Y117.952 E.01492
G1 X112.447 Y114.469 E.16831
G1 X112.533 Y114.684 E.00792
G1 X112.834 Y115.211 E.02072
G1 X113.236 Y115.748 E.02291
G1 X113.728 Y116.276 E.02468
G1 X114.962 Y117.51 E.05961
; stop printing object farkashPick.STL id:0 copy 0
M106 S84.15
;LAYER_CHANGE
;Z:0.44
;HEIGHT:0.2
;BEFORE_LAYER_CHANGE
G92 E0.0
;0.44


;WIPE_START
G1 F8640
G1 X113.728 Y116.276 E-.40287
G1 X113.236 Y115.748 E-.16682
G1 X112.834 Y115.211 E-.15485
G1 X112.758 Y115.077 E-.03546
;WIPE_END
G1 E-.04 F2100
G1 Z.64 F10800
;AFTER_LAYER_CHANGE
;0.44
G1 X109.511 Y117.014
G1 Z.44
G1 E.8 F2100
;TYPE:Skirt/Brim
;WIDTH:0.42
G1 F3000
G1 X109.204 Y116.5 E.01729
G1 X108.779 Y115.506 E.03116
G1 X108.487 Y114.436 E.032
G1 X108.324 Y113.291 E.03335
G1 X108.276 Y112.065 E.03539
G1 X108.478 Y109.136 E.08469
G1 X108.733 Y107.8 E.03923
G1 X109.101 Y106.541 E.03783
G1 X109.675 Y105.075 E.04542
G1 X110.385 Y103.569 E.04803
G1 X113.374 Y97.904 E.18476
G1 X114.405 Y96.127 E.05926
G1 X116.876 Y92.528 E.12594
G1 X119.353 Y89.436 E.11428
G1 X120.288 Y88.469 E.0388
G1 X121.293 Y87.619 E.03798
G1 X122.17 Y87.058 E.03002
G1 X123.078 Y86.644 E.0288
G1 X124.033 Y86.376 E.02859
G1 X125.406 Y86.292 E.03969
G1 X126.393 Y86.476 E.02897
G1 X127.83 Y87.058 E.04471
G1 X128.707 Y87.619 E.03002
G1 X129.712 Y88.469 E.03798
G1 X131.769 Y90.758 E.08878
G1 X134.434 Y94.35 E.129
G1 X135.595 Y96.127 E.06125
G1 X136.626 Y97.904 E.05926
G1 X139.615 Y103.569 E.18476
G1 X140.827 Y106.331 E.08701
G1 X141.267 Y107.8 E.04423
G1 X141.522 Y109.136 E.03923
G1 X141.723 Y111.872 E.07912
G1 X141.676 Y113.291 E.04097
G1 X141.336 Y115.15 E.05449
G1 X140.961 Y116.158 E.03103
G1 X140.427 Y117.147 E.03242
G1 X139.766 Y118.065 E.03263
G1 X138.979 Y118.933 E.03379
G1 X137.887 Y119.906 E.04219
G1 X136.706 Y120.778 E.04235
G1 X135.441 Y121.551 E.04276
G1 X134.11 Y122.204 E.04278
G1 X132.758 Y122.715 E.04169
