; generated by PrusaSlicer 2.4.1+win64 on 2022-10-28 at 15:23:50 UTC


;
;
; 

; external perimeters extrusion width = 0.45mm
; perimeters extrusion width = 0.45mm
; infill extrusion width = 0.45mm
; solid infill extrusion width = 0.45mm
; top infill extrusion width = 0.40mm
; first layer extrusion width = 0.42mm

M73 P0 R230
M73 Q0 S231
M201 X1000 Y1000 Z200 E5000 ; sets maximum accelerations, mm/sec^2
M203 X200 Y200 Z12 E120 ; sets maximum feedrates, mm / sec
M204 P1250 R1250 T1250 ; sets acceleration (P, T) and retract acceleration (R), mm/sec^2
M205 X8.00 Y8.00 Z0.40 E4.50 ; sets the jerk limits, mm/sec
M205 S0 T0 ; sets the minimum extruding and travel feed rate, mm/sec
M107
;TYPE:Custom
M862.3 P "MK3S" ; printer model check
M862.1 P0.4 ; nozzle diameter check
M115 U3.11.0 ; tell printer latest fw version
G90 ; use absolute coordinates
M83 ; extruder relative mode
M104 S210 ; set extruder temp
M140 S45 ; set bed temp
M190 S45 ; wait for bed temp
M109 S210 ; wait for extruder temp
G28 W ; home all without mesh bed level
G80 ; mesh bed leveling

G1 Z0.2 F720
G1 Y-3 F1000 ; go outside print area
G92 E0
G1 X60 E9 F1000 ; intro line
G1 X100 E12.5 F1000 ; intro line

G92 E0
M221 S95

; Don't change E values below. Excessive value can damage the printer.

G21 ; set units to millimeters
G90 ; use absolute coordinates
M83 ; use relative distances for extrusion
M900 K0.05 ; Filament gcode LA 1.5
M900 K30 ; Filament gcode LA 1.0
M107
;LAYER_CHANGE
;Z:0.24
;HEIGHT:0.24
;BEFORE_LAYER_CHANGE
G92 E0.0
;0.24


G1 E-.8 F2100
G1 Z.4 F10800
;AFTER_LAYER_CHANGE
;0.24
G1 X91.636 Y53.54
G1 Z.24
G1 E.8 F2100
M204 S1000
;TYPE:Skirt/Brim
;WIDTH:0.42
G1 F1200
G1 X92.681 Y52.667 E.04607
G1 X93.612 Y52.476 E.03217
G1 X120.059 Y52.476 E.89463
G1 X121.364 Y52.868 E.04607
G1 X121.953 Y53.422 E.02737
G1 X158.281 Y101.79 E2.04623
G1 X158.756 Y103.212 E.05072
G1 X158.756 Y155.155 E1.75707
G1 X158.364 Y156.46 E.04607
M73 Q0 S230
G1 X157.319 Y157.333 E.04607
G1 X156.388 Y157.524 E.03217
G1 X93.612 Y157.524 E2.1235
G1 X92.308 Y157.132 E.04607
G1 X91.435 Y156.087 E.04607
G1 X91.244 Y155.155 E.03217
G1 X91.244 Y54.845 E3.39321
G1 X91.618 Y53.598 E.04404
; printing object GLAB ice moldV2.STL id:0 copy 0
;WIPE_START
G1 F8640
G1 X92.681 Y52.667 E-.32612
G1 X93.612 Y52.476 E-.21961
G1 X94.54 Y52.476 E-.21427
;WIPE_END
G1 E-.04 F2100
G1 Z.64 F10800
G1 X94.022 Y55.255
G1 Z.24
G1 E.8 F2100
;TYPE:External perimeter
G1 F1200
G1 X119.855 Y55.255 E.87383
G1 X155.978 Y103.349 E2.03468
G1 X155.978 Y154.745 E1.73858
G1 X94.022 Y154.745 E2.09576
G1 X94.022 Y55.315 E3.36344
G1 X94.4 Y55.387 F10800
G1 X94.391 Y55.623
;TYPE:Perimeter
G1 F1200
G1 X119.671 Y55.623 E.85514
G1 X155.609 Y103.472 E2.02429
G1 X155.609 Y154.377 E1.72195
G1 X94.391 Y154.377 E2.07083
M73 P0 R229
G1 X94.391 Y55.683 E3.33851
;WIPE_START
G1 F8640
G1 X97.682 Y55.676 E-.76
;WIPE_END
G1 E-.04 F2100
G1 Z.64 F10800
G1 X121.895 Y58.769
G1 Z.24
G1 E.8 F2100
;TYPE:Solid infill
;WIDTH:0.420603
G1 F1200
G1 X119.026 Y55.9 E.13747
G1 X118.504 Y55.9 E.01769
G1 X122.637 Y60.033 E.19803
G1 X124.212 Y62.13 E.08886
G1 X117.982 Y55.9 E.29852
G1 X117.46 Y55.9 E.01769
G1 X125.787 Y64.227 E.399
G1 X127.362 Y66.324 E.08886
G1 X116.938 Y55.9 E.49948
G1 X116.416 Y55.9 E.01769
G1 X128.937 Y68.421 E.59997
G1 X130.512 Y70.518 E.08886
G1 X115.894 Y55.9 E.70045
G1 X115.372 Y55.9 E.01769
G1 X132.087 Y72.615 E.80093
G1 X133.662 Y74.712 E.08886
G1 X114.85 Y55.9 E.90142
G1 X114.328 Y55.9 E.01769
G1 X135.237 Y76.809 E1.0019
G1 X136.812 Y78.906 E.08886
G1 X113.806 Y55.9 E1.10238
G1 X113.284 Y55.9 E.01769
G1 X138.387 Y81.003 E1.20287
G1 X139.962 Y83.1 E.08886
G1 X112.762 Y55.9 E1.30335
G1 X112.24 Y55.9 E.01769
G1 X141.537 Y85.197 E1.40383
G1 X143.112 Y87.294 E.08886
G1 X111.718 Y55.9 E1.50432
G1 X111.196 Y55.9 E.01769
G1 X144.687 Y89.391 E1.6048
G1 X146.262 Y91.488 E.08886
M73 Q0 S229
G1 X110.674 Y55.9 E1.70528
G1 X110.152 Y55.9 E.01769
G1 X147.837 Y93.585 E1.80577
G1 X149.412 Y95.682 E.08886
G1 X109.63 Y55.9 E1.90625
G1 X109.108 Y55.9 E.01769
G1 X150.987 Y97.779 E2.00673
G1 X152.562 Y99.876 E.08886
G1 X108.586 Y55.9 E2.10722
G1 X108.064 Y55.9 E.01769
G1 X154.137 Y101.973 E2.2077
G1 X155.333 Y103.564 E.06744
G1 X155.333 Y103.69 E.00426
G1 X107.542 Y55.9 E2.28999
G1 X107.02 Y55.9 E.01769
G1 X155.333 Y104.212 E2.315
G1 X155.333 Y104.734 E.01769
G1 X106.498 Y55.9 E2.34001
G1 X105.976 Y55.9 E.01769
M73 P0 R228
G1 X155.333 Y105.256 E2.36502
G1 X155.333 Y105.778 E.01769
G1 X105.454 Y55.9 E2.39004
G1 X104.932 Y55.9 E.01769
G1 X155.333 Y106.3 E2.41505
G1 X155.333 Y106.822 E.01769
G1 X104.41 Y55.9 E2.44006
G1 X103.888 Y55.9 E.01769
G1 X155.333 Y107.344 E2.46507
G1 X155.333 Y107.866 E.01769
G1 X103.366 Y55.9 E2.49008
G1 X102.844 Y55.9 E.01769
G1 X155.333 Y108.388 E2.5151
G1 X155.333 Y108.91 E.01769
G1 X102.322 Y55.9 E2.54011
G1 X101.8 Y55.9 E.01769
G1 X155.333 Y109.432 E2.56512
G1 X155.333 Y109.954 E.01769
M73 Q0 S228
G1 X101.278 Y55.9 E2.59013
G1 X100.756 Y55.9 E.01769
M73 P1 R228
M73 Q1 S228
G1 X155.333 Y110.476 E2.61514
G1 X155.333 Y110.998 E.01769
G1 X100.234 Y55.9 E2.64016
G1 X99.712 Y55.9 E.01769
G1 X155.333 Y111.52 E2.66517
G1 X155.333 Y112.042 E.01769
G1 X99.19 Y55.9 E2.69018
G1 X98.668 Y55.9 E.01769
G1 X155.333 Y112.564 E2.71519
G1 X155.333 Y113.086 E.01769
G1 X98.146 Y55.9 E2.7402
G1 X97.624 Y55.9 E.01769
M73 P1 R227
G1 X155.333 Y113.608 E2.76522
G1 X155.333 Y114.13 E.01769
G1 X97.102 Y55.9 E2.79023
G1 X96.58 Y55.9 E.01769
G1 X155.333 Y114.652 E2.81524
G1 X155.333 Y115.174 E.01769
G1 X96.058 Y55.9 E2.84025
G1 X95.536 Y55.9 E.01769
G1 X155.333 Y115.696 E2.86526
G1 X155.333 Y116.218 E.01769
G1 X95.014 Y55.9 E2.89028
G1 X94.667 Y55.9 E.01176
G1 X94.667 Y56.075 E.00592
G1 X155.333 Y116.74 E2.90691
G1 X155.333 Y117.262 E.01769
G1 X94.667 Y56.597 E2.90691
G1 X94.667 Y57.119 E.01769
M73 Q1 S227
G1 X155.333 Y117.784 E2.90691
G1 X155.333 Y118.306 E.01769
G1 X94.667 Y57.641 E2.90691
G1 X94.667 Y58.162 E.01769
G1 X155.333 Y118.828 E2.90691
G1 X155.333 Y119.35 E.01769
G1 X94.667 Y58.684 E2.90691
G1 X94.667 Y59.206 E.01769
G1 X155.333 Y119.872 E2.90691
G1 X155.333 Y120.394 E.01769
G1 X94.667 Y59.728 E2.90691
G1 X94.667 Y60.25 E.01769
M73 P1 R226
G1 X155.333 Y120.916 E2.90691
G1 X155.333 Y121.438 E.01769
G1 X94.667 Y60.772 E2.90691
G1 X94.667 Y61.294 E.01769
G1 X155.333 Y121.96 E2.90691
G1 X155.333 Y122.482 E.01769
G1 X94.667 Y61.816 E2.90691
G1 X94.667 Y62.338 E.01769
G1 X155.333 Y123.004 E2.90691
G1 X155.333 Y123.526 E.01769
G1 X94.667 Y62.86 E2.90691
G1 X94.667 Y63.382 E.01769
G1 X155.333 Y124.048 E2.90691
G1 X155.333 Y124.57 E.01769
M73 Q1 S226
G1 X94.667 Y63.904 E2.90691
G1 X94.667 Y64.426 E.01769
G1 X155.333 Y125.092 E2.90691
G1 X155.333 Y125.614 E.01769
G1 X94.667 Y64.948 E2.90691
G1 X94.667 Y65.47 E.01769
G1 X155.333 Y126.136 E2.90691
G1 X155.333 Y126.658 E.01769
G1 X94.667 Y65.992 E2.90691
G1 X94.667 Y66.514 E.01769
G1 X155.333 Y127.18 E2.90691
G1 X155.333 Y127.702 E.01769
M73 P2 R226
M73 Q2 S226
G1 X94.667 Y67.036 E2.90691
G1 X94.667 Y67.558 E.01769
M73 P2 R225
G1 X155.333 Y128.224 E2.90691
G1 X155.333 Y128.746 E.01769
G1 X94.667 Y68.08 E2.90691
G1 X94.667 Y68.602 E.01769
G1 X155.333 Y129.268 E2.90691
G1 X155.333 Y129.79 E.01769
G1 X94.667 Y69.124 E2.90691
G1 X94.667 Y69.646 E.01769
G1 X155.333 Y130.312 E2.90691
G1 X155.333 Y130.834 E.01769
G1 X94.667 Y70.168 E2.90691
G1 X94.667 Y70.69 E.01769
G1 X155.333 Y131.356 E2.90691
G1 X155.333 Y131.877 E.01769
M73 Q2 S225
G1 X94.667 Y71.212 E2.90691
G1 X94.667 Y71.734 E.01769
G1 X155.333 Y132.399 E2.90691
G1 X155.333 Y132.921 E.01769
G1 X94.667 Y72.256 E2.90691
G1 X94.667 Y72.778 E.01769
G1 X155.333 Y133.443 E2.90691
G1 X155.333 Y133.965 E.01769
G1 X94.667 Y73.3 E2.90691
G1 X94.667 Y73.822 E.01769
G1 X155.333 Y134.487 E2.90691
G1 X155.333 Y135.009 E.01769
G1 X94.667 Y74.344 E2.90691
G1 X94.667 Y74.866 E.01769
M73 P2 R224
G1 X155.333 Y135.531 E2.90691
G1 X155.333 Y136.053 E.01769
G1 X94.667 Y75.388 E2.90691
G1 X94.667 Y75.91 E.01769
G1 X155.333 Y136.575 E2.90691
G1 X155.333 Y137.097 E.01769
G1 X94.667 Y76.432 E2.90691
G1 X94.667 Y76.954 E.01769
G1 X155.333 Y137.619 E2.90691
G1 X155.333 Y138.141 E.01769
G1 X94.667 Y77.476 E2.90691
G1 X94.667 Y77.998 E.01769
G1 X155.333 Y138.663 E2.90691
G1 X155.333 Y139.185 E.01769
M73 Q2 S224
G1 X94.667 Y78.52 E2.90691
G1 X94.667 Y79.042 E.01769
G1 X155.333 Y139.707 E2.90691
G1 X155.333 Y140.229 E.01769
G1 X94.667 Y79.564 E2.90691
G1 X94.667 Y80.086 E.01769
G1 X155.333 Y140.751 E2.90691
G1 X155.333 Y141.273 E.01769
G1 X94.667 Y80.608 E2.90691
G1 X94.667 Y81.13 E.01769
G1 X155.333 Y141.795 E2.90691
G1 X155.333 Y142.317 E.01769
G1 X94.667 Y81.652 E2.90691
G1 X94.667 Y82.174 E.01769
M73 P2 R223
G1 X155.333 Y142.839 E2.90691
G1 X155.333 Y143.361 E.01769
G1 X94.667 Y82.696 E2.90691
G1 X94.667 Y83.218 E.01769
G1 X155.333 Y143.883 E2.90691
G1 X155.333 Y144.405 E.01769
M73 P3 R223
M73 Q3 S224
G1 X94.667 Y83.74 E2.90691
G1 X94.667 Y84.262 E.01769
G1 X155.333 Y144.927 E2.90691
G1 X155.333 Y145.449 E.01769
G1 X94.667 Y84.784 E2.90691
G1 X94.667 Y85.306 E.01769
G1 X155.333 Y145.971 E2.90691
G1 X155.333 Y146.493 E.01769
M73 Q3 S223
G1 X94.667 Y85.828 E2.90691
G1 X94.667 Y86.35 E.01769
G1 X155.333 Y147.015 E2.90691
G1 X155.333 Y147.537 E.01769
G1 X94.667 Y86.872 E2.90691
G1 X94.667 Y87.394 E.01769
G1 X155.333 Y148.059 E2.90691
G1 X155.333 Y148.581 E.01769
G1 X94.667 Y87.916 E2.90691
G1 X94.667 Y88.438 E.01769
G1 X155.333 Y149.103 E2.90691
G1 X155.333 Y149.625 E.01769
G1 X94.667 Y88.96 E2.90691
G1 X94.667 Y89.482 E.01769
M73 P3 R222
G1 X155.333 Y150.147 E2.90691
G1 X155.333 Y150.669 E.01769
G1 X94.667 Y90.004 E2.90691
G1 X94.667 Y90.526 E.01769
G1 X155.333 Y151.191 E2.90691
G1 X155.333 Y151.713 E.01769
G1 X94.667 Y91.048 E2.90691
G1 X94.667 Y91.57 E.01769
G1 X155.333 Y152.235 E2.90691
G1 X155.333 Y152.757 E.01769
G1 X94.667 Y92.091 E2.90691
G1 X94.667 Y92.613 E.01769
G1 X155.333 Y153.279 E2.90691
G1 X155.333 Y153.801 E.01769
M73 Q3 S222
G1 X94.667 Y93.135 E2.90691
G1 X94.667 Y93.657 E.01769
G1 X155.11 Y154.1 E2.89625
G1 X154.588 Y154.1 E.01769
G1 X94.667 Y94.179 E2.87124
G1 X94.667 Y94.701 E.01769
G1 X154.066 Y154.1 E2.84622
G1 X153.544 Y154.1 E.01769
G1 X94.667 Y95.223 E2.82121
G1 X94.667 Y95.745 E.01769
G1 X153.022 Y154.1 E2.7962
G1 X152.5 Y154.1 E.01769
G1 X94.667 Y96.267 E2.77119
G1 X94.667 Y96.789 E.01769
M73 P3 R221
G1 X151.978 Y154.1 E2.74618
G1 X151.456 Y154.1 E.01769
G1 X94.667 Y97.311 E2.72116
G1 X94.667 Y97.833 E.01769
G1 X150.934 Y154.1 E2.69615
G1 X150.412 Y154.1 E.01769
G1 X94.667 Y98.355 E2.67114
G1 X94.667 Y98.877 E.01769
G1 X149.89 Y154.1 E2.64613
G1 X149.368 Y154.1 E.01769
G1 X94.667 Y99.399 E2.62112
G1 X94.667 Y99.921 E.01769
G1 X148.846 Y154.1 E2.5961
G1 X148.324 Y154.1 E.01769
M73 P4 R221
M73 Q3 S221
G1 X94.667 Y100.443 E2.57109
G1 X94.667 Y100.965 E.01769
M73 Q4 S221
G1 X147.802 Y154.1 E2.54608
G1 X147.28 Y154.1 E.01769
G1 X94.667 Y101.487 E2.52107
G1 X94.667 Y102.009 E.01769
G1 X146.758 Y154.1 E2.49606
G1 X146.236 Y154.1 E.01769
G1 X94.667 Y102.531 E2.47104
G1 X94.667 Y103.053 E.01769
G1 X145.714 Y154.1 E2.44603
G1 X145.192 Y154.1 E.01769
G1 X94.667 Y103.575 E2.42102
G1 X94.667 Y104.097 E.01769
G1 X144.67 Y154.1 E2.39601
G1 X144.148 Y154.1 E.01769
M73 P4 R220
G1 X94.667 Y104.619 E2.371
G1 X94.667 Y105.141 E.01769
G1 X143.626 Y154.1 E2.34598
G1 X143.104 Y154.1 E.01769
G1 X94.667 Y105.663 E2.32097
G1 X94.667 Y106.185 E.01769
G1 X142.582 Y154.1 E2.29596
G1 X142.061 Y154.1 E.01769
G1 X94.667 Y106.707 E2.27095
G1 X94.667 Y107.229 E.01769
G1 X141.539 Y154.1 E2.24593
G1 X141.017 Y154.1 E.01769
G1 X94.667 Y107.751 E2.22092
G1 X94.667 Y108.273 E.01769
G1 X140.495 Y154.1 E2.19591
G1 X139.973 Y154.1 E.01769
G1 X94.667 Y108.795 E2.1709
G1 X94.667 Y109.317 E.01769
M73 Q4 S220
G1 X139.451 Y154.1 E2.14589
G1 X138.929 Y154.1 E.01769
G1 X94.667 Y109.839 E2.12087
G1 X94.667 Y110.361 E.01769
G1 X138.407 Y154.1 E2.09586
G1 X137.885 Y154.1 E.01769
G1 X94.667 Y110.883 E2.07085
G1 X94.667 Y111.405 E.01769
G1 X137.363 Y154.1 E2.04584
G1 X136.841 Y154.1 E.01769
G1 X94.667 Y111.927 E2.02083
G1 X94.667 Y112.449 E.01769
G1 X136.319 Y154.1 E1.99581
G1 X135.797 Y154.1 E.01769
G1 X94.667 Y112.971 E1.9708
G1 X94.667 Y113.493 E.01769
G1 X135.275 Y154.1 E1.94579
G1 X134.753 Y154.1 E.01769
G1 X94.667 Y114.015 E1.92078
G1 X94.667 Y114.537 E.01769
M73 P4 R219
G1 X134.231 Y154.1 E1.89577
G1 X133.709 Y154.1 E.01769
G1 X94.667 Y115.059 E1.87075
G1 X94.667 Y115.581 E.01769
G1 X133.187 Y154.1 E1.84574
G1 X132.665 Y154.1 E.01769
G1 X94.667 Y116.103 E1.82073
G1 X94.667 Y116.625 E.01769
G1 X132.143 Y154.1 E1.79572
G1 X131.621 Y154.1 E.01769
G1 X94.667 Y117.147 E1.77071
G1 X94.667 Y117.669 E.01769
G1 X131.099 Y154.1 E1.74569
G1 X130.577 Y154.1 E.01769
G1 X94.667 Y118.191 E1.72068
G1 X94.667 Y118.713 E.01769
G1 X130.055 Y154.1 E1.69567
G1 X129.533 Y154.1 E.01769
G1 X94.667 Y119.235 E1.67066
G1 X94.667 Y119.757 E.01769
G1 X129.011 Y154.1 E1.64565
G1 X128.489 Y154.1 E.01769
G1 X94.667 Y120.279 E1.62063
M73 Q4 S219
G1 X94.667 Y120.801 E.01769
G1 X127.967 Y154.1 E1.59562
G1 X127.445 Y154.1 E.01769
G1 X94.667 Y121.323 E1.57061
G1 X94.667 Y121.845 E.01769
G1 X126.923 Y154.1 E1.5456
G1 X126.401 Y154.1 E.01769
G1 X94.667 Y122.367 E1.52059
G1 X94.667 Y122.889 E.01769
G1 X125.879 Y154.1 E1.49557
G1 X125.357 Y154.1 E.01769
G1 X94.667 Y123.411 E1.47056
G1 X94.667 Y123.933 E.01769
G1 X124.835 Y154.1 E1.44555
G1 X124.313 Y154.1 E.01769
M73 P5 R219
G1 X94.667 Y124.455 E1.42054
G1 X94.667 Y124.977 E.01769
M73 Q5 S219
G1 X123.791 Y154.1 E1.39553
G1 X123.269 Y154.1 E.01769
G1 X94.667 Y125.499 E1.37051
G1 X94.667 Y126.021 E.01769
G1 X122.747 Y154.1 E1.3455
G1 X122.225 Y154.1 E.01769
G1 X94.667 Y126.542 E1.32049
G1 X94.667 Y127.064 E.01769
G1 X121.703 Y154.1 E1.29548
G1 X121.181 Y154.1 E.01769
M73 P5 R218
G1 X94.667 Y127.586 E1.27047
G1 X94.667 Y128.108 E.01769
G1 X120.659 Y154.1 E1.24545
G1 X120.137 Y154.1 E.01769
G1 X94.667 Y128.63 E1.22044
G1 X94.667 Y129.152 E.01769
G1 X119.615 Y154.1 E1.19543
G1 X119.093 Y154.1 E.01769
G1 X94.667 Y129.674 E1.17042
G1 X94.667 Y130.196 E.01769
G1 X118.571 Y154.1 E1.14541
G1 X118.049 Y154.1 E.01769
G1 X94.667 Y130.718 E1.12039
G1 X94.667 Y131.24 E.01769
G1 X117.527 Y154.1 E1.09538
G1 X117.005 Y154.1 E.01769
G1 X94.667 Y131.762 E1.07037
G1 X94.667 Y132.284 E.01769
G1 X116.483 Y154.1 E1.04536
G1 X115.961 Y154.1 E.01769
G1 X94.667 Y132.806 E1.02035
G1 X94.667 Y133.328 E.01769
G1 X115.439 Y154.1 E.99533
G1 X114.917 Y154.1 E.01769
G1 X94.667 Y133.85 E.97032
G1 X94.667 Y134.372 E.01769
G1 X114.395 Y154.1 E.94531
G1 X113.873 Y154.1 E.01769
G1 X94.667 Y134.894 E.9203
G1 X94.667 Y135.416 E.01769
G1 X113.351 Y154.1 E.89529
G1 X112.829 Y154.1 E.01769
G1 X94.667 Y135.938 E.87027
G1 X94.667 Y136.46 E.01769
G1 X112.307 Y154.1 E.84526
G1 X111.785 Y154.1 E.01769
G1 X94.667 Y136.982 E.82025
G1 X94.667 Y137.504 E.01769
M73 Q5 S218
G1 X111.263 Y154.1 E.79524
G1 X110.741 Y154.1 E.01769
G1 X94.667 Y138.026 E.77023
G1 X94.667 Y138.548 E.01769
G1 X110.219 Y154.1 E.74521
G1 X109.697 Y154.1 E.01769
G1 X94.667 Y139.07 E.7202
G1 X94.667 Y139.592 E.01769
G1 X109.175 Y154.1 E.69519
G1 X108.653 Y154.1 E.01769
G1 X94.667 Y140.114 E.67018
G1 X94.667 Y140.636 E.01769
G1 X108.131 Y154.1 E.64517
G1 X107.61 Y154.1 E.01769
G1 X94.667 Y141.158 E.62015
G1 X94.667 Y141.68 E.01769
G1 X107.088 Y154.1 E.59514
G1 X106.566 Y154.1 E.01769
G1 X94.667 Y142.202 E.57013
G1 X94.667 Y142.724 E.01769
G1 X106.044 Y154.1 E.54512
G1 X105.522 Y154.1 E.01769
G1 X94.667 Y143.246 E.52011
G1 X94.667 Y143.768 E.01769
G1 X105 Y154.1 E.49509
G1 X104.478 Y154.1 E.01769
G1 X94.667 Y144.29 E.47008
G1 X94.667 Y144.812 E.01769
G1 X103.956 Y154.1 E.44507
G1 X103.434 Y154.1 E.01769
G1 X94.667 Y145.334 E.42006
G1 X94.667 Y145.856 E.01769
G1 X102.912 Y154.1 E.39505
G1 X102.39 Y154.1 E.01769
G1 X94.667 Y146.378 E.37003
G1 X94.667 Y146.9 E.01769
G1 X101.868 Y154.1 E.34502
G1 X101.346 Y154.1 E.01769
G1 X94.667 Y147.422 E.32001
G1 X94.667 Y147.944 E.01769
G1 X100.824 Y154.1 E.295
G1 X100.302 Y154.1 E.01769
G1 X94.667 Y148.466 E.26999
G1 X94.667 Y148.988 E.01769
G1 X99.78 Y154.1 E.24497
G1 X99.258 Y154.1 E.01769
