; generated by PrusaSlicer 2.4.1+win64 on 2022-10-27 at 21:13:40 UTC


;
;
; 

; external perimeters extrusion width = 0.45mm
; perimeters extrusion width = 0.45mm
; infill extrusion width = 0.45mm
; solid infill extrusion width = 0.45mm
; top infill extrusion width = 0.40mm
; first layer extrusion width = 0.42mm

M73 P0 R37
M73 Q0 S37
M201 X1000 Y1000 Z200 E5000 ; sets maximum accelerations, mm/sec^2
M203 X200 Y200 Z12 E120 ; sets maximum feedrates, mm / sec
M204 P1250 R1250 T1250 ; sets acceleration (P, T) and retract acceleration (R), mm/sec^2
M205 X8.00 Y8.00 Z0.40 E4.50 ; sets the jerk limits, mm/sec
M205 S0 T0 ; sets the minimum extruding and travel feed rate, mm/sec
M107
;TYPE:Custom
M862.3 P "MK3S" ; printer model check
M862.1 P0.4 ; nozzle diameter check
M115 U3.11.0 ; tell printer latest fw version
G90 ; use absolute coordinates
M83 ; extruder relative mode
M104 S210 ; set extruder temp
M140 S45 ; set bed temp
M190 S45 ; wait for bed temp
M109 S210 ; wait for extruder temp
G28 W ; home all without mesh bed level
G80 ; mesh bed leveling

G1 Z0.2 F720
G1 Y-3 F1000 ; go outside print area
G92 E0
G1 X60 E9 F1000 ; intro line
G1 X100 E12.5 F1000 ; intro line

G92 E0
M221 S95

; Don't change E values below. Excessive value can damage the printer.

G21 ; set units to millimeters
G90 ; use absolute coordinates
M83 ; use relative distances for extrusion
M900 K0.05 ; Filament gcode LA 1.5
M900 K30 ; Filament gcode LA 1.0
M107
;LAYER_CHANGE
;Z:0.24
;HEIGHT:0.24
;BEFORE_LAYER_CHANGE
G92 E0.0
;0.24


G1 E-.8 F2100
G1 Z.4 F10800
;AFTER_LAYER_CHANGE
;0.24
G1 X115.309 Y91.789
G1 Z.24
G1 E.8 F2100
M204 S1000
;TYPE:Skirt/Brim
;WIDTH:0.42
G1 F1200
G1 X116.649 Y90.333 E.06692
G1 X117.939 Y89.293 E.05606
G1 X118.866 Y88.706 E.03712
G1 X119.954 Y88.148 E.04137
G1 X120.878 Y87.778 E.03368
G1 X122.256 Y87.376 E.04856
G1 X123.268 Y87.189 E.03479
G1 X124.471 Y87.077 E.04089
G1 X125.492 Y87.078 E.03452
G1 X127.457 Y87.315 E.06697
G1 X128.966 Y87.722 E.05285
G1 X130.599 Y88.413 E.05998
G1 X131.954 Y89.221 E.05336
G1 X133.014 Y90.032 E.04516
G1 X133.982 Y90.962 E.04538
G1 X135.305 Y92.647 E.07249
G1 X135.987 Y93.825 E.04604
G1 X136.469 Y94.906 E.04004
G1 X136.87 Y96.121 E.04327
G1 X137.149 Y97.402 E.04436
G1 X137.282 Y98.573 E.03988
G1 X137.308 Y110.687 E.40976
G1 X137.232 Y111.989 E.04411
G1 X137.049 Y113.137 E.03934
G1 X136.699 Y114.447 E.04588
G1 X136.273 Y115.564 E.04043
G1 X135.717 Y116.677 E.04207
G1 X135.091 Y117.67 E.03973
G1 X134.337 Y118.643 E.04164
G1 X133.586 Y119.44 E.03704
G1 X132.589 Y120.314 E.04486
G1 X131.688 Y120.956 E.03741
G1 X130.618 Y121.575 E.04182
G1 X129.52 Y122.072 E.04077
G1 X128.41 Y122.45 E.03965
G1 X127.317 Y122.711 E.03802
G1 X126.164 Y122.877 E.0394
G1 X124.955 Y122.931 E.04094
G1 X123.788 Y122.87 E.03953
G1 X122.148 Y122.595 E.05625
G1 X120.757 Y122.177 E.04914
G1 X118.938 Y121.333 E.06784
G1 X117.831 Y120.627 E.04443
G1 X116.256 Y119.286 E.06996
G1 X115.247 Y118.13 E.05191
G1 X114.115 Y116.369 E.07082
G1 X113.605 Y115.278 E.04071
G1 X113.19 Y114.09 E.04258
G1 X112.9 Y112.876 E.04223
G1 X112.738 Y111.687 E.04057
G1 X112.692 Y99.313 E.41861
G1 X112.735 Y98.367 E.03203
G1 X112.924 Y97.011 E.0463
G1 X113.3 Y95.554 E.05091
G1 X113.888 Y94.083 E.05358
G1 X114.677 Y92.671 E.05471
G1 X115.274 Y91.838 E.03469
G1 X115.574 Y92.052 F10800
G1 F1200
G1 X116.905 Y90.598 E.06669
G1 X118.154 Y89.592 E.05426
G1 X119.06 Y89.019 E.03628
G1 X121.015 Y88.12 E.07277
G1 X122.296 Y87.744 E.04516
G1 X123.328 Y87.553 E.03552
G1 X124.49 Y87.445 E.03947
G1 X125.49 Y87.447 E.03381
G1 X127.392 Y87.677 E.06483
G1 X128.851 Y88.072 E.05112
G1 X130.438 Y88.745 E.0583
G1 X131.756 Y89.532 E.05195
G1 X132.773 Y90.311 E.04333
G1 X133.704 Y91.203 E.04361
G1 X135.004 Y92.86 E.07124
G1 X135.657 Y93.99 E.04416
G1 X136.127 Y95.044 E.03902
G1 X136.515 Y96.219 E.04186
G1 X136.785 Y97.457 E.04286
G1 X136.914 Y98.601 E.03896
G1 X136.939 Y110.678 E.40853
G1 X136.866 Y111.94 E.04275
G1 X136.687 Y113.066 E.03856
G1 X136.349 Y114.332 E.04434
G1 X135.936 Y115.415 E.03921
G1 X135.397 Y116.494 E.04079
G1 X134.788 Y117.462 E.0387
G1 X134.057 Y118.403 E.0403
G1 X133.321 Y119.185 E.03632
G1 X132.364 Y120.022 E.04302
G1 X131.484 Y120.649 E.03654
G1 X130.452 Y121.246 E.04033
G1 X129.391 Y121.727 E.03942
G1 X128.316 Y122.094 E.03842
G1 X127.257 Y122.348 E.03683
G1 X126.135 Y122.509 E.03834
G1 X124.968 Y122.563 E.03953
G1 X123.838 Y122.505 E.03828
G1 X122.246 Y122.239 E.0546
G1 X120.892 Y121.834 E.04779
G1 X119.131 Y121.019 E.06566
G1 X118.054 Y120.334 E.04316
G1 X116.516 Y119.025 E.06833
G1 X115.546 Y117.914 E.04991
G1 X114.433 Y116.183 E.06959
G1 X113.946 Y115.138 E.03901
G1 X113.544 Y113.989 E.04118
G1 X113.262 Y112.81 E.04102
G1 X113.099 Y111.583 E.04187
G1 X113.061 Y99.321 E.41478
G1 X113.283 Y97.094 E.0757
G1 X113.651 Y95.665 E.04993
G1 X114.226 Y94.231 E.05224
G1 X114.985 Y92.873 E.05263
G1 X115.539 Y92.101 E.03214
; printing object ovalThingSTL.STL id:0 copy 0
;WIPE_START
G1 F8640
G1 X116.905 Y90.598 E-.469
G1 X117.887 Y89.808 E-.291
;WIPE_END
G1 E-.04 F2100
G1 Z.64 F10800
G1 X117.914 Y93.818
G1 Z.24
G1 E.8 F2100
;TYPE:External perimeter
G1 F1200
G1 X118.548 Y93.088 E.03271
G1 X119.184 Y92.495 E.02942
G1 X119.876 Y91.965 E.02947
G1 X120.6 Y91.513 E.02887
G1 X121.361 Y91.133 E.02879
G1 X122.151 Y90.828 E.02864
G1 X122.972 Y90.597 E.02884
G1 X123.795 Y90.447 E.02831
G1 X124.452 Y90.382 E.02235
G1 X125.052 Y90.376 E.02028
G1 X125.667 Y90.39 E.02082
G1 X126.311 Y90.462 E.02193
G1 X127.111 Y90.617 E.02755
G1 X127.924 Y90.853 E.02863
G1 X128.712 Y91.166 E.02871
G1 X129.464 Y91.55 E.02856
G1 X130.177 Y92.002 E.02854
G1 X130.87 Y92.541 E.02972
G1 X131.115 Y92.759 E.01107
G1 X131.498 Y93.135 E.01815
G1 X132.073 Y93.795 E.02963
G1 X132.592 Y94.526 E.03032
G1 X132.76 Y94.799 E.01086
G1 X133.031 Y95.292 E.01902
G1 X133.301 Y95.875 E.02173
G1 X133.398 Y96.115 E.00875
G1 X133.689 Y97 E.03151
G1 X133.887 Y97.9 E.03118
G1 X133.992 Y98.835 E.03182
G1 X134.009 Y99.38 E.01846
G1 X134.009 Y110.615 E.38003
G1 X133.958 Y111.571 E.0324
G1 X133.811 Y112.497 E.0317
G1 X133.558 Y113.435 E.03289
G1 X133.247 Y114.249 E.02948
G1 X132.843 Y115.056 E.03051
G1 X132.366 Y115.809 E.03016
G1 X131.82 Y116.509 E.03003
G1 X131.217 Y117.143 E.02961
G1 X130.561 Y117.711 E.02934
G1 X129.86 Y118.209 E.02909
G1 X129.116 Y118.637 E.02904
G1 X128.341 Y118.99 E.0288
G1 X127.543 Y119.266 E.02857
G1 X126.753 Y119.46 E.0275
G1 X125.887 Y119.588 E.02963
G1 X125.049 Y119.632 E.02839
G1 X124.212 Y119.598 E.02833
G1 X123.37 Y119.484 E.02873
G1 X123.022 Y119.412 E.01201
G1 X122.206 Y119.188 E.02862
G1 X121.415 Y118.889 E.02862
G1 X120.856 Y118.623 E.02093
G1 X119.923 Y118.065 E.03676
G1 X119.237 Y117.548 E.02906
G1 X118.602 Y116.966 E.02915
G1 X118.014 Y116.312 E.02974
G1 X117.502 Y115.617 E.02922
G1 X117.047 Y114.856 E.02998
G1 X116.7 Y114.126 E.02736
G1 X116.31 Y112.996 E.04044
G1 X116.144 Y112.27 E.02516
G1 X116.02 Y111.343 E.03163
G1 X115.991 Y110.616 E.02464
G1 X115.991 Y99.38 E.38008
G1 X116.014 Y98.738 E.02174
G1 X116.138 Y97.758 E.0334
G1 X116.327 Y96.938 E.02847
G1 X116.62 Y96.068 E.03106
G1 X116.994 Y95.244 E.03059
G1 X117.449 Y94.462 E.03062
G1 X117.879 Y93.867 E.02484
G1 X118.31 Y93.875 F10800
G1 X118.178 Y94.083
;TYPE:Perimeter
G1 F1200
G1 X118.812 Y93.345 E.03291
G1 X119.422 Y92.776 E.02821
G1 X120.086 Y92.268 E.02827
G1 X120.78 Y91.835 E.02768
G1 X121.51 Y91.471 E.02761
G1 X122.267 Y91.178 E.02746
G1 X123.06 Y90.955 E.02786
G1 X123.843 Y90.812 E.02691
G1 X124.472 Y90.75 E.02139
G1 X125.049 Y90.744 E.01952
G1 X125.642 Y90.758 E.02006
G1 X126.256 Y90.826 E.02088
G1 X127.024 Y90.975 E.02647
G1 X127.804 Y91.202 E.02747
G1 X128.564 Y91.503 E.02766
G1 X129.277 Y91.867 E.02709
G1 X129.964 Y92.303 E.02753
G1 X130.635 Y92.824 E.02871
G1 X130.863 Y93.028 E.01035
G1 X131.229 Y93.387 E.01736
G1 X131.783 Y94.023 E.02853
G1 X132.285 Y94.729 E.02929
G1 X132.442 Y94.984 E.01013
G1 X132.702 Y95.458 E.01829
G1 X132.963 Y96.021 E.021
G1 X133.333 Y97.097 E.03847
G1 X133.523 Y97.96 E.0299
M73 Q1 S37
G1 X133.624 Y98.861 E.03067
G1 X133.64 Y99.386 E.01776
G1 X133.64 Y110.605 E.37951
G1 X133.591 Y111.532 E.03142
M73 P1 R37
G1 X133.45 Y112.42 E.03038
G1 X133.207 Y113.321 E.03159
G1 X132.909 Y114.101 E.02822
G1 X132.522 Y114.874 E.02927
G1 X132.065 Y115.597 E.02893
G1 X131.541 Y116.268 E.0288
G1 X130.962 Y116.877 E.0284
G1 X130.333 Y117.421 E.02814
G1 X129.661 Y117.898 E.0279
G1 X128.947 Y118.309 E.02786
G1 X128.204 Y118.648 E.02762
G1 X127.438 Y118.912 E.0274
G1 X126.682 Y119.098 E.02634
G1 X125.85 Y119.221 E.02846
G1 X125.046 Y119.263 E.02722
G1 X124.244 Y119.23 E.02717
G1 X123.432 Y119.12 E.02773
G1 X123.108 Y119.054 E.01118
G1 X122.321 Y118.838 E.02762
G1 X121.56 Y118.549 E.02752
G1 X121.03 Y118.297 E.01983
G1 X120.129 Y117.759 E.0355
G1 X119.47 Y117.262 E.02793
G1 X118.867 Y116.71 E.02765
G1 X118.3 Y116.079 E.0287
G1 X117.807 Y115.409 E.02815
G1 X117.375 Y114.686 E.02848
G1 X117.041 Y113.986 E.02624
G1 X116.664 Y112.894 E.03907
G1 X116.505 Y112.2 E.02408
G1 X116.388 Y111.316 E.03015
G1 X116.36 Y110.608 E.02397
G1 X116.36 Y99.386 E.37961
G1 X116.382 Y98.767 E.02096
G1 X116.501 Y97.823 E.0322
G1 X116.682 Y97.039 E.02723
G1 X116.963 Y96.203 E.02982
G1 X117.322 Y95.414 E.02933
G1 X117.758 Y94.663 E.02937
G1 X118.142 Y94.131 E.02219
;WIPE_START
G1 F8640
G1 X118.812 Y93.345 E-.23846
G1 X119.422 Y92.776 E-.19258
G1 X120.086 Y92.268 E-.19298
G1 X120.585 Y91.957 E-.13598
;WIPE_END
G1 E-.04 F2100
G1 Z.64 F10800
G1 X132.082 Y94.635
G1 Z.24
G1 E.8 F2100
;TYPE:Solid infill
;WIDTH:0.425361
G1 F1200
G1 X130.816 Y93.369 E.06146
G1 X130.458 Y93.037 E.01676
G1 X129.805 Y92.53 E.02836
G1 X129.137 Y92.106 E.02716
G1 X128.889 Y91.971 E.00968
G1 X132.398 Y95.48 E.1703
G1 X132.825 Y96.435 E.0359
G1 X127.945 Y91.555 E.23683
G1 X127.714 Y91.464 E.00853
G1 X127.165 Y91.304 E.01963
G1 X133.077 Y97.215 E.28692
G1 X133.225 Y97.892 E.02379
G1 X126.484 Y91.152 E.32714
G1 X125.865 Y91.061 E.0215
G1 X133.306 Y98.502 E.36115
G1 X133.354 Y99.079 E.01989
G1 X125.307 Y91.032 E.39056
G1 X124.775 Y91.029 E.01827
G1 X133.364 Y99.618 E.41685
G1 X133.364 Y100.146 E.01815
G1 X124.266 Y91.048 E.44156
G1 X123.791 Y91.102 E.01639
G1 X133.364 Y100.675 E.4646
G1 X133.364 Y101.204 E.01815
G1 X123.344 Y91.184 E.48631
G1 X122.914 Y91.283 E.01513
G1 X133.364 Y101.732 E.50716
G1 X133.364 Y102.261 E.01815
G1 X122.502 Y91.399 E.52719
G1 X122.109 Y91.535 E.01426
G1 X133.364 Y102.79 E.54624
G1 X133.364 Y103.319 E.01815
G1 X121.728 Y91.683 E.56474
G1 X121.367 Y91.851 E.01365
G1 X133.364 Y103.847 E.58224
G1 X133.364 Y104.376 E.01815
G1 X121.015 Y92.027 E.59936
G1 X120.682 Y92.222 E.01326
G1 X133.364 Y104.905 E.61553
G1 X133.364 Y105.433 E.01815
G1 X120.356 Y92.426 E.63133
G1 X120.047 Y92.646 E.01301
G1 X133.364 Y105.962 E.64631
G1 X133.364 Y106.491 E.01815
G1 X119.748 Y92.875 E.66084
G1 X119.462 Y93.117 E.01287
G1 X133.364 Y107.02 E.67474
G1 X133.364 Y107.548 E.01815
G1 X119.188 Y93.372 E.68803
G1 X118.923 Y93.636 E.01283
G1 X133.364 Y108.077 E.70087
G1 X133.364 Y108.606 E.01815
G1 X118.675 Y93.917 E.7129
G1 X118.432 Y94.203 E.01287
G1 X133.364 Y109.134 E.72472
G1 X133.364 Y109.663 E.01815
M73 P2 R37
M73 Q2 S37
G1 X118.21 Y94.509 E.73548
G1 X117.989 Y94.817 E.013
G1 X133.364 Y110.192 E.74624
G1 X133.358 Y110.714 E.01793
G1 X117.794 Y95.151 E.75537
G1 X117.6 Y95.485 E.01327
G1 X133.331 Y111.217 E.76352
G1 X133.285 Y111.699 E.01664
G1 X117.43 Y95.844 E.76952
G1 X117.265 Y96.208 E.01371
M73 P2 R36
M73 Q2 S36
G1 X133.213 Y112.155 E.77402
G1 X133.118 Y112.59 E.01526
G1 X117.123 Y96.595 E.77631
G1 X116.99 Y96.991 E.01433
G1 X133.006 Y113.006 E.77732
G1 X132.878 Y113.407 E.01445
G1 X116.88 Y97.409 E.77646
G1 X116.781 Y97.839 E.01513
G1 X132.732 Y113.79 E.77418
G1 X132.571 Y114.158 E.01378
G1 X116.719 Y98.305 E.7694
G1 X116.659 Y98.775 E.01624
G1 X132.395 Y114.51 E.76372
G1 X132.208 Y114.852 E.01338
G1 X116.64 Y99.284 E.75561
G1 X116.636 Y99.391 E.00369
G1 X116.636 Y99.809 E.01432
G1 X132.004 Y115.176 E.74586
G1 X131.838 Y115.438 E.01062
G1 X131.794 Y115.495 E.00249
G1 X116.636 Y100.337 E.73566
G1 X116.636 Y100.866 E.01815
G1 X131.562 Y115.792 E.72442
G1 X131.33 Y116.089 E.01293
G1 X116.636 Y101.395 E.71316
G1 X116.636 Y101.924 E.01815
G1 X131.072 Y116.36 E.70065
G1 X130.815 Y116.631 E.01283
G1 X116.636 Y102.452 E.68814
G1 X116.636 Y102.981 E.01815
G1 X130.535 Y116.88 E.6746
G1 X130.252 Y117.126 E.01286
M73 P3 R36
M73 Q3 S36
G1 X116.636 Y103.51 E.66084
G1 X116.636 Y104.038 E.01815
G1 X129.951 Y117.353 E.64623
G1 X129.642 Y117.573 E.01301
G1 X116.636 Y104.567 E.63122
G1 X116.636 Y105.096 E.01815
G1 X129.317 Y117.777 E.61548
G1 X128.982 Y117.97 E.01329
G1 X116.636 Y105.625 E.59919
G1 X116.636 Y106.153 E.01815
G1 X128.632 Y118.149 E.58221
G1 X128.269 Y118.314 E.0137
G1 X116.636 Y106.682 E.56458
G1 X116.636 Y107.211 E.01815
G1 X127.889 Y118.464 E.54617
G1 X127.496 Y118.6 E.01427
G1 X116.636 Y107.739 E.5271
G1 X116.636 Y108.268 E.01815
G1 X127.083 Y118.715 E.50703
G1 X126.658 Y118.819 E.015
G1 X116.636 Y108.797 E.48643
G1 X116.636 Y109.326 E.01815
G1 X126.201 Y118.89 E.4642
G1 X125.733 Y118.951 E.01619
G1 X116.636 Y109.854 E.4415
G1 X116.636 Y110.383 E.01815
G1 X125.23 Y118.977 E.41711
G1 X124.697 Y118.972 E.01831
G1 X116.649 Y110.925 E.3906
G1 X116.691 Y111.495 E.01962
G1 X124.132 Y118.936 E.36117
G1 X123.52 Y118.853 E.02119
G1 X116.772 Y112.104 E.32755
G1 X116.923 Y112.785 E.02391
G1 X122.829 Y118.691 E.28665
G1 X122.406 Y118.575 E.01504
G1 X122.049 Y118.439 E.01313
G1 X117.196 Y113.586 E.23553
G1 X117.298 Y113.881 E.0107
G1 X117.602 Y114.521 E.02433
G1 X121.095 Y118.014 E.16953
G1 X120.284 Y117.53 E.03244
G1 X119.645 Y117.048 E.02748
G1 X119.176 Y116.624 E.02166
G1 X117.896 Y115.344 E.06213
; stop printing object ovalThingSTL.STL id:0 copy 0
M106 S84.15
;LAYER_CHANGE
;Z:0.44
;HEIGHT:0.2
;BEFORE_LAYER_CHANGE
G92 E0.0
;0.44


;WIPE_START
G1 F8640
G1 X119.176 Y116.624 E-.41802
G1 X119.645 Y117.048 E-.14572
G1 X120.284 Y117.53 E-.1849
G1 X120.326 Y117.555 E-.01136
;WIPE_END
G1 E-.04 F2100
G1 Z.64 F10800
;AFTER_LAYER_CHANGE
;0.44
G1 X118.211 Y120.869
G1 Z.44
G1 E.8 F2100
;TYPE:Skirt/Brim
;WIDTH:0.42
G1 F1080
G1 X117.831 Y120.627 E.01302
G1 X116.256 Y119.286 E.05966
G1 X115.247 Y118.13 E.04427
G1 X114.115 Y116.369 E.06039
G1 X113.605 Y115.278 E.03471
G1 X113.19 Y114.09 E.03631
G1 X112.9 Y112.876 E.03601
G1 X112.738 Y111.687 E.0346
G1 X112.692 Y99.313 E.35696
G1 X112.735 Y98.367 E.02731
G1 X112.924 Y97.011 E.03948
G1 X113.3 Y95.554 E.04341
G1 X113.888 Y94.083 E.04569
G1 X114.677 Y92.671 E.04665
G1 X115.309 Y91.789 E.03131
G1 X116.649 Y90.333 E.05706
G1 X117.939 Y89.293 E.0478
G1 X118.866 Y88.706 E.03166
G1 X119.954 Y88.148 E.03528
G1 X120.878 Y87.778 E.02872
G1 X122.256 Y87.376 E.04141
G1 X123.268 Y87.189 E.02967
G1 X124.471 Y87.077 E.03487
G1 X125.492 Y87.078 E.02943
G1 X127.457 Y87.315 E.05711
G1 X128.966 Y87.722 E.04507
G1 X130.599 Y88.413 E.05115
G1 X131.954 Y89.221 E.0455
G1 X133.014 Y90.032 E.03851
G1 X133.982 Y90.962 E.0387
G1 X135.305 Y92.647 E.06182
G1 X135.987 Y93.825 E.03926
G1 X136.469 Y94.906 E.03414
G1 X136.87 Y96.121 E.0369
G1 X137.149 Y97.402 E.03782
G1 X137.282 Y98.573 E.03401
G1 X137.308 Y110.687 E.34942
G1 X137.232 Y111.989 E.03762
G1 X137.049 Y113.137 E.03355
G1 X136.699 Y114.447 E.03912
G1 X136.273 Y115.564 E.03448
G1 X135.717 Y116.677 E.03587
G1 X135.091 Y117.67 E.03388
G1 X134.337 Y118.643 E.03551
G1 X133.586 Y119.44 E.03159
G1 X132.589 Y120.314 E.03825
G1 X131.688 Y120.956 E.0319
G1 X130.618 Y121.575 E.03566
G1 X129.52 Y122.072 E.03477
G1 X128.41 Y122.45 E.03381
G1 X127.317 Y122.711 E.03242
G1 X126.164 Y122.877 E.0336
G1 X124.955 Y122.931 E.03491
G1 X123.788 Y122.87 E.03371
G1 X122.148 Y122.595 E.04797
G1 X120.757 Y122.177 E.0419
G1 X118.938 Y121.333 E.05785
G1 X118.262 Y120.902 E.02314
G1 X118.459 Y120.591 F10800
G1 F1080
G1 X118.054 Y120.334 E.01384
G1 X116.516 Y119.025 E.05826
G1 X115.546 Y117.914 E.04256
G1 X114.433 Y116.183 E.05934
G1 X113.946 Y115.138 E.03326
G1 X113.544 Y113.989 E.03512
G1 X113.262 Y112.81 E.03498
G1 X113.099 Y111.583 E.0357
G1 X113.061 Y99.321 E.3537
G1 X113.283 Y97.094 E.06455
G1 X113.651 Y95.665 E.04258
