; generated by PrusaSlicer 2.4.1+win64 on 2022-09-02 at 19:51:18 UTC

; 

; external perimeters extrusion width = 0.45mm
; perimeters extrusion width = 0.45mm
; infill extrusion width = 0.45mm
; solid infill extrusion width = 0.45mm
; top infill extrusion width = 0.40mm
; support material extrusion width = 0.35mm
; first layer extrusion width = 0.42mm

M73 P0 R1
M73 Q0 S1
M107
;TYPE:Custom
M862.3 P "MK3S" ; printer model check
M862.1 P0.4 ; nozzle diameter check
M115 U3.10.0 ; tell printer latest fw version
G90 ; use absolute coordinates
M83 ; extruder relative mode
M104 S215 ; set extruder temp
M140 S60 ; set bed temp
M190 S60 ; wait for bed temp
M109 S215 ; wait for extruder temp
G28 W ; home all without mesh bed level
G80 ; mesh bed leveling
G1 Y-3.0 F1000.0 ; go outside print area
G92 E0.0
G1 X60.0 E9.0 F1000.0 ; intro line
G1 X100.0 E12.5 F1000.0 ; intro line
G92 E0.0
M221 S95

; Don't change E values below. Excessive value can damage the printer.

G21 ; set units to millimeters
G90 ; use absolute coordinates
M83 ; use relative distances for extrusion
M900 K0.05 ; Filament gcode LA 1.5
M900 K30 ; Filament gcode LA 1.0
M107
;LAYER_CHANGE
;Z:0.24
;HEIGHT:0.24
;BEFORE_LAYER_CHANGE
G92 E0.0
;0.24


M73 P3 R1
M73 Q3 S1
G1 E-.8 F2100
M73 P5 R1
M73 Q5 S1
G1 Z.4 F10800
;AFTER_LAYER_CHANGE
;0.24
G1 X117.724 Y98.873
G1 Z.24
M73 P6 R1
M73 Q6 S1
G1 E.8 F2100
M204 S1000
;TYPE:Skirt/Brim
;WIDTH:0.42
G1 F1200
G1 X118.805 Y97.743 E.05289
G1 X120.436 Y97.28 E.05735
G1 X129.564 Y97.28 E.30875
G1 X131.077 Y97.674 E.05289
M73 Q7 S1
G1 X132.206 Y98.755 E.05289
G1 X132.669 Y100.386 E.05735
M73 P7 R1
G1 X132.669 Y111.921 E.39021
G1 X132.276 Y113.434 E.05289
G1 X131.195 Y114.564 E.05289
M73 Q8 S1
G1 X129.564 Y115.027 E.05735
G1 X120.436 Y115.027 E.30875
G1 X118.923 Y114.633 E.05289
M73 P8 R1
G1 X117.794 Y113.552 E.05289
G1 X117.331 Y111.921 E.05735
G1 X117.331 Y100.386 E.39021
G1 X117.709 Y98.931 E.05086
M73 P9 R1
M73 Q9 S1
G1 X118.075 Y99.033 F10800
G1 F1200
G1 X118.092 Y98.973 E.00208
G1 X119.157 Y97.966 E.0496
G1 X120.436 Y97.649 E.04457
G1 X129.564 Y97.649 E.30875
G1 X130.976 Y98.042 E.0496
G1 X131.984 Y99.107 E.0496
G1 X132.301 Y100.386 E.04457
M73 Q10 S1
G1 X132.301 Y111.921 E.39021
G1 X131.908 Y113.334 E.0496
M73 P10 R1
G1 X130.843 Y114.341 E.0496
G1 X129.564 Y114.658 E.04457
G1 X120.436 Y114.658 E.30875
G1 X119.024 Y114.266 E.0496
M73 Q11 S1
G1 X118.016 Y113.2 E.0496
M73 P11 R1
G1 X117.699 Y111.921 E.04457
G1 X117.699 Y100.386 E.39021
G1 X118.059 Y99.09 E.04548
G1 X118.424 Y99.2 F10800
G1 F1200
M73 Q12 S1
G1 X118.459 Y99.081 E.00418
G1 X119.505 Y98.208 E.04607
G1 X120.436 Y98.017 E.03217
G1 X129.564 Y98.017 E.30875
G1 X130.868 Y98.409 E.04607
M73 P12 R1
G1 X131.741 Y99.454 E.04607
G1 X131.932 Y100.386 E.03217
G1 X131.932 Y111.921 E.39021
G1 X131.541 Y113.226 E.04607
M73 Q13 S1
G1 X130.495 Y114.099 E.04607
G1 X129.564 Y114.29 E.03217
M73 P13 R1
G1 X120.436 Y114.29 E.30875
G1 X119.132 Y113.898 E.04607
G1 X118.259 Y112.853 E.04607
G1 X118.068 Y111.921 E.03217
G1 X118.068 Y100.386 E.39021
G1 X118.407 Y99.257 E.03986
; printing object pinTest.STL id:0 copy 0
;WIPE_START
M73 P14 R1
M73 Q14 S1
G1 F8640
G1 X118.459 Y99.081 E-.04239
G1 X119.505 Y98.208 E-.31447
G1 X120.436 Y98.017 E-.21961
G1 X121.231 Y98.017 E-.18353
;WIPE_END
G1 E-.04 F2100
G1 Z.64 F10800
G1 X129.564 Y100.386
G1 Z.24
G1 E.8 F2100
;TYPE:Support material interface
;WIDTH:0.35
G1 F1200
G1 X129.564 Y111.921 E.31609
G1 X129.057 Y111.921 E.01389
M73 P15 R1
M73 Q15 S1
G1 X129.057 Y100.386 E.31609
G1 X128.55 Y100.386 E.01389
M73 Q16 S1
G1 X128.55 Y111.921 E.31609
G1 X128.042 Y111.921 E.01389
M73 P16 R1
G1 X128.042 Y100.386 E.31609
G1 X127.535 Y100.386 E.01389
M73 Q17 S1
G1 X127.535 Y111.921 E.31609
G1 X127.028 Y111.921 E.01389
M73 P17 R1
G1 X127.028 Y100.386 E.31609
G1 X126.521 Y100.386 E.01389
M73 Q18 S1
G1 X126.521 Y111.921 E.31609
G1 X126.014 Y111.921 E.01389
M73 P18 R1
G1 X126.014 Y100.386 E.31609
G1 X125.507 Y100.386 E.01389
M73 P19 R1
M73 Q19 S1
G1 X125.507 Y111.921 E.31609
G1 X125 Y111.921 E.01389
G1 X125 Y100.386 E.31609
G1 X124.493 Y100.386 E.01389
M73 P20 R1
M73 Q20 S1
G1 X124.493 Y111.921 E.31609
G1 X123.986 Y111.921 E.01389
G1 X123.986 Y100.386 E.31609
G1 X123.479 Y100.386 E.01389
M73 P21 R1
M73 Q21 S1
G1 X123.479 Y111.921 E.31609
G1 X122.972 Y111.921 E.01389
M73 Q22 S1
G1 X122.972 Y100.386 E.31609
G1 X122.465 Y100.386 E.01389
M73 P22 R1
G1 X122.465 Y111.921 E.31609
G1 X121.958 Y111.921 E.01389
M73 Q23 S1
G1 X121.958 Y100.386 E.31609
G1 X121.45 Y100.386 E.01389
M73 P23 R1
G1 X121.45 Y111.921 E.31609
G1 X120.943 Y111.921 E.01389
M73 P24 R1
M73 Q24 S1
G1 X120.943 Y100.386 E.31609
G1 X120.436 Y100.386 E.01389
G1 X120.436 Y111.921 E.31609
; stop printing object pinTest.STL id:0 copy 0
M106 S84.15
;LAYER_CHANGE
;Z:0.44
;HEIGHT:0.2
;BEFORE_LAYER_CHANGE
G92 E0.0
;0.44


;WIPE_START
G1 F8640
M73 P25 R1
M73 Q25 S1
G1 X120.436 Y108.63 E-.76
;WIPE_END
G1 E-.04 F2100
G1 Z.64 F10800
;AFTER_LAYER_CHANGE
;0.44
G1 X117.331 Y108.63
G1 Z.44
G1 E.8 F2100
;TYPE:Skirt/Brim
;WIDTH:0.42
G1 F1691
G1 X117.331 Y100.386 E.23781
G1 X117.724 Y98.873 E.0451
G1 X118.805 Y97.743 E.0451
M73 Q26 S1
G1 X120.436 Y97.28 E.0489
G1 X129.564 Y97.28 E.26329
G1 X131.077 Y97.674 E.0451
M73 P26 R1
G1 X132.206 Y98.755 E.0451
G1 X132.669 Y100.386 E.0489
G1 X132.669 Y111.921 E.33275
G1 X132.276 Y113.434 E.0451
G1 X131.195 Y114.564 E.0451
G1 X129.564 Y115.027 E.0489
M73 Q27 S1
G1 X120.436 Y115.027 E.26329
G1 X118.923 Y114.633 E.0451
M73 P27 R1
G1 X117.794 Y113.552 E.0451
G1 X117.331 Y111.921 E.0489
G1 X117.331 Y108.69 E.09321
G1 X117.699 Y108.69 F10800
G1 F1691
G1 X117.699 Y100.386 E.23954
G1 X118.092 Y98.973 E.04229
G1 X119.157 Y97.966 E.04229
G1 X120.436 Y97.649 E.03801
M73 Q28 S1
G1 X129.564 Y97.649 E.26329
G1 X130.976 Y98.042 E.04229
M73 P28 R1
G1 X131.984 Y99.107 E.04229
G1 X132.301 Y100.386 E.03801
G1 X132.301 Y111.921 E.33275
G1 X131.908 Y113.334 E.04229
G1 X130.843 Y114.341 E.04229
G1 X129.564 Y114.658 E.03801
G1 X120.436 Y114.658 E.26329
M73 Q29 S1
G1 X119.024 Y114.266 E.04229
M73 P29 R1
G1 X118.016 Y113.2 E.04229
G1 X117.699 Y111.921 E.03801
G1 X117.699 Y108.75 E.09148
G1 X118.068 Y108.75 F10800
G1 F1691
G1 X118.068 Y100.386 E.24127
G1 X118.459 Y99.081 E.03929
G1 X119.505 Y98.208 E.03929
G1 X120.436 Y98.017 E.02744
G1 X129.564 Y98.017 E.26329
G1 X130.868 Y98.409 E.03929
M73 P30 R1
M73 Q30 S1
G1 X131.741 Y99.454 E.03929
G1 X131.932 Y100.386 E.02744
G1 X131.932 Y111.921 E.33275
G1 X131.541 Y113.226 E.03929
G1 X130.495 Y114.099 E.03929
G1 X129.564 Y114.29 E.02744
G1 X120.436 Y114.29 E.26329
G1 X119.132 Y113.898 E.03929
M73 Q31 S1
G1 X118.259 Y112.853 E.03929
G1 X118.068 Y111.921 E.02744
M73 P31 R1
G1 X118.068 Y108.81 E.08975
; printing object pinTest.STL id:0 copy 0
;WIPE_START
G1 F8640
G1 X118.068 Y105.518 E-.76
;WIPE_END
G1 E-.04 F2100
G1 Z.84 F10800
G1 X122.693 Y100.386
G1 Z.44
G1 E.8 F2100
;TYPE:Support material
;WIDTH:0.35
G1 F1691
G1 X127.307 Y100.386 E.10839
G1 X127.307 Y102.693 E.0542
G1 X122.693 Y102.693 E.10839
M73 Q32 S1
G1 X122.693 Y105 E.0542
G1 X123.121 Y105 E.01007
M73 P32 R1
G1 X123.121 Y103.743 E.02952
G1 X123.343 Y103.521 E.00737
G1 X126.657 Y103.521 E.07784
G1 X126.879 Y103.743 E.00737
G1 X126.879 Y105 E.02952
G1 X127.307 Y105 E.01007
; stop printing object pinTest.STL id:0 copy 0
;LAYER_CHANGE
;Z:0.54
;HEIGHT:0.1
;BEFORE_LAYER_CHANGE
G92 E0.0
;0.54


;WIPE_START
G1 F8640
G1 X126.879 Y105 E-.09895
G1 X126.879 Y103.743 E-.2902
G1 X126.657 Y103.521 E-.07241
G1 X125.364 Y103.521 E-.29844
;WIPE_END
G1 E-.04 F2100
G1 Z.84 F10800
;AFTER_LAYER_CHANGE
;0.54
G1 X125.364 Y97.28
G1 Z.54
G1 E.8 F2100
;TYPE:Skirt/Brim
;WIDTH:0.42
G1 F1691
M73 Q33 S1
G1 X129.564 Y97.28 E.06402
G1 X131.077 Y97.674 E.02383
G1 X132.206 Y98.755 E.02383
M73 P33 R1
G1 X132.669 Y100.386 E.02584
G1 X132.669 Y111.921 E.17584
G1 X132.276 Y113.434 E.02383
G1 X131.195 Y114.564 E.02383
G1 X129.564 Y115.027 E.02584
G1 X120.436 Y115.027 E.13914
G1 X118.923 Y114.633 E.02383
M73 Q34 S1
G1 X117.794 Y113.552 E.02383
G1 X117.331 Y111.921 E.02584
M73 P34 R1
G1 X117.331 Y100.386 E.17584
G1 X117.724 Y98.873 E.02383
G1 X118.805 Y97.743 E.02383
G1 X120.436 Y97.28 E.02584
G1 X125.304 Y97.28 E.07421
G1 X125.304 Y97.649 F10800
G1 F1691
M73 Q35 S1
G1 X129.564 Y97.649 E.06493
G1 X130.976 Y98.042 E.02235
G1 X131.984 Y99.107 E.02235
G1 X132.301 Y100.386 E.02009
M73 P35 R1
G1 X132.301 Y111.921 E.17584
G1 X131.908 Y113.334 E.02235
G1 X130.843 Y114.341 E.02235
G1 X129.564 Y114.658 E.02009
G1 X120.436 Y114.658 E.13914
G1 X119.024 Y114.266 E.02235
M73 Q36 S1
G1 X118.016 Y113.2 E.02235
G1 X117.699 Y111.921 E.02009
G1 X117.699 Y100.386 E.17584
M73 P36 R1
G1 X118.092 Y98.973 E.02235
G1 X119.157 Y97.966 E.02235
G1 X120.436 Y97.649 E.02009
G1 X125.244 Y97.649 E.07329
G1 X125.244 Y98.017 F10800
G1 F1691
G1 X129.564 Y98.017 E.06584
G1 X130.868 Y98.409 E.02076
M73 Q37 S1
G1 X131.741 Y99.454 E.02076
G1 X131.932 Y100.386 E.0145
G1 X131.932 Y111.921 E.17584
G1 X131.541 Y113.226 E.02076
M73 P37 R1
G1 X130.495 Y114.099 E.02076
G1 X129.564 Y114.29 E.0145
G1 X120.436 Y114.29 E.13914
G1 X119.132 Y113.898 E.02076
G1 X118.259 Y112.853 E.02076
M73 Q38 S1
G1 X118.068 Y111.921 E.0145
G1 X118.068 Y100.386 E.17584
G1 X118.459 Y99.081 E.02076
M73 P38 R1
G1 X119.505 Y98.208 E.02076
G1 X120.436 Y98.017 E.0145
G1 X125.184 Y98.017 E.07238
; printing object pinTest.STL id:0 copy 0
;WIPE_START
G1 F8640
G1 X128.476 Y98.017 E-.76
;WIPE_END
G1 E-.04 F2100
G1 Z.94 F10800
G1 X125.868 Y104.532
G1 Z.54
M73 Q39 S1
G1 E.8 F2100
M204 S800
;TYPE:Perimeter
;WIDTH:0.45
;HEIGHT:0.2
G1 F1691
G1 X125.868 Y108.268 E.11634
G1 X124.132 Y108.268 E.05406
M73 P39 R1
G1 X124.132 Y104.532 E.11634
G1 X125.808 Y104.532 E.05219
M204 S1000
G1 X126.275 Y104.125 F10800
M204 S800
;TYPE:External perimeter
G1 F1691
G1 X126.275 Y108.675 E.14169
G1 X123.725 Y108.675 E.07941
G1 X123.725 Y104.125 E.14169
G1 X126.215 Y104.125 E.07754
M204 S1000
G1 X126.207 Y104.519 F10800
;WIPE_START
M73 Q40 S1
G1 F8640
G1 X126.258 Y107.416 E-.76
;WIPE_END
G1 E-.04 F2100
G1 Z.94 F10800
G1 X124.837 Y108.146
M73 P40 R1
G1 Z.54
G1 E.8 F2100
;TYPE:Solid infill
;WIDTH:0.490576
G1 F1691
G1 X125.563 Y107.42 E.03515
G1 X125.563 Y106.787 E.02168
G1 X124.437 Y107.912 E.0545
G1 X124.437 Y107.279 E.02168
G1 X125.563 Y106.154 E.0545
G1 X125.563 Y105.521 E.02168
G1 X124.437 Y106.646 E.0545
G1 X124.437 Y106.013 E.02168
G1 X125.563 Y104.888 E.0545
G1 X125.563 Y104.837 E.00172
G1 X124.98 Y104.837 E.01996
G1 X124.254 Y105.563 E.03514
; stop printing object pinTest.STL id:0 copy 0
M106 S170.85
;LAYER_CHANGE
;Z:0.64
;HEIGHT:0.1
;BEFORE_LAYER_CHANGE
G92 E0.0
;0.64


;WIPE_START
G1 F8640
G1 X124.98 Y104.837 E-.23696
G1 X125.563 Y104.837 E-.13456
G1 X125.563 Y104.888 E-.01162
G1 X124.437 Y106.013 E-.36744
G1 X124.437 Y106.054 E-.00941
;WIPE_END
M73 Q41 S1
G1 E-.04 F2100
G1 Z.94 F10800
;AFTER_LAYER_CHANGE
;0.64
; printing object pinTest.STL id:0 copy 0
G1 X123.217 Y103.647
G1 Z.64
M73 P41 R1
G1 E.8 F2100
;TYPE:Support material interface
;WIDTH:0.35
;HEIGHT:0.2
G1 F900
G1 X123.343 Y103.521 E.00418
G1 X123.479 Y103.521 E.00318
G1 X123.479 Y100.386 E.07366
G1 X123.986 Y100.386 E.01191
G1 X123.986 Y103.521 E.07366
G1 X124.493 Y103.521 E.01191
G1 X124.493 Y100.386 E.07366
G1 X125 Y100.386 E.01191
G1 X125 Y103.521 E.07366
G1 X125.507 Y103.521 E.01191
M73 Q42 S1
G1 X125.507 Y100.386 E.07366
M73 P42 R1
G1 X126.014 Y100.386 E.01191
G1 X126.014 Y103.521 E.07366
G1 X126.521 Y103.521 E.01191
G1 X126.521 Y100.386 E.07366
G1 X127.028 Y100.386 E.01191
G1 X127.028 Y105 E.10839
G1 X127.307 Y105 E.00655
M73 Q43 S1
G1 X127.307 Y100.386 E.10839
G1 X127.182 Y100.386 E.00294
;WIPE_START
M73 P43 R1
G1 F8640
G1 X127.307 Y100.386 E-.02892
G1 X127.307 Y103.552 E-.73108
;WIPE_END
G1 E-.04 F2100
G1 Z1.04 F10800
G1 X123.325 Y100.386
G1 Z.64
G1 E.8 F2100
G1 F900
G1 X122.972 Y100.386 E.00831
G1 X122.972 Y105 E.10839
G1 X122.693 Y105 E.00655
M73 Q44 S1
G1 X122.693 Y100.386 E.10839
G1 X122.818 Y100.386 E.00294
; stop printing object pinTest.STL id:0 copy 0
;LAYER_CHANGE
;Z:0.74
;HEIGHT:0.1
;BEFORE_LAYER_CHANGE
G92 E0.0
;0.74


;WIPE_START
M73 P44 R1
G1 F8640
G1 X122.693 Y100.386 E-.02892
G1 X122.693 Y103.552 E-.73108
;WIPE_END
G1 E-.04 F2100
G1 Z1.04 F10800
;AFTER_LAYER_CHANGE
;0.74
; printing object pinTest.STL id:0 copy 0
G1 X124.132 Y104.532
G1 Z.74
G1 E.8 F2100
M204 S800
;TYPE:Perimeter
;WIDTH:0.45
;HEIGHT:0.2
G1 F900
G1 X125.868 Y104.532 E.05406
G1 X125.868 Y108.268 E.11634
G1 X124.132 Y108.268 E.05406
M73 Q45 S1
G1 X124.132 Y104.592 E.11447
M204 S1000
M73 P45 R1
G1 X123.725 Y104.125 F10800
M204 S800
;TYPE:External perimeter
G1 F900
G1 X126.275 Y104.125 E.07941
G1 X126.275 Y108.675 E.14169
G1 X123.725 Y108.675 E.07941
G1 X123.725 Y104.185 E.13982
M204 S1000
M73 Q46 S1
G1 X124.1 Y104.263 F10800
;WIPE_START
M73 P46 R1
G1 F8640
G1 X126.275 Y104.125 E-.58897
G1 X126.275 Y104.866 E-.17103
;WIPE_END
G1 E-.04 F2100
G1 Z1.14 F10800
G1 X124.837 Y104.654
G1 Z.74
G1 E.8 F2100
;TYPE:Solid infill
;WIDTH:0.490572
G1 F900
G1 X125.563 Y105.38 E.03515
G1 X125.563 Y106.013 E.02168
G1 X124.437 Y104.888 E.05449
G1 X124.437 Y105.521 E.02168
G1 X125.563 Y106.646 E.05449
G1 X125.563 Y107.279 E.02168
M73 P46 R0
M73 Q47 S1
G1 X124.437 Y106.154 E.05449
M73 Q47 S0
G1 X124.437 Y106.787 E.02168
G1 X125.563 Y107.912 E.05449
M73 P47 R0
G1 X125.563 Y107.963 E.00172
G1 X124.98 Y107.963 E.01996
G1 X124.254 Y107.237 E.03514
; stop printing object pinTest.STL id:0 copy 0
M106 S255
;LAYER_CHANGE
;Z:0.84
;HEIGHT:0.1
;BEFORE_LAYER_CHANGE
G92 E0.0
;0.84


;WIPE_START
G1 F8640
G1 X124.98 Y107.963 E-.23696
G1 X125.563 Y107.963 E-.13456
G1 X125.563 Y107.912 E-.01162
G1 X124.437 Y106.787 E-.36744
G1 X124.437 Y106.746 E-.00942
;WIPE_END
G1 E-.04 F2100
G1 Z1.14 F10800
;AFTER_LAYER_CHANGE
;0.84
; printing object pinTest.STL id:0 copy 0
G1 X123.217 Y103.647
G1 Z.84
G1 E.8 F2100
;TYPE:Support material interface
;WIDTH:0.35
;HEIGHT:0.2
G1 F900
G1 X123.343 Y103.521 E.00418
G1 X123.479 Y103.521 E.00318
G1 X123.479 Y100.386 E.07366
G1 X123.986 Y100.386 E.01191
M73 Q48 S0
G1 X123.986 Y103.521 E.07366
G1 X124.493 Y103.521 E.01191
M73 P48 R0
G1 X124.493 Y100.386 E.07366
G1 X125 Y100.386 E.01191
G1 X125 Y103.521 E.07366
G1 X125.507 Y103.521 E.01191
G1 X125.507 Y100.386 E.07366
G1 X126.014 Y100.386 E.01191
G1 X126.014 Y103.521 E.07366
G1 X126.521 Y103.521 E.01191
M73 Q49 S0
G1 X126.521 Y100.386 E.07366
G1 X127.028 Y100.386 E.01191
M73 P49 R0
G1 X127.028 Y105 E.10839
G1 X127.307 Y105 E.00655
G1 X127.307 Y100.386 E.10839
G1 X127.182 Y100.386 E.00294
;WIPE_START
G1 F8640
G1 X127.307 Y100.386 E-.02892
G1 X127.307 Y103.552 E-.73108
;WIPE_END
G1 E-.04 F2100
M73 Q50 S0
G1 Z1.24 F10800
G1 X123.325 Y100.386
G1 Z.84
M73 P50 R0
G1 E.8 F2100
G1 F900
G1 X122.972 Y100.386 E.00831
G1 X122.972 Y105 E.10839
G1 X122.693 Y105 E.00655
G1 X122.693 Y100.386 E.10839
G1 X122.818 Y100.386 E.00294
; stop printing object pinTest.STL id:0 copy 0
;LAYER_CHANGE
;Z:0.94
;HEIGHT:0.1
;BEFORE_LAYER_CHANGE
G92 E0.0
;0.94


;WIPE_START
G1 F8640
G1 X122.693 Y100.386 E-.02892
G1 X122.693 Y103.552 E-.73108
;WIPE_END
G1 E-.04 F2100
M73 Q51 S0
G1 Z1.24 F10800
;AFTER_LAYER_CHANGE
;0.94
; printing object pinTest.STL id:0 copy 0
G1 X124.132 Y104.532
G1 Z.94
M73 P51 R0
G1 E.8 F2100
M204 S800
;TYPE:Perimeter
;WIDTH:0.45
;HEIGHT:0.2
G1 F900
G1 X125.868 Y104.532 E.05406
G1 X125.868 Y108.268 E.11634
G1 X124.132 Y108.268 E.05406
G1 X124.132 Y104.592 E.11447
M204 S1000
G1 X123.725 Y104.125 F10800
M204 S800
;TYPE:External perimeter
G1 F900
G1 X126.275 Y104.125 E.07941
G1 X126.275 Y108.675 E.14169
M73 Q52 S0
G1 X123.725 Y108.675 E.07941
M73 P52 R0
G1 X123.725 Y104.185 E.13982
M204 S1000
G1 X124.1 Y104.263 F10800
;WIPE_START
G1 F8640
G1 X126.275 Y104.125 E-.58897
G1 X126.275 Y104.866 E-.17103
;WIPE_END
G1 E-.04 F2100
G1 Z1.34 F10800
G1 X125.746 Y107.237
M73 Q53 S0
G1 Z.94
G1 E.8 F2100
;TYPE:Solid infill
;WIDTH:0.490572
M73 P53 R0
G1 F900
G1 X125.02 Y107.963 E.03515
G1 X124.437 Y107.963 E.01995
G1 X124.437 Y107.912 E.00173
G1 X125.563 Y106.787 E.05449
G1 X125.563 Y106.154 E.02168
G1 X124.437 Y107.279 E.05449
G1 X124.437 Y106.646 E.02168
G1 X125.563 Y105.521 E.05449
