; generated by PrusaSlicer 2.3.3+win64 on 2021-12-03 at 00:28:46 UTC

; 

; external perimeters extrusion width = 0.45mm
; perimeters extrusion width = 0.45mm
; infill extrusion width = 0.45mm
; solid infill extrusion width = 0.45mm
; top infill extrusion width = 0.40mm
; support material extrusion width = 0.35mm
; first layer extrusion width = 0.42mm

M73 P0 R114
M73 Q0 S115
M201 X1000 Y1000 Z200 E5000 ; sets maximum accelerations, mm/sec^2
M203 X200 Y200 Z12 E120 ; sets maximum feedrates, mm/sec
M204 P1250 R1250 T1250 ; sets acceleration (P, T) and retract acceleration (R), mm/sec^2
M205 X8.00 Y8.00 Z0.40 E4.50 ; sets the jerk limits, mm/sec
M205 S0 T0 ; sets the minimum extruding and travel feed rate, mm/sec
M107
;TYPE:Custom
M862.3 P "MK3S" ; printer model check
M862.1 P0.4 ; nozzle diameter check
M115 U3.10.0 ; tell printer latest fw version
G90 ; use absolute coordinates
M83 ; extruder relative mode
M104 S215 ; set extruder temp
M140 S60 ; set bed temp
M190 S60 ; wait for bed temp
M109 S215 ; wait for extruder temp
G28 W ; home all without mesh bed level
G80 ; mesh bed leveling
G1 Y-3.0 F1000.0 ; go outside print area
G92 E0.0
G1 X60.0 E9.0 F1000.0 ; intro line
G1 X100.0 E12.5 F1000.0 ; intro line
G92 E0.0
M221 S95

; Don't change E values below. Excessive value can damage the printer.

G21 ; set units to millimeters
G90 ; use absolute coordinates
M83 ; use relative distances for extrusion
M900 K0.05 ; Filament gcode LA 1.5
M900 K30 ; Filament gcode LA 1.0
;LAYER_CHANGE
;Z:0.24
;HEIGHT:0.24
;BEFORE_LAYER_CHANGE
G92 E0.0
;0.24


G1 E-0.80000 F2100.000
G1 Z0.400 F10800.000
;AFTER_LAYER_CHANGE
;0.24
G1 X43.328 Y84.296
G1 Z0.240
G1 E0.80000 F2100.000
M204 S1000
;TYPE:Skirt
;WIDTH:0.42
G1 F1200.000
G1 X44.092 Y84.079 E0.02922
G1 X206.486 Y84.065 E5.97101
G1 X207.320 Y84.217 E0.03115
G1 X208.047 Y84.652 E0.03115
G1 X208.576 Y85.318 E0.03128
G1 X208.835 Y86.125 E0.03115
G1 X208.847 Y102.003 E0.58382
G1 X208.637 Y102.800 E0.03032
G1 X206.345 Y107.427 E0.18984
G1 X204.364 Y110.041 E0.12062
G1 X192.211 Y122.150 E0.63077
G1 X184.814 Y126.857 E0.32239
G1 X175.741 Y131.561 E0.37577
G1 X167.683 Y134.101 E0.31065
G1 X163.009 Y134.281 E0.17200
G1 X84.883 Y134.281 E2.87259
G1 X82.823 Y134.042 E0.07626
G1 X75.920 Y131.640 E0.26872
G1 X70.451 Y129.240 E0.21962
G1 X65.649 Y126.831 E0.19754
G1 X58.459 Y122.032 E0.31781
G1 X46.514 Y110.096 E0.62089
G1 X44.496 Y107.438 E0.12273
G1 X42.201 Y102.809 E0.18998
G1 X41.994 Y102.065 E0.02839
G1 X41.996 Y86.161 E0.58478
G1 X42.218 Y85.398 E0.02922
G1 X42.678 Y84.754 E0.02908
G1 X43.279 Y84.331 E0.02701
; printing object presentBest.STL id:0 copy 0
;WIPE_START
G1 F8640.000
G1 X44.092 Y84.079 E-0.19662
G1 X46.532 Y84.079 E-0.56338
;WIPE_END
G1 E-0.04000 F2100.000
G1 Z0.640 F10800.000
G1 X44.348 Y101.809
G1 Z0.240
G1 E0.80000 F2100.000
;TYPE:Support material
G1 F1200.000
G1 X44.348 Y86.434 E0.56534
G1 X45.085 Y86.434 E0.02710
G1 X45.085 Y101.643 E0.55924
G1 X45.822 Y101.643 E0.02710
G1 X45.822 Y86.434 E0.55924
G1 X46.559 Y86.434 E0.02710
G1 X46.559 Y106.275 E0.72953
G1 X47.296 Y106.275 E0.02710
G1 X47.296 Y86.434 E0.72953
G1 X48.033 Y86.434 E0.02710
G1 X48.033 Y106.275 E0.72953
G1 X48.343 Y106.275 E0.01137
G1 X48.343 Y108.590 E0.08514
G1 X48.770 Y108.590 E0.01573
G1 X48.770 Y86.434 E0.81467
M73 P0 R113
G1 X49.507 Y86.434 E0.02710
G1 X49.507 Y108.590 E0.81467
G1 X50.244 Y108.590 E0.02710
G1 X50.244 Y86.434 E0.81467
G1 X50.981 Y86.434 E0.02710
G1 X50.981 Y110.906 E0.89981
G1 X51.718 Y110.906 E0.02710
G1 X51.718 Y86.434 E0.89981
G1 X52.455 Y86.434 E0.02710
G1 X52.455 Y110.906 E0.89981
G1 X52.974 Y110.906 E0.01907
G1 X52.974 Y113.222 E0.08514
G1 X53.192 Y113.222 E0.00803
G1 X53.192 Y86.434 E0.98496
G1 X53.929 Y86.434 E0.02710
G1 X53.929 Y113.222 E0.98496
G1 X54.666 Y113.222 E0.02710
G1 X54.666 Y88.749 E0.89981
M73 Q0 S114
G1 X55.403 Y88.749 E0.02710
G1 X55.403 Y115.537 E0.98496
G1 X56.140 Y115.537 E0.02710
G1 X56.140 Y88.749 E0.98496
G1 X56.877 Y88.749 E0.02710
G1 X56.877 Y115.537 E0.98496
G1 X57.605 Y115.537 E0.02677
G1 X57.614 Y117.853 E0.08514
G1 X57.614 Y88.749 E1.07010
G1 X58.351 Y88.749 E0.02710
G1 X58.351 Y117.853 E1.07010
G1 X59.088 Y117.853 E0.02710
G1 X59.088 Y91.065 E0.98496
G1 X59.825 Y91.065 E0.02710
G1 X59.825 Y117.853 E0.98496
G1 X59.921 Y117.853 E0.00352
G1 X59.921 Y120.169 E0.08514
G1 X60.562 Y120.169 E0.02358
G1 X60.562 Y91.065 E1.07010
G1 X61.237 Y91.065 E0.02480
G1 X61.237 Y93.381 E0.08514
G1 X61.299 Y93.381 E0.00230
G1 X61.299 Y120.169 E0.98496
G1 X62.036 Y120.169 E0.02710
G1 X62.036 Y93.381 E0.98496
G1 X62.773 Y93.381 E0.02710
G1 X62.773 Y120.334 E0.99105
;WIPE_START
G1 F8640.000
G1 X62.773 Y117.043 E-0.76000
;WIPE_END
G1 E-0.04000 F2100.000
G1 Z0.640 F10800.000
G1 X66.458 Y93.215
G1 Z0.240
G1 E0.80000 F2100.000
G1 F1200.000
G1 X66.458 Y103.959 E0.39505
G1 X65.721 Y103.959 E0.02710
G1 X65.721 Y93.381 E0.38895
G1 X64.984 Y93.381 E0.02710
G1 X64.984 Y103.959 E0.38895
G1 X64.247 Y103.959 E0.02710
G1 X64.247 Y93.381 E0.38895
G1 X63.510 Y93.381 E0.02710
G1 X63.510 Y120.169 E0.98496
G1 X64.247 Y120.169 E0.02710
G1 X64.247 Y104.959 E0.55924
G1 X64.984 Y104.959 E0.02710
G1 X64.984 Y122.484 E0.64438
G1 X65.721 Y122.484 E0.02710
G1 X65.721 Y104.959 E0.64438
G1 X66.458 Y104.959 E0.02710
G1 X66.458 Y122.484 E0.64438
G1 X66.868 Y122.484 E0.01507
M73 P1 R113
G1 X66.868 Y124.800 E0.08514
G1 X67.195 Y124.800 E0.01203
G1 X67.195 Y93.381 E1.15525
M73 Q1 S114
G1 X67.932 Y93.381 E0.02710
G1 X67.932 Y124.800 E1.15525
G1 X68.669 Y124.800 E0.02710
G1 X68.669 Y93.381 E1.15525
G1 X69.406 Y93.381 E0.02710
G1 X69.406 Y124.800 E1.15525
G1 X70.143 Y124.800 E0.02710
G1 X70.143 Y93.381 E1.15525
G1 X70.880 Y93.381 E0.02710
G1 X70.880 Y124.800 E1.15525
G1 X71.499 Y124.800 E0.02277
G1 X71.499 Y127.116 E0.08514
G1 X71.617 Y127.116 E0.00433
G1 X71.617 Y93.381 E1.24039
G1 X72.354 Y93.381 E0.02710
G1 X72.354 Y127.116 E1.24039
G1 X73.091 Y127.116 E0.02710
G1 X73.091 Y93.381 E1.24039
G1 X73.828 Y93.381 E0.02710
G1 X73.828 Y127.116 E1.24039
G1 X74.565 Y127.116 E0.02710
G1 X74.565 Y93.381 E1.24039
G1 X75.302 Y93.381 E0.02710
G1 X75.302 Y127.116 E1.24039
G1 X76.039 Y127.116 E0.02710
G1 X76.039 Y93.381 E1.24039
G1 X76.776 Y93.381 E0.02710
G1 X76.776 Y129.431 E1.32553
G1 X77.513 Y129.431 E0.02710
G1 X77.513 Y93.381 E1.32553
M73 P1 R112
G1 X78.250 Y93.381 E0.02710
G1 X78.250 Y129.431 E1.32553
G1 X78.987 Y129.431 E0.02710
G1 X78.987 Y93.381 E1.32553
G1 X79.724 Y93.381 E0.02710
G1 X79.724 Y129.431 E1.32553
G1 X80.461 Y129.431 E0.02710
G1 X80.461 Y93.381 E1.32553
G1 X81.198 Y93.381 E0.02710
G1 X81.198 Y129.597 E1.33163
;WIPE_START
G1 F8640.000
G1 X81.198 Y126.306 E-0.76000
;WIPE_END
G1 E-0.04000 F2100.000
G1 Z0.640 F10800.000
G1 X84.883 Y131.913
G1 Z0.240
G1 E0.80000 F2100.000
G1 F1200.000
G1 X84.883 Y116.537 E0.56534
M73 Q1 S113
G1 X84.146 Y116.537 E0.02710
G1 X84.146 Y131.747 E0.55924
G1 X83.409 Y131.747 E0.02710
G1 X83.409 Y116.537 E0.55924
G1 X82.672 Y116.537 E0.02710
G1 X82.672 Y129.431 E0.47410
G1 X81.935 Y129.431 E0.02710
G1 X81.935 Y93.381 E1.32553
G1 X82.672 Y93.381 E0.02710
G1 X82.672 Y115.537 E0.81467
G1 X83.409 Y115.537 E0.02710
G1 X83.409 Y93.215 E0.82077
G1 X87.094 Y93.215 F10800.000
G1 F1200.000
G1 X87.094 Y103.959 E0.39505
G1 X86.357 Y103.959 E0.02710
G1 X86.357 Y93.381 E0.38895
G1 X85.620 Y93.381 E0.02710
G1 X85.620 Y103.959 E0.38895
G1 X84.883 Y103.959 E0.02710
G1 X84.883 Y93.381 E0.38895
G1 X84.146 Y93.381 E0.02710
G1 X84.146 Y115.537 E0.81467
G1 X84.883 Y115.537 E0.02710
G1 X84.883 Y104.959 E0.38895
G1 X85.620 Y104.959 E0.02710
G1 X85.620 Y131.747 E0.98496
G1 X86.357 Y131.747 E0.02710
G1 X86.357 Y104.959 E0.98496
G1 X87.094 Y104.959 E0.02710
G1 X87.094 Y131.747 E0.98496
G1 X87.831 Y131.747 E0.02710
G1 X87.831 Y93.381 E1.41068
G1 X88.568 Y93.381 E0.02710
G1 X88.568 Y131.747 E1.41068
G1 X89.305 Y131.747 E0.02710
G1 X89.305 Y93.381 E1.41068
G1 X90.024 Y93.381 E0.02646
G1 X90.024 Y91.065 E0.08514
G1 X90.042 Y91.065 E0.00063
G1 X90.042 Y131.747 E1.49582
G1 X90.779 Y131.747 E0.02710
G1 X90.779 Y91.065 E1.49582
G1 X91.516 Y91.065 E0.02710
G1 X91.516 Y131.747 E1.49582
G1 X92.253 Y131.747 E0.02710
G1 X92.253 Y91.065 E1.49582
G1 X92.990 Y91.065 E0.02710
G1 X92.990 Y131.747 E1.49582
G1 X93.656 Y131.747 E0.02449
G1 X93.656 Y124.800 E0.25543
G1 X93.727 Y124.800 E0.00260
G1 X93.727 Y91.065 E1.24039
M73 P2 R112
M73 Q2 S113
G1 X94.464 Y91.065 E0.02710
G1 X94.464 Y124.800 E1.24039
G1 X95.201 Y124.800 E0.02710
G1 X95.201 Y91.065 E1.24039
G1 X95.938 Y91.065 E0.02710
G1 X95.938 Y124.800 E1.24039
G1 X96.675 Y124.800 E0.02710
G1 X96.675 Y91.065 E1.24039
G1 X96.971 Y91.065 E0.01091
G1 X96.971 Y88.749 E0.08514
G1 X97.412 Y88.749 E0.01618
G1 X97.412 Y124.800 E1.32553
G1 X98.149 Y124.800 E0.02710
G1 X98.149 Y88.749 E1.32553
G1 X98.886 Y88.749 E0.02710
G1 X98.886 Y124.800 E1.32553
G1 X99.623 Y124.800 E0.02710
G1 X99.623 Y88.749 E1.32553
G1 X99.984 Y88.749 E0.01329
G1 X100.360 Y89.625 E0.03505
G1 X100.360 Y124.800 E1.29332
M73 P2 R111
G1 X101.097 Y124.800 E0.02710
G1 X101.097 Y91.345 E1.23009
G1 X101.834 Y93.065 E0.06879
G1 X101.834 Y124.800 E1.16686
G1 X102.571 Y124.800 E0.02710
G1 X102.571 Y94.784 E1.10363
G1 X103.308 Y96.504 E0.06879
G1 X103.308 Y122.484 E0.95526
G1 X104.045 Y122.484 E0.02710
G1 X104.045 Y98.224 E0.89203
G1 X104.781 Y99.943 E0.06879
G1 X104.781 Y122.650 E0.83490
;WIPE_START
G1 F8640.000
G1 X104.781 Y119.359 E-0.76000
;WIPE_END
G1 E-0.04000 F2100.000
G1 Z0.640 F10800.000
G1 X109.203 Y111.072
G1 Z0.240
G1 E0.80000 F2100.000
G1 F1200.000
G1 X109.203 Y110.261 E0.02980
G1 X108.466 Y108.542 E0.06879
G1 X108.466 Y110.906 E0.08694
M73 Q2 S112
G1 X107.729 Y110.906 E0.02710
G1 X107.729 Y106.822 E0.15017
G1 X106.992 Y105.102 E0.06879
G1 X106.992 Y110.906 E0.21340
G1 X106.255 Y110.906 E0.02710
G1 X106.255 Y103.383 E0.27662
G1 X105.518 Y101.663 E0.06879
G1 X105.518 Y110.906 E0.33985
G1 X105.234 Y110.906 E0.01046
G1 X105.234 Y111.906 E0.03677
G1 X105.518 Y111.906 E0.01046
G1 X105.518 Y122.484 E0.38895
G1 X106.255 Y122.484 E0.02710
G1 X106.255 Y111.906 E0.38895
G1 X106.992 Y111.906 E0.02710
G1 X106.992 Y122.484 E0.38895
G1 X107.729 Y122.484 E0.02710
G1 X107.729 Y111.906 E0.38895
G1 X108.466 Y111.906 E0.02710
G1 X108.466 Y122.484 E0.38895
G1 X108.550 Y122.484 E0.00306
G1 X108.550 Y124.800 E0.08514
G1 X109.203 Y124.800 E0.02404
G1 X109.203 Y111.906 E0.47410
G1 X109.908 Y111.906 E0.02592
G1 X109.940 Y111.981 E0.00300
G1 X109.940 Y124.800 E0.47134
G1 X110.677 Y124.800 E0.02710
G1 X110.677 Y113.701 E0.40811
G1 X111.414 Y115.420 E0.06879
G1 X111.414 Y127.116 E0.43003
G1 X112.151 Y127.116 E0.02710
G1 X112.151 Y117.140 E0.36680
G1 X112.888 Y118.859 E0.06879
G1 X112.888 Y127.116 E0.30357
G1 X113.625 Y127.116 E0.02710
G1 X113.625 Y120.579 E0.24034
G1 X114.362 Y122.299 E0.06879
G1 X114.362 Y127.116 E0.17711
G1 X115.099 Y127.116 E0.02710
G1 X115.099 Y124.018 E0.11388
G1 X115.147 Y124.130 E0.00448
G1 X115.687 Y124.130 E0.01984
G1 X115.836 Y123.782 E0.01393
G1 X115.836 Y127.116 E0.12257
G1 X116.573 Y127.116 E0.02710
G1 X116.573 Y122.062 E0.18580
G1 X117.310 Y120.343 E0.06879
G1 X117.310 Y127.116 E0.24903
G1 X118.047 Y127.116 E0.02710
G1 X118.047 Y119.685 E0.27320
G1 X118.784 Y119.837 E0.02766
G1 X118.784 Y127.281 E0.27374
;WIPE_START
G1 F8640.000
G1 X118.784 Y123.990 E-0.76000
;WIPE_END
G1 E-0.04000 F2100.000
G1 Z0.640 F10800.000
G1 X139.420 Y122.650
G1 Z0.240
G1 E0.80000 F2100.000
G1 F1200.000
G1 X139.420 Y111.906 E0.39505
G1 X140.157 Y111.906 E0.02710
G1 X140.157 Y122.484 E0.38895
G1 X140.894 Y122.484 E0.02710
G1 X140.894 Y111.906 E0.38895
G1 X141.631 Y111.906 E0.02710
G1 X141.631 Y122.484 E0.38895
G1 X142.368 Y122.484 E0.02710
G1 X142.368 Y111.906 E0.38895
G1 X143.105 Y111.906 E0.02710
G1 X143.105 Y122.484 E0.38895
G1 X143.842 Y122.484 E0.02710
G1 X143.842 Y111.906 E0.38895
G1 X144.579 Y111.906 E0.02710
G1 X144.579 Y122.484 E0.38895
G1 X145.316 Y122.484 E0.02710
G1 X145.316 Y111.906 E0.38895
G1 X145.600 Y111.906 E0.01046
G1 X145.600 Y111.260 E0.02374
G1 X146.053 Y111.316 E0.01677
G1 X146.053 Y122.484 E0.41065
G1 X146.790 Y122.484 E0.02710
G1 X146.790 Y111.406 E0.40732
G1 X147.527 Y111.497 E0.02730
G1 X147.527 Y122.484 E0.40399
G1 X147.916 Y122.484 E0.01430
G1 X147.916 Y124.800 E0.08514
G1 X148.264 Y124.800 E0.01279
G1 X148.264 Y111.587 E0.48581
G1 X149.001 Y111.678 E0.02730
G1 X149.001 Y124.800 E0.48248
G1 X149.738 Y124.800 E0.02710
G1 X149.738 Y111.768 E0.47915
G1 X150.475 Y111.859 E0.02730
G1 X150.475 Y124.966 E0.48192
;WIPE_START
G1 F8640.000
G1 X150.475 Y121.674 E-0.76000
;WIPE_END
G1 E-0.04000 F2100.000
G1 Z0.640 F10800.000
G1 X163.004 Y131.913
G1 Z0.240
G1 E0.80000 F2100.000
G1 F1200.000
G1 X163.004 Y93.381 E1.41677
G1 X162.267 Y93.381 E0.02710
G1 X162.267 Y131.747 E1.41068
G1 X161.530 Y131.747 E0.02710
G1 X161.530 Y93.381 E1.41068
G1 X160.810 Y93.381 E0.02647
G1 X160.810 Y91.065 E0.08514
G1 X160.793 Y91.065 E0.00063
G1 X160.793 Y131.747 E1.49582
G1 X160.056 Y131.747 E0.02710
G1 X160.056 Y91.065 E1.49582
G1 X159.319 Y91.065 E0.02710
G1 X159.319 Y131.747 E1.49582
G1 X158.582 Y131.747 E0.02710
G1 X158.582 Y91.065 E1.49582
G1 X157.845 Y91.065 E0.02710
G1 X157.845 Y131.747 E1.49582
G1 X157.179 Y131.747 E0.02449
G1 X157.179 Y124.800 E0.25543
G1 X157.108 Y124.800 E0.00260
G1 X157.108 Y91.065 E1.24039
G1 X156.371 Y91.065 E0.02710
G1 X156.371 Y124.800 E1.24039
M73 P3 R111
G1 X155.634 Y124.800 E0.02710
G1 X155.634 Y91.065 E1.24039
M73 Q3 S112
G1 X154.897 Y91.065 E0.02710
G1 X154.897 Y124.800 E1.24039
G1 X154.160 Y124.800 E0.02710
G1 X154.160 Y91.065 E1.24039
G1 X153.863 Y91.065 E0.01092
G1 X153.863 Y88.749 E0.08514
G1 X153.423 Y88.749 E0.01618
G1 X153.423 Y124.800 E1.32553
M73 P3 R110
G1 X152.686 Y124.800 E0.02710
G1 X152.686 Y88.749 E1.32553
G1 X151.949 Y88.749 E0.02710
G1 X151.949 Y124.800 E1.32553
G1 X151.212 Y124.800 E0.02710
G1 X151.212 Y88.749 E1.32553
G1 X150.475 Y88.749 E0.02710
G1 X150.475 Y108.515 E0.72677
G1 X149.738 Y108.425 E0.02730
G1 X149.738 Y104.959 E0.12744
G1 X149.001 Y104.959 E0.02710
G1 X149.001 Y108.335 E0.12411
G1 X148.264 Y108.244 E0.02730
G1 X148.264 Y104.959 E0.12079
G1 X147.527 Y104.959 E0.02710
G1 X147.527 Y108.154 E0.11746
G1 X146.790 Y108.063 E0.02730
G1 X146.790 Y104.959 E0.11413
G1 X146.053 Y104.959 E0.02710
G1 X146.053 Y108.140 E0.11695
;WIPE_START
G1 F8640.000
G1 X146.053 Y104.959 E-0.73442
G1 X146.164 Y104.959 E-0.02558
;WIPE_END
G1 E-0.04000 F2100.000
G1 Z0.640 F10800.000
G1 X149.738 Y101.809
G1 Z0.240
G1 E0.80000 F2100.000
G1 F1200.000
G1 X149.738 Y88.749 E0.48019
G1 X149.001 Y88.749 E0.02710
G1 X149.001 Y101.643 E0.47410
G1 X148.264 Y101.643 E0.02710
G1 X148.264 Y88.749 E0.47410
M73 Q3 S111
G1 X147.527 Y88.749 E0.02710
G1 X147.527 Y101.643 E0.47410
G1 X146.790 Y101.643 E0.02710
G1 X146.790 Y88.749 E0.47410
G1 X146.053 Y88.749 E0.02710
G1 X146.053 Y101.643 E0.47410
G1 X145.600 Y101.643 E0.01664
G1 X145.600 Y99.328 E0.08514
G1 X145.316 Y99.328 E0.01046
G1 X145.316 Y88.749 E0.38895
G1 X144.579 Y88.749 E0.02710
G1 X144.579 Y99.328 E0.38895
G1 X143.842 Y99.328 E0.02710
G1 X143.842 Y88.749 E0.38895
G1 X143.105 Y88.749 E0.02710
G1 X143.105 Y99.328 E0.38895
G1 X142.368 Y99.328 E0.02710
G1 X142.368 Y88.749 E0.38895
G1 X141.631 Y88.749 E0.02710
G1 X141.631 Y99.328 E0.38895
G1 X140.894 Y99.328 E0.02710
G1 X140.894 Y88.749 E0.38895
G1 X140.157 Y88.749 E0.02710
G1 X140.157 Y99.328 E0.38895
G1 X139.420 Y99.328 E0.02710
G1 X139.420 Y88.584 E0.39505
;WIPE_START
G1 F8640.000
G1 X139.420 Y91.875 E-0.76000
;WIPE_END
G1 E-0.04000 F2100.000
G1 Z0.640 F10800.000
G1 X135.735 Y99.494
G1 Z0.240
G1 E0.80000 F2100.000
G1 F1200.000
G1 X135.735 Y88.749 E0.39505
G1 X134.998 Y88.749 E0.02710
G1 X134.998 Y99.328 E0.38895
G1 X134.261 Y99.328 E0.02710
G1 X134.261 Y88.749 E0.38895
G1 X133.524 Y88.749 E0.02710
G1 X133.524 Y99.328 E0.38895
G1 X132.787 Y99.328 E0.02710
G1 X132.787 Y88.749 E0.38895
G1 X132.050 Y88.749 E0.02710
G1 X132.050 Y99.328 E0.38895
G1 X131.313 Y99.328 E0.02710
G1 X131.313 Y88.749 E0.38895
G1 X130.850 Y88.749 E0.01702
G1 X130.576 Y89.389 E0.02560
G1 X130.576 Y99.328 E0.36542
G1 X129.839 Y99.328 E0.02710
G1 X129.839 Y91.109 E0.30220
G1 X129.102 Y92.828 E0.06879
G1 X129.102 Y99.328 E0.23897
