; generated by PrusaSlicer 2.4.1+win64 on 2022-09-30 at 20:41:24 UTC

; 

; external perimeters extrusion width = 0.45mm
; perimeters extrusion width = 0.45mm
; infill extrusion width = 0.45mm
; solid infill extrusion width = 0.45mm
; top infill extrusion width = 0.40mm
; support material extrusion width = 0.35mm
; first layer extrusion width = 0.42mm

; external perimeters extrusion width = 0.45mm
; perimeters extrusion width = 0.45mm
; infill extrusion width = 0.45mm
; solid infill extrusion width = 0.45mm
; top infill extrusion width = 0.40mm
; support material extrusion width = 0.35mm
; first layer extrusion width = 0.42mm

M73 P0 R18
M73 Q0 S18
M107
;TYPE:Custom
M862.3 P "MK3S" ; printer model check
M862.1 P0.4 ; nozzle diameter check
M115 U3.10.0 ; tell printer latest fw version
G90 ; use absolute coordinates
M83 ; extruder relative mode
M104 S215 ; set extruder temp
M140 S60 ; set bed temp
M190 S60 ; wait for bed temp
M109 S215 ; wait for extruder temp
G28 W ; home all without mesh bed level
G80 ; mesh bed leveling
G1 Y-3.0 F1000.0 ; go outside print area
G92 E0.0
G1 X60.0 E9.0 F1000.0 ; intro line
G1 X100.0 E12.5 F1000.0 ; intro line
G92 E0.0
M221 S95

; Don't change E values below. Excessive value can damage the printer.

G21 ; set units to millimeters
G90 ; use absolute coordinates
M83 ; use relative distances for extrusion
M900 K0.05 ; Filament gcode LA 1.5
M900 K30 ; Filament gcode LA 1.0
M107
;LAYER_CHANGE
;Z:0.24
;HEIGHT:0.24
;BEFORE_LAYER_CHANGE
G92 E0.0
;0.24


M73 P0 R17
M73 Q0 S17
G1 E-.8 F2100
G1 Z.4 F10800
;AFTER_LAYER_CHANGE
;0.24
G1 X117.792 Y91.914
G1 Z.24
G1 E.8 F2100
M204 S1000
;TYPE:Skirt/Brim
;WIDTH:0.42
G1 F1200
G1 X119.867 Y89.415 E.10986
G1 X120.691 Y88.591 E.03943
G1 X121.517 Y87.908 E.03624
G1 X122.382 Y87.359 E.03468
G1 X123.283 Y86.96 E.03333
G1 X124.167 Y86.723 E.03097
G1 X125.346 Y86.656 E.03993
G1 X126.804 Y86.995 E.05064
G1 X127.939 Y87.549 E.04272
G1 X129.285 Y88.579 E.05735
G1 X130.353 Y89.666 E.05152
G1 X177.067 Y143.888 E2.42103
G1 X178.489 Y145.775 E.07991
M73 P1 R17
M73 Q1 S17
G1 X179.477 Y147.451 E.06581
G1 X180.367 Y149.426 E.07328
G1 X180.993 Y151.39 E.06973
G1 X181.363 Y153.254 E.06429
G1 X181.501 Y155.069 E.06157
G1 X181.374 Y157.007 E.0657
G1 X180.985 Y158.813 E.06249
G1 X180.33 Y160.669 E.06656
G1 X179.242 Y162.913 E.08436
G1 X178.015 Y164.952 E.08051
G1 X176.685 Y166.723 E.0749
G1 X175.267 Y168.218 E.0697
G1 X173.553 Y169.7 E.07666
G1 X171.665 Y171.076 E.07902
G1 X168.904 Y172.754 E.1093
G1 X166.139 Y174.17 E.10508
G1 X162.74 Y175.708 E.1262
G1 X160.114 Y176.706 E.09503
G1 X158.04 Y177.305 E.07303
G1 X155.483 Y177.738 E.08772
G1 X128.839 Y177.738 E.90127
G1 X126.283 Y177.305 E.08772
G1 X124.208 Y176.706 E.07303
G1 X121.721 Y175.765 E.08995
G1 X118.079 Y174.119 E.13521
G1 X115.271 Y172.672 E.10686
G1 X112.823 Y171.187 E.09685
G1 X110.769 Y169.7 E.08576
G1 X109.055 Y168.218 E.07666
G1 X107.461 Y166.511 E.07899
G1 X106.18 Y164.762 E.07334
G1 X105.175 Y163.086 E.06613
G1 X103.992 Y160.669 E.09102
G1 X103.337 Y158.813 E.06656
G1 X102.948 Y157.007 E.06249
G1 X102.823 Y155.411 E.05416
G1 X102.923 Y153.538 E.06345
G1 X108.773 Y109.686 E1.49656
G1 X109.226 Y107.352 E.08042
G1 X109.645 Y106.105 E.04448
G1 X110.228 Y104.73 E.05054
G1 X113.934 Y97.647 E.2704
G1 X114.943 Y95.952 E.06673
G1 X116.103 Y94.217 E.07058
G1 X117.756 Y91.962 E.09459
; printing object shittyBatmanPicks.STL id:1 copy 0
;WIPE_START
G1 F8640
G1 X119.857 Y89.428 E-.76
;WIPE_END
G1 E-.04 F2100
G1 Z.64 F10800
G1 X151.302 Y145.469
G1 Z.24
G1 E.8 F2100
;TYPE:Perimeter
M73 Q2 S17
G1 F1200
G1 X152.43 Y144.48 E.05075
G1 X153.218 Y143.633 E.03915
G1 X153.836 Y142.65 E.03928
G1 X153.946 Y142.284 E.01292
G1 X154.153 Y142.674 E.01495
G1 X154.731 Y143.524 E.03478
G1 X155.93 Y144.809 E.05944
G1 X157.181 Y145.905 E.05627
M73 P2 R17
G1 X158.551 Y146.841 E.05613
G1 X159.878 Y147.479 E.04979
G1 X160.931 Y147.798 E.03724
G1 X161.979 Y147.948 E.03578
G1 X163.012 Y147.932 E.03495
G1 X163.933 Y147.778 E.03161
G1 X164.62 Y147.564 E.02434
G1 X165.264 Y147.265 E.02401
G1 X165.792 Y146.918 E.02138
G1 X166.235 Y146.522 E.02009
G1 X166.596 Y146.078 E.01939
G1 X166.916 Y145.521 E.02173
G1 X167.167 Y144.86 E.0239
G1 X167.34 Y144.045 E.02818
G1 X167.391 Y142.97 E.0364
G1 X167.27 Y141.912 E.03603
G1 X166.956 Y140.774 E.03993
G1 X166.421 Y139.613 E.04326
G1 X167.502 Y140.174 E.04119
G1 X169.397 Y141.343 E.07533
G1 X171.471 Y142.89 E.08752
G1 X173.393 Y144.587 E.08673
G1 X174.679 Y145.94 E.06316
G1 X175.801 Y147.413 E.06263
G1 X176.743 Y149.01 E.06272
G1 X177.471 Y150.658 E.06093
G1 X177.975 Y152.281 E.05749
G1 X178.262 Y153.795 E.05213
G1 X178.357 Y155.222 E.0484
G1 X178.241 Y156.705 E.05029
G1 X177.929 Y158.061 E.04709
G1 X177.387 Y159.554 E.05374
G1 X176.432 Y161.494 E.07314
G1 X175.463 Y163.111 E.06375
G1 X174.358 Y164.603 E.06281
G1 X173.169 Y165.872 E.05882
G1 X171.672 Y167.177 E.06718
G1 X169.838 Y168.513 E.07676
G1 X167.442 Y169.967 E.0948
G1 X164.824 Y171.311 E.09956
G1 X161.465 Y172.831 E.12471
G1 X159.03 Y173.751 E.08806
G1 X157.627 Y174.158 E.04941
G1 X157.287 Y174.286 E.01227
G1 X157.415 Y174.13 E.00681
G1 X158.01 Y173.22 E.03676
G1 X158.709 Y171.664 E.05771
G1 X159.251 Y169.921 E.06175
G1 X159.61 Y168.085 E.06326
G1 X159.754 Y166.287 E.06102
G1 X159.666 Y164.555 E.05869
G1 X159.373 Y163.038 E.05224
G1 X158.909 Y161.696 E.04803
G1 X158.253 Y160.448 E.0477
G1 X157.575 Y159.548 E.03811
G1 X156.942 Y158.938 E.02976
G1 X156.219 Y158.437 E.02976
G1 X155.411 Y158.052 E.03025
G1 X154.485 Y157.778 E.03268
G1 X153.435 Y157.641 E.03581
G1 X152.442 Y157.668 E.03363
G1 X151.674 Y157.816 E.02643
G1 X151.12 Y158.015 E.01994
G1 X150.621 Y158.287 E.01922
G1 X150.117 Y158.678 E.02157
G1 X149.55 Y159.272 E.0278
G1 X148.43 Y160.809 E.06432
G1 X147.866 Y161.856 E.04025
G1 X147.521 Y162.887 E.03677
G1 X147.248 Y164.346 E.05021
G1 X146.654 Y169.145 E.16357
G1 X146.426 Y172.248 E.10524
G1 X146.382 Y173.293 E.03539
G1 X146.231 Y173.065 E.00926
G1 X145.014 Y171.618 E.06397
G1 X139.309 Y171.618 E.19299
G1 X138.092 Y173.065 E.06397
G1 X137.94 Y173.293 E.00926
G1 X137.897 Y172.248 E.03539
G1 X137.668 Y169.145 E.10524
G1 X137.074 Y164.346 E.16357
G1 X136.801 Y162.887 E.05021
G1 X136.457 Y161.856 E.03677
G1 X135.892 Y160.809 E.04025
G1 X134.773 Y159.272 E.06432
G1 X134.205 Y158.678 E.0278
G1 X133.701 Y158.287 E.02157
G1 X133.203 Y158.015 E.01922
G1 X132.648 Y157.816 E.01994
G1 X131.881 Y157.668 E.02643
G1 X130.887 Y157.641 E.03363
G1 X129.837 Y157.778 E.03581
G1 X128.911 Y158.052 E.03268
G1 X128.103 Y158.437 E.03025
G1 X127.38 Y158.938 E.02976
G1 X126.747 Y159.548 E.02976
G1 X126.069 Y160.448 E.03811
G1 X125.413 Y161.696 E.0477
G1 X124.949 Y163.038 E.04803
G1 X124.656 Y164.555 E.05224
G1 X124.568 Y166.287 E.05869
G1 X124.712 Y168.085 E.06102
G1 X125.071 Y169.921 E.06326
G1 X125.613 Y171.664 E.06175
G1 X126.31 Y173.215 E.05752
G1 X126.609 Y173.692 E.01904
G1 X127.035 Y174.286 E.02471
G1 X126.695 Y174.158 E.01227
G1 X125.292 Y173.751 E.04941
G1 X122.857 Y172.831 E.08806
G1 X119.498 Y171.311 E.12471
G1 X116.88 Y169.967 E.09956
G1 X114.484 Y168.513 E.0948
G1 X112.65 Y167.177 E.07676
G1 X111.153 Y165.872 E.06718
G1 X109.964 Y164.603 E.05882
G1 X108.86 Y163.111 E.06281
G1 X107.89 Y161.494 E.06375
G1 X106.935 Y159.554 E.07314
G1 X106.393 Y158.061 E.05374
G1 X106.081 Y156.705 E.04709
G1 X105.965 Y155.222 E.05029
G1 X106.06 Y153.795 E.0484
G1 X106.347 Y152.281 E.05213
G1 X106.851 Y150.658 E.05749
G1 X107.58 Y149.01 E.06093
G1 X108.521 Y147.413 E.06271
G1 X109.643 Y145.94 E.06263
G1 X110.929 Y144.587 E.06316
G1 X112.851 Y142.89 E.08673
G1 X114.925 Y141.343 E.08752
G1 X116.821 Y140.174 E.07533
G1 X117.901 Y139.613 E.04119
M73 Q3 S17
G1 X117.366 Y140.774 E.04326
G1 X117.052 Y141.912 E.03993
G1 X116.931 Y142.97 E.03603
G1 X116.982 Y144.045 E.0364
G1 X117.155 Y144.86 E.02818
G1 X117.406 Y145.521 E.0239
M73 P3 R17
G1 X117.726 Y146.078 E.02173
G1 X118.087 Y146.522 E.01939
G1 X118.53 Y146.918 E.02009
G1 X119.059 Y147.265 E.02138
G1 X119.702 Y147.564 E.02401
G1 X120.389 Y147.778 E.02434
G1 X121.311 Y147.932 E.03161
G1 X122.344 Y147.948 E.03495
G1 X123.391 Y147.798 E.03578
G1 X124.445 Y147.479 E.03724
G1 X125.771 Y146.841 E.04979
G1 X127.141 Y145.905 E.05613
G1 X128.393 Y144.809 E.05627
G1 X129.591 Y143.524 E.05944
G1 X130.17 Y142.674 E.03478
G1 X130.376 Y142.284 E.01495
G1 X130.486 Y142.65 E.01292
G1 X131.104 Y143.633 E.03928
G1 X131.893 Y144.48 E.03915
G1 X133.02 Y145.469 E.05075
G1 X137.647 Y132.212 E.47501
G1 X138.299 Y130.618 E.05824
G1 X139.033 Y129.301 E.05099
G1 X139.831 Y128.273 E.04403
G1 X140.485 Y127.68 E.02985
G1 X141.021 Y127.343 E.02143
G1 X141.478 Y127.158 E.01669
G1 X141.889 Y127.071 E.01419
G1 X142.281 Y127.057 E.01327
G1 X142.648 Y127.11 E.01254
G1 X143.119 Y127.259 E.01672
G1 X143.618 Y127.526 E.01915
G1 X144.221 Y128.003 E.026
G1 X144.969 Y128.844 E.03809
G1 X145.733 Y130.046 E.04818
G1 X146.422 Y131.532 E.0554
G1 X146.671 Y132.2 E.02411
G1 X151.282 Y145.413 E.47339
G1 X151.47 Y144.832 F10800
;TYPE:External perimeter
G1 F1200
G1 X152.173 Y144.215 E.03163
G1 X152.925 Y143.407 E.03735
G1 X153.498 Y142.496 E.0364
G1 X153.653 Y141.976 E.01835
G1 X153.87 Y141.103 E.03045
G1 X154.122 Y141.59 E.01856
G1 X154.225 Y142.024 E.01509
G1 X154.469 Y142.484 E.0176
G1 X155.02 Y143.293 E.03314
G1 X156.186 Y144.544 E.05785
G1 X157.407 Y145.614 E.05489
G1 X158.736 Y146.521 E.05444
G1 X160.012 Y147.135 E.04788
G1 X161.011 Y147.437 E.03533
G1 X162.002 Y147.579 E.03386
G1 X162.978 Y147.564 E.03302
G1 X163.848 Y147.419 E.02981
G1 X164.487 Y147.22 E.02266
G1 X165.084 Y146.942 E.02227
G1 X165.567 Y146.625 E.01954
G1 X165.967 Y146.267 E.01816
G1 X166.291 Y145.868 E.01739
G1 X166.582 Y145.362 E.01973
G1 X166.812 Y144.756 E.02196
G1 X166.973 Y143.998 E.02621
G1 X167.022 Y142.982 E.03438
G1 X166.907 Y141.982 E.03405
G1 X166.609 Y140.901 E.03794
G1 X166.092 Y139.779 E.0418
G1 X165.863 Y139.408 E.01474
G1 X165.563 Y139.064 E.01543
G1 X165.209 Y138.458 E.02375
G1 X165.812 Y138.713 E.02213
G1 X166.141 Y138.985 E.01443
G1 X166.519 Y139.246 E.01556
G1 X166.913 Y139.466 E.01527
G1 X167.681 Y139.852 E.02907
G1 X169.605 Y141.037 E.07642
G1 X171.703 Y142.603 E.08858
G1 X173.649 Y144.321 E.08779
G1 X174.96 Y145.701 E.06439
G1 X176.108 Y147.207 E.06405
G1 X177.071 Y148.841 E.06418
G1 X177.817 Y150.528 E.06238
G1 X178.333 Y152.191 E.05892
G1 X178.628 Y153.748 E.05359
G1 X178.727 Y155.225 E.05006
G1 X178.607 Y156.761 E.05212
G1 X178.283 Y158.166 E.04878
G1 X177.726 Y159.699 E.05518
G1 X176.756 Y161.671 E.07434
G1 X175.769 Y163.315 E.06488
G1 X174.642 Y164.84 E.06413
G1 X173.425 Y166.137 E.06017
G1 X171.902 Y167.465 E.06835
G1 X170.043 Y168.82 E.07783
G1 X167.622 Y170.289 E.09577
G1 X164.984 Y171.643 E.10031
G1 X161.606 Y173.171 E.12541
G1 X159.147 Y174.101 E.08895
G1 X157.743 Y174.508 E.04943
G1 X156.833 Y174.849 E.03288
G1 X156.386 Y174.994 E.0159
G1 X156.037 Y175.057 E.01198
G1 X156.383 Y174.638 E.01838
G1 X156.772 Y174.333 E.01671
G1 X157.117 Y173.912 E.01843
G1 X157.686 Y173.043 E.03512
G1 X158.364 Y171.533 E.05598
G1 X158.893 Y169.831 E.06032
G1 X159.244 Y168.035 E.06188
G1 X159.384 Y166.282 E.0595
G1 X159.299 Y164.599 E.057
G1 X159.016 Y163.134 E.05047
G1 X158.57 Y161.843 E.0462
G1 X157.941 Y160.646 E.04574
G1 X157.298 Y159.794 E.03611
G1 X156.707 Y159.224 E.02776
G1 X156.033 Y158.757 E.02774
G1 X155.279 Y158.397 E.02827
G1 X154.408 Y158.139 E.03071
G1 X153.416 Y158.01 E.03384
G1 X152.482 Y158.036 E.03164
G1 X151.772 Y158.172 E.02445
G1 X151.271 Y158.352 E.01801
G1 X150.823 Y158.596 E.01725
G1 X150.365 Y158.952 E.01964
G1 X149.833 Y159.509 E.02605
G1 X148.742 Y161.006 E.06265
G1 X148.205 Y162.003 E.03833
G1 X147.879 Y162.98 E.03483
G1 X147.613 Y164.403 E.04897
G1 X147.021 Y169.181 E.16287
G1 X146.793 Y172.271 E.1048
G1 X146.745 Y173.181 E.03084
G1 X146.77 Y173.665 E.01639
G1 X146.82 Y174.119 E.01545
G1 X146.779 Y174.528 E.01389
G1 X146.46 Y174.164 E.01637
G1 X146.226 Y173.724 E.01686
G1 X145.935 Y173.286 E.01777
G1 X144.842 Y171.986 E.05746
G1 X139.48 Y171.986 E.18138
G1 X138.387 Y173.286 E.05746
G1 X138.097 Y173.724 E.01777
G1 X137.863 Y174.164 E.01686
G1 X137.544 Y174.528 E.01637
G1 X137.502 Y174.119 E.01389
G1 X137.552 Y173.665 E.01545
G1 X137.577 Y173.181 E.01639
G1 X137.529 Y172.271 E.03084
G1 X137.301 Y169.181 E.1048
G1 X136.71 Y164.403 E.16287
G1 X136.444 Y162.98 E.04897
M73 Q4 S17
G1 X136.117 Y162.003 E.03483
G1 X135.58 Y161.006 E.03833
G1 X134.489 Y159.509 E.06265
G1 X133.957 Y158.952 E.02605
M73 P4 R17
G1 X133.499 Y158.596 E.01964
G1 X133.051 Y158.352 E.01725
G1 X132.55 Y158.172 E.01801
G1 X131.841 Y158.036 E.02445
G1 X130.906 Y158.01 E.03164
G1 X129.914 Y158.139 E.03384
G1 X129.043 Y158.397 E.03071
G1 X128.289 Y158.757 E.02827
G1 X127.615 Y159.224 E.02774
G1 X127.024 Y159.794 E.02776
G1 X126.381 Y160.646 E.03611
G1 X125.752 Y161.843 E.04574
G1 X125.306 Y163.134 E.0462
G1 X125.023 Y164.599 E.05047
G1 X124.938 Y166.282 E.057
G1 X125.078 Y168.035 E.0595
G1 X125.429 Y169.831 E.06188
G1 X125.959 Y171.533 E.06032
G1 X126.636 Y173.041 E.05591
G1 X126.918 Y173.49 E.01794
G1 X127.206 Y173.913 E.01733
G1 X127.55 Y174.333 E.01836
G1 X127.939 Y174.638 E.01671
G1 X128.285 Y175.057 E.01838
G1 X127.936 Y174.994 E.01198
G1 X127.489 Y174.849 E.0159
G1 X126.579 Y174.508 E.03288
G1 X125.176 Y174.101 E.04943
G1 X122.716 Y173.171 E.08895
G1 X119.338 Y171.643 E.12541
G1 X116.7 Y170.289 E.10031
G1 X114.28 Y168.82 E.09577
G1 X112.42 Y167.465 E.07783
G1 X110.897 Y166.137 E.06835
G1 X109.68 Y164.84 E.06017
G1 X108.553 Y163.315 E.06413
G1 X107.566 Y161.671 E.06488
G1 X106.596 Y159.699 E.07434
G1 X106.039 Y158.166 E.05518
G1 X105.715 Y156.761 E.04878
G1 X105.595 Y155.225 E.05212
G1 X105.694 Y153.748 E.05006
G1 X105.989 Y152.191 E.05359
G1 X106.505 Y150.528 E.05892
G1 X107.251 Y148.841 E.06238
G1 X108.215 Y147.207 E.06418
G1 X109.362 Y145.701 E.06405
G1 X110.673 Y144.321 E.06439
G1 X112.619 Y142.603 E.08779
G1 X114.718 Y141.037 E.08858
G1 X116.641 Y139.852 E.07642
G1 X117.409 Y139.466 E.02907
G1 X117.803 Y139.246 E.01527
G1 X118.182 Y138.985 E.01556
G1 X118.511 Y138.713 E.01443
G1 X119.113 Y138.458 E.02213
G1 X118.759 Y139.064 E.02375
G1 X118.459 Y139.408 E.01543
G1 X118.23 Y139.779 E.01474
G1 X117.713 Y140.901 E.0418
G1 X117.415 Y141.982 E.03794
G1 X117.301 Y142.982 E.03405
G1 X117.349 Y143.998 E.03438
G1 X117.51 Y144.756 E.02621
G1 X117.74 Y145.362 E.02196
G1 X118.031 Y145.868 E.01973
G1 X118.355 Y146.267 E.01739
G1 X118.755 Y146.625 E.01816
G1 X119.238 Y146.942 E.01954
G1 X119.835 Y147.22 E.02227
G1 X120.475 Y147.419 E.02266
G1 X121.344 Y147.564 E.02981
G1 X122.32 Y147.579 E.03302
G1 X123.311 Y147.437 E.03386
G1 X124.311 Y147.135 E.03533
G1 X125.586 Y146.521 E.04788
G1 X126.915 Y145.614 E.05444
G1 X128.136 Y144.544 E.05489
G1 X129.302 Y143.293 E.05785
G1 X129.853 Y142.484 E.03314
G1 X130.097 Y142.024 E.0176
G1 X130.2 Y141.59 E.01509
G1 X130.452 Y141.103 E.01856
G1 X130.669 Y141.976 E.03045
G1 X130.824 Y142.496 E.01835
G1 X131.397 Y143.407 E.0364
G1 X132.15 Y144.215 E.03735
G1 X132.852 Y144.832 E.03163
G1 X137.302 Y132.081 E.45684
G1 X137.966 Y130.458 E.05932
G1 X138.725 Y129.097 E.05269
G1 X139.56 Y128.022 E.04607
G1 X140.261 Y127.385 E.03204
G1 X140.853 Y127.014 E.02362
G1 X141.37 Y126.804 E.01888
G1 X141.844 Y126.703 E.01639
G1 X142.301 Y126.688 E.01546
G1 X142.73 Y126.749 E.01467
G1 X143.263 Y126.918 E.01891
G1 X143.821 Y127.217 E.02141
G1 X144.475 Y127.734 E.0282
G1 X145.264 Y128.622 E.04019
G1 X146.057 Y129.869 E.05
G1 X146.762 Y131.39 E.0567
G1 X147.018 Y132.075 E.02473
G1 X151.45 Y144.775 E.45502
G1 X151.693 Y145.164 F10800
;WIPE_START
G1 F8640
G1 X152.173 Y144.215 E-.21109
G1 X152.925 Y143.407 E-.25492
G1 X153.498 Y142.496 E-.24847
G1 X153.554 Y142.307 E-.04552
;WIPE_END
G1 E-.04 F2100
G1 Z.64 F10800
G1 X153.99 Y141.926
G1 Z.24
G1 E.8 F2100
;TYPE:Gap fill
;WIDTH:0.13529
G1 F1200
G1 X153.909 Y141.71 E.00178
;WIPE_START
G1 F8640
G1 X153.99 Y141.926 E-.05332
;WIPE_END
G1 E-.74668 F2100
G1 Z.64 F10800
G1 X165.69 Y138.879
G1 Z.24
G1 E.8 F2100
;WIDTH:0.117825
G1 F1200
G1 X165.739 Y138.935 E.00045
;WIDTH:0.146277
G1 X165.865 Y139.057 E.00152
;WIDTH:0.174728
