; generated by PrusaSlicer 2.4.1+win64 on 2022-09-30 at 19:12:47 UTC

; 

; external perimeters extrusion width = 0.45mm
; perimeters extrusion width = 0.45mm
; infill extrusion width = 0.45mm
; solid infill extrusion width = 0.45mm
; top infill extrusion width = 0.40mm
; support material extrusion width = 0.35mm
; first layer extrusion width = 0.42mm

M73 P0 R5
M73 Q0 S5
M107
;TYPE:Custom
M862.3 P "MK3S" ; printer model check
M862.1 P0.4 ; nozzle diameter check
M115 U3.10.0 ; tell printer latest fw version
G90 ; use absolute coordinates
M83 ; extruder relative mode
M104 S215 ; set extruder temp
M140 S60 ; set bed temp
M190 S60 ; wait for bed temp
M109 S215 ; wait for extruder temp
G28 W ; home all without mesh bed level
G80 ; mesh bed leveling
G1 Y-3.0 F1000.0 ; go outside print area
G92 E0.0
G1 X60.0 E9.0 F1000.0 ; intro line
G1 X100.0 E12.5 F1000.0 ; intro line
G92 E0.0
M221 S95

; Don't change E values below. Excessive value can damage the printer.

G21 ; set units to millimeters
G90 ; use absolute coordinates
M83 ; use relative distances for extrusion
M900 K0.05 ; Filament gcode LA 1.5
M900 K30 ; Filament gcode LA 1.0
M107
;LAYER_CHANGE
;Z:0.24
;HEIGHT:0.24
;BEFORE_LAYER_CHANGE
G92 E0.0
;0.24


M73 P1 R5
M73 Q1 S5
G1 E-.8 F2100
G1 Z.4 F10800
;AFTER_LAYER_CHANGE
;0.24
G1 X118.604 Y90.294
G1 Z.24
M73 P2 R5
M73 Q2 S5
G1 E.8 F2100
M204 S1000
;TYPE:Skirt/Brim
;WIDTH:0.42
G1 F1200
G1 X119.61 Y89.151 E.05153
G1 X121.059 Y87.793 E.06718
G1 X122.229 Y87.024 E.04737
G1 X123.184 Y86.605 E.03525
G1 X124.121 Y86.357 E.0328
G1 X125.401 Y86.292 E.04334
G1 X126.388 Y86.476 E.03397
G1 X127.825 Y87.058 E.05244
G1 X128.701 Y87.619 E.0352
G1 X129.706 Y88.469 E.04452
G1 X131.763 Y90.757 E.10407
G1 X134.426 Y94.346 E.15119
G1 X135.587 Y96.123 E.07181
G1 X136.618 Y97.9 E.0695
G1 X139.622 Y103.594 E.21776
G1 X140.825 Y106.342 E.10146
G1 X141.264 Y107.81 E.05185
G1 X141.517 Y109.144 E.04594
G1 X141.718 Y111.882 E.09284
G1 X141.669 Y113.301 E.04803
G1 X141.328 Y115.157 E.06385
G1 X140.952 Y116.165 E.03638
G1 X140.418 Y117.153 E.03799
G1 X139.756 Y118.071 E.03827
G1 X138.786 Y119.116 E.04826
G1 X136.889 Y120.649 E.08248
G1 X135.648 Y121.432 E.04966
G1 X134.336 Y122.101 E.04982
G1 X132.987 Y122.637 E.04909
G1 X131.619 Y123.037 E.04822
G1 X128.69 Y123.536 E.10052
G1 X125.058 Y123.737 E.12302
M73 Q3 S5
G1 X123.122 Y123.685 E.06553
G1 X121.154 Y123.52 E.06681
M73 P3 R5
G1 X119.622 Y123.3 E.05232
G1 X118.239 Y123.004 E.04785
G1 X116.954 Y122.62 E.04539
G1 X115.619 Y122.086 E.04864
G1 X114.341 Y121.432 E.04855
G1 X113.105 Y120.653 E.04942
G1 X111.896 Y119.733 E.05139
G1 X110.792 Y118.704 E.05104
G1 X110.022 Y117.802 E.04012
G1 X109.394 Y116.86 E.03833
G1 X108.906 Y115.858 E.0377
G1 X108.56 Y114.784 E.03815
G1 X108.369 Y113.761 E.03522
G1 X108.281 Y112.68 E.0367
G1 X108.286 Y111.311 E.04629
G1 X108.414 Y109.593 E.05828
G1 X108.623 Y108.27 E.04532
G1 X108.939 Y107.022 E.04354
G1 X109.899 Y104.565 E.08924
G1 X113.617 Y97.46 E.27125
G1 X114.711 Y95.629 E.07217
G1 X115.869 Y93.908 E.07017
G1 X118.567 Y90.342 E.15126
G1 X118.861 Y90.564 F10800
G1 F1200
G1 X119.872 Y89.409 E.05192
G1 X121.298 Y88.073 E.06611
G1 X122.388 Y87.356 E.04412
G1 X123.289 Y86.958 E.03332
G1 X124.172 Y86.722 E.03092
G1 X125.346 Y86.656 E.03977
G1 X126.276 Y86.827 E.03198
G1 X127.662 Y87.389 E.05058
G1 X128.495 Y87.924 E.03351
G1 X129.442 Y88.726 E.04199
G1 X131.471 Y90.981 E.10258
G1 X134.126 Y94.561 E.15081
M73 Q4 S5
G1 X135.268 Y96.309 E.07061
G1 X136.294 Y98.074 E.06907
M73 P4 R5
G1 X139.294 Y103.763 E.21757
G1 X140.482 Y106.477 E.10019
G1 X140.903 Y107.882 E.04962
G1 X141.151 Y109.184 E.04483
G1 X141.35 Y111.897 E.09202
G1 X141.304 Y113.255 E.04596
G1 X140.971 Y115.068 E.06238
G1 X140.61 Y116.028 E.03468
G1 X140.098 Y116.97 E.03627
G1 X139.297 Y118.045 E.04535
G1 X137.811 Y119.489 E.0701
G1 X136.669 Y120.354 E.04846
G1 X135.453 Y121.119 E.04858
G1 X134.171 Y121.772 E.04868
G1 X132.854 Y122.293 E.04791
G1 X131.518 Y122.682 E.04706
G1 X128.641 Y123.171 E.09873
G1 X125.05 Y123.369 E.12166
G1 X123.132 Y123.317 E.06488
G1 X121.185 Y123.153 E.0661
G1 X118.318 Y122.644 E.0985
G1 X117.061 Y122.268 E.04438
G1 X115.758 Y121.745 E.04749
G1 X114.512 Y121.105 E.0474
G1 X113.304 Y120.342 E.04831
G1 X112.121 Y119.441 E.0503
G1 X111.069 Y118.461 E.04866
G1 X110.325 Y117.592 E.03869
G1 X109.721 Y116.69 E.03674
G1 X109.254 Y115.737 E.03589
G1 X108.921 Y114.712 E.03647
G1 X108.736 Y113.727 E.03388
G1 X108.65 Y112.679 E.03557
G1 X108.654 Y111.337 E.04542
M73 Q5 S5
G1 X108.778 Y109.648 E.05729
G1 X108.981 Y108.357 E.04418
G1 X109.288 Y107.142 E.0424
G1 X110.229 Y104.728 E.08766
M73 P5 R5
G1 X113.94 Y97.636 E.27075
G1 X115.017 Y95.834 E.07101
G1 X116.167 Y94.126 E.06965
G1 X118.824 Y90.612 E.14905
; printing object batmanPick.STL id:0 copy 0
;WIPE_START
G1 F8640
G1 X119.872 Y89.409 E-.36824
G1 X121.11 Y88.249 E-.39176
;WIPE_END
G1 E-.04 F2100
G1 Z.64 F10800
G1 X124.991 Y89.785
G1 Z.24
G1 E.8 F2100
;TYPE:Perimeter
G1 F1200
G1 X125.379 Y89.844 E.01327
G1 X125.792 Y89.975 E.01467
G1 X126.223 Y90.188 E.01625
G1 X126.698 Y90.509 E.01941
G1 X127.215 Y90.95 E.02297
G1 X127.983 Y91.737 E.03722
G1 X128.985 Y92.911 E.05221
G1 X130.269 Y94.587 E.07142
G1 X131.561 Y96.384 E.07487
G1 X132.558 Y97.908 E.06161
G1 X133.526 Y99.572 E.06511
G1 X135.372 Y103.025 E.13244
G1 X136.491 Y105.194 E.08257
G1 X137.132 Y106.558 E.05099
G1 X137.541 Y107.599 E.03781
G1 X137.823 Y108.531 E.03295
G1 X138.026 Y109.553 E.03524
G1 X138.153 Y110.742 E.04046
G1 X138.204 Y111.998 E.0425
G1 X138.177 Y112.897 E.03043
G1 X138.083 Y113.641 E.02538
G1 X137.93 Y114.257 E.02148
G1 X137.709 Y114.808 E.02008
G1 X137.39 Y115.366 E.02173
G1 X136.968 Y115.929 E.02378
G1 X136.424 Y116.512 E.027
G1 X135.745 Y117.115 E.03069
G1 X134.811 Y117.813 E.03945
G1 X133.823 Y118.427 E.03935
G1 X132.795 Y118.941 E.03889
M73 Q6 S5
G1 X131.752 Y119.345 E.03782
G1 X130.689 Y119.646 E.03739
G1 X129.55 Y119.875 E.0393
G1 X128.246 Y120.049 E.04451
G1 X126.404 Y120.19 E.06247
M73 P6 R5
G1 X124.997 Y120.222 E.04763
G1 X123.246 Y120.172 E.05925
G1 X121.478 Y120.019 E.06001
G1 X120.159 Y119.826 E.0451
G1 X119.023 Y119.577 E.03937
G1 X118.016 Y119.269 E.0356
G1 X116.985 Y118.846 E.03771
G1 X115.999 Y118.332 E.03761
G1 X115.031 Y117.711 E.03891
G1 X114.072 Y116.971 E.04098
G1 X113.405 Y116.352 E.03078
G1 X112.883 Y115.759 E.02671
G1 X112.49 Y115.193 E.02332
G1 X112.208 Y114.652 E.02064
G1 X111.995 Y114.038 E.02199
G1 X111.866 Y113.397 E.02211
G1 X111.797 Y112.641 E.0257
G1 X111.795 Y111.526 E.03771
G1 X111.895 Y110.082 E.04896
G1 X112.046 Y109.07 E.03461
G1 X112.275 Y108.132 E.03267
G1 X112.612 Y107.153 E.03501
G1 X113.061 Y106.1 E.03872
G1 X113.89 Y104.421 E.06335
G1 X115.638 Y101.101 E.12691
G1 X116.697 Y99.154 E.07499
G1 X117.642 Y97.571 E.06236
G1 X118.713 Y95.975 E.06503
G1 X120.279 Y93.841 E.08954
G1 X121.263 Y92.594 E.05373
G1 X122.13 Y91.603 E.04454
G1 X122.764 Y90.959 E.03056
G1 X123.305 Y90.498 E.02407
G1 X123.793 Y90.172 E.01984
G1 X124.247 Y89.956 E.01701
G1 X124.666 Y89.831 E.0148
G1 X124.931 Y89.794 E.00905
G1 X124.992 Y89.413 F10800
;TYPE:External perimeter
G1 F1200
G1 X125.463 Y89.484 E.01608
G1 X125.93 Y89.633 E.0166
G1 X126.408 Y89.868 E.01803
G1 X126.922 Y90.215 E.02096
G1 X127.467 Y90.68 E.02424
G1 X128.256 Y91.489 E.0382
G1 X129.272 Y92.679 E.05295
G1 X130.565 Y94.367 E.07194
G1 X131.865 Y96.176 E.07534
G1 X132.872 Y97.715 E.06221
G1 X133.848 Y99.393 E.06567
G1 X135.698 Y102.854 E.13275
G1 X136.822 Y105.031 E.08289
M73 Q7 S5
G1 X137.471 Y106.412 E.05162
M73 P7 R5
G1 X137.89 Y107.478 E.03872
G1 X138.181 Y108.442 E.03406
G1 X138.39 Y109.498 E.03641
G1 X138.521 Y110.715 E.04143
G1 X138.573 Y111.996 E.04335
G1 X138.545 Y112.926 E.03147
G1 X138.446 Y113.709 E.02671
G1 X138.281 Y114.371 E.02307
G1 X138.041 Y114.969 E.0218
G1 X137.699 Y115.569 E.02337
G1 X137.251 Y116.165 E.02523
G1 X136.681 Y116.776 E.02826
G1 X135.978 Y117.401 E.0318
G1 X135.019 Y118.118 E.04051
G1 X134.003 Y118.749 E.04046
G1 X132.944 Y119.279 E.04006
G1 X131.869 Y119.695 E.03899
G1 X130.776 Y120.005 E.03846
G1 X129.611 Y120.238 E.04019
G1 X128.284 Y120.416 E.04527
G1 X126.423 Y120.558 E.06315
G1 X124.996 Y120.591 E.04829
G1 X123.225 Y120.54 E.05993
G1 X121.436 Y120.386 E.06073
G1 X120.093 Y120.189 E.04591
G1 X118.929 Y119.934 E.04031
G1 X117.892 Y119.617 E.03667
G1 X116.829 Y119.181 E.03886
G1 X115.814 Y118.651 E.03874
G1 X114.819 Y118.013 E.04001
G1 X113.833 Y117.253 E.04209
G1 X113.141 Y116.609 E.03198
G1 X112.593 Y115.987 E.02805
G1 X112.174 Y115.384 E.02483
G1 X111.869 Y114.798 E.02234
G1 X111.639 Y114.135 E.02374
G1 X111.501 Y113.451 E.02362
G1 X111.428 Y112.658 E.02693
G1 X111.427 Y111.513 E.03871
G1 X111.528 Y110.042 E.0499
G1 X111.684 Y108.999 E.03568
G1 X111.922 Y108.028 E.03381
G1 X112.268 Y107.021 E.03603
G1 X112.726 Y105.946 E.03951
G1 X113.561 Y104.253 E.06385
G1 X115.313 Y100.927 E.12716
G1 X116.377 Y98.971 E.07533
G1 X117.33 Y97.374 E.06294
G1 X118.412 Y95.763 E.06562
G1 X119.986 Y93.617 E.09002
G1 X120.979 Y92.358 E.05426
M73 Q8 S5
G1 X121.859 Y91.352 E.04522
G1 X122.513 Y90.689 E.03147
G1 X123.083 Y90.203 E.02534
M73 P8 R5
G1 X123.611 Y89.851 E.02147
G1 X124.114 Y89.611 E.01887
G1 X124.588 Y89.47 E.01671
G1 X124.933 Y89.421 E.0118
G1 X125.184 Y89.764 F10800
;WIPE_START
G1 F8640
G1 X125.463 Y89.484 E-.12311
G1 X125.93 Y89.633 E-.11334
G1 X126.408 Y89.868 E-.12305
G1 X126.922 Y90.215 E-.14306
G1 X127.467 Y90.68 E-.16548
G1 X127.745 Y90.965 E-.09196
;WIPE_END
G1 E-.04 F2100
G1 Z.64 F10800
G1 X129.053 Y93.181
G1 Z.24
G1 E.8 F2100
;TYPE:Solid infill
;WIDTH:0.423702
G1 F1200
G1 X127.008 Y91.137 E.09881
G1 X126.531 Y90.729 E.02145
G1 X126.084 Y90.427 E.01842
G1 X125.688 Y90.232 E.01507
G1 X125.526 Y90.181 E.00583
G1 X129.885 Y94.54 E.21064
G1 X131.266 Y96.447 E.08045
G1 X124.896 Y90.078 E.30777
G1 X124.725 Y90.102 E.0059
G1 X124.47 Y90.178 E.0091
G1 X132.279 Y97.987 E.37733
G1 X133.022 Y99.256 E.05026
G1 X124.099 Y90.333 E.43118
G1 X123.93 Y90.413 E.00639
G1 X123.764 Y90.524 E.00682
G1 X133.672 Y100.433 E.47877
G1 X134.277 Y101.563 E.04381
M73 P9 R5
M73 Q9 S5
G1 X123.45 Y90.737 E.52312
G1 X123.166 Y90.979 E.01276
G1 X134.881 Y102.694 E.56606
G1 X135.46 Y103.8 E.04265
G1 X122.888 Y91.227 E.6075
G1 X122.626 Y91.492 E.01272
G1 X136.022 Y104.888 E.64728
G1 X136.526 Y105.919 E.03919
M73 P10 R5
M73 Q10 S5
G1 X122.365 Y91.757 E.68427
G1 X122.118 Y92.036 E.01274
G1 X136.962 Y106.881 E.71729
G1 X137.296 Y107.74 E.03151
G1 X121.872 Y92.317 E.74526
G1 X121.626 Y92.598 E.01275
M73 P11 R5
M73 Q11 S5
G1 X137.523 Y108.495 E.76813
G1 X137.667 Y109.164 E.02341
G1 X121.386 Y92.884 E.78668
G1 X121.154 Y93.178 E.01281
G1 X137.774 Y109.798 E.80306
G1 X137.837 Y110.387 E.02025
M73 P12 R4
M73 Q12 S4
G1 X120.922 Y93.472 E.81733
G1 X120.69 Y93.767 E.01281
G1 X137.885 Y110.962 E.83087
G1 X137.908 Y111.511 E.01876
G1 X120.459 Y94.062 E.84309
G1 X120.237 Y94.366 E.01287
M73 P13 R4
M73 Q13 S4
G1 X137.926 Y112.055 E.85473
G1 X137.91 Y112.566 E.01746
G1 X120.014 Y94.67 E.86475
G1 X119.791 Y94.973 E.01287
M73 P14 R4
M73 Q14 S4
G1 X137.878 Y113.06 E.87394
G1 X137.819 Y113.527 E.01609
G1 X119.568 Y95.277 E.88185
G1 X119.345 Y95.58 E.01287
G1 X137.72 Y113.955 E.88785
G1 X137.666 Y114.172 E.00765
M73 P15 R4
M73 Q15 S4
G1 X137.593 Y114.354 E.0067
G1 X119.123 Y95.884 E.89248
G1 X118.902 Y96.19 E.01288
G1 X137.438 Y114.725 E.89565
G1 X137.246 Y115.06 E.01318
M73 Q16 S4
G1 X118.69 Y96.504 E.89661
G1 X118.479 Y96.819 E.01296
M73 P16 R4
G1 X137.036 Y115.377 E.89668
G1 X136.811 Y115.678 E.01285
G1 X118.268 Y97.134 E.896
G1 X118.056 Y97.449 E.01296
M73 P17 R4
M73 Q17 S4
G1 X136.564 Y115.957 E.89427
G1 X136.31 Y116.229 E.01272
G1 X117.847 Y97.766 E.89211
G1 X117.65 Y98.096 E.01312
G1 X136.039 Y116.484 E.88851
M73 Q18 S4
G1 X135.76 Y116.732 E.01274
M73 P18 R4
G1 X117.454 Y98.426 E.88455
G1 X117.257 Y98.755 E.01312
G1 X135.474 Y116.973 E.88024
G1 X135.173 Y117.198 E.01285
M73 P19 R4
M73 Q19 S4
G1 X117.06 Y99.085 E.87519
G1 X116.868 Y99.419 E.01317
G1 X134.872 Y117.423 E.86994
G1 X134.564 Y117.641 E.0129
G1 X116.682 Y99.76 E.86403
G1 X116.497 Y100.101 E.01326
M73 P20 R4
M73 Q20 S4
G1 X134.239 Y117.843 E.8573
G1 X133.914 Y118.045 E.01306
G1 X116.311 Y100.442 E.85057
G1 X116.126 Y100.783 E.01326
M73 Q21 S4
G1 X133.582 Y118.238 E.84346
G1 X133.231 Y118.414 E.0134
M73 P21 R4
G1 X115.94 Y101.123 E.83548
G1 X115.757 Y101.467 E.0133
G1 X132.88 Y118.59 E.82736
G1 X132.517 Y118.753 E.01361
M73 P22 R4
M73 Q22 S4
G1 X115.576 Y101.812 E.81858
G1 X115.394 Y102.157 E.01331
G1 X132.137 Y118.9 E.80901
G1 X131.758 Y119.046 E.0139
G1 X115.213 Y102.501 E.79945
G1 X115.031 Y102.846 E.01331
M73 P23 R4
M73 Q23 S4
G1 X131.355 Y119.17 E.78877
G1 X130.945 Y119.286 E.01456
G1 X114.85 Y103.191 E.77773
G1 X114.668 Y103.536 E.01331
G1 X130.529 Y119.397 E.76639
G1 X130.09 Y119.484 E.01528
M73 P24 R4
M73 Q24 S4
G1 X114.486 Y103.88 E.75397
G1 X114.305 Y104.225 E.01331
G1 X129.652 Y119.572 E.74156
G1 X129.196 Y119.643 E.01575
G1 X114.124 Y104.571 E.72829
G1 X113.95 Y104.923 E.01343
M73 P25 R4
M73 Q25 S4
G1 X128.732 Y119.705 E.71426
G1 X128.268 Y119.767 E.016
G1 X113.776 Y105.276 E.70022
G1 X113.602 Y105.628 E.01343
G1 X127.781 Y119.807 E.68512
G1 X127.292 Y119.845 E.01676
M73 P26 R4
M73 Q26 S4
G1 X113.428 Y105.981 E.66989
G1 X113.26 Y106.339 E.01352
G1 X126.803 Y119.882 E.6544
G1 X126.31 Y119.915 E.01688
G1 X113.103 Y106.708 E.63819
G1 X112.945 Y107.077 E.0137
M73 Q27 S4
G1 X125.796 Y119.927 E.62095
G1 X125.282 Y119.939 E.01758
M73 P27 R4
G1 X112.8 Y107.457 E.60313
G1 X112.665 Y107.849 E.01415
G1 X124.755 Y119.939 E.58418
G1 X124.213 Y119.923 E.01853
G1 X112.533 Y108.243 E.56438
G1 X112.429 Y108.666 E.01488
M73 P28 R4
M73 Q28 S4
G1 X123.671 Y119.908 E.54318
G1 X123.12 Y119.884 E.01882
G1 X112.326 Y109.089 E.52158
G1 X112.255 Y109.544 E.01574
G1 X122.544 Y119.834 E.49719
G1 X121.968 Y119.784 E.01975
G1 X112.186 Y110.002 E.47266
G1 X112.144 Y110.486 E.01661
G1 X121.384 Y119.726 E.44646
M73 Q29 S4
G1 X120.767 Y119.636 E.0213
M73 P29 R4
G1 X112.11 Y110.979 E.4183
G1 X112.076 Y111.471 E.01686
G1 X120.145 Y119.54 E.38987
G1 X119.471 Y119.392 E.02358
G1 X112.072 Y111.994 E.35749
G1 X112.073 Y112.521 E.018
G1 X118.76 Y119.208 E.32311
M73 P29 R3
G1 X117.982 Y118.956 E.02791
M73 Q29 S3
G1 X112.115 Y113.09 E.28348
G1 X112.14 Y113.357 E.00918
M73 Q30 S3
G1 X112.212 Y113.712 E.01238
G1 X117.088 Y118.589 E.23563
G1 X116.138 Y118.092 E.03662
M73 P30 R3
G1 X115.936 Y117.963 E.00821
G1 X112.435 Y114.462 E.16917
G1 X112.727 Y115.05 E.02244
G1 X113.101 Y115.589 E.02241
G1 X113.586 Y116.14 E.02508
G1 X114.975 Y117.529 E.06712
; stop printing object batmanPick.STL id:0 copy 0
M106 S84.15
;LAYER_CHANGE
;Z:0.44
;HEIGHT:0.2
;BEFORE_LAYER_CHANGE
G92 E0.0
;0.44


;WIPE_START
G1 F8640
G1 X113.586 Y116.14 E-.45362
G1 X113.101 Y115.589 E-.16951
G1 X112.763 Y115.102 E-.13687
;WIPE_END
G1 E-.04 F2100
G1 Z.64 F10800
;AFTER_LAYER_CHANGE
;0.44
G1 X109.619 Y117.197
G1 Z.44
G1 E.8 F2100
;TYPE:Skirt/Brim
;WIDTH:0.42
G1 F3000
G1 X109.394 Y116.86 E.01169
G1 X108.906 Y115.858 E.03215
G1 X108.56 Y114.784 E.03253
G1 X108.369 Y113.761 E.03003
G1 X108.281 Y112.68 E.03129
G1 X108.286 Y111.311 E.03947
G1 X108.414 Y109.593 E.0497
G1 X108.623 Y108.27 E.03865
G1 X108.939 Y107.022 E.03713
G1 X109.899 Y104.565 E.0761
G1 X113.617 Y97.46 E.23131
G1 X114.711 Y95.629 E.06154
G1 X115.869 Y93.908 E.05984
G1 X118.604 Y90.294 E.13072
G1 X119.61 Y89.151 E.04394
G1 X121.059 Y87.793 E.05729
G1 X122.229 Y87.024 E.04039
G1 X123.184 Y86.605 E.03006
G1 X124.121 Y86.357 E.02797
G1 X125.401 Y86.292 E.03696
G1 X126.388 Y86.476 E.02897
G1 X127.825 Y87.058 E.04471
G1 X128.701 Y87.619 E.03002
G1 X129.706 Y88.469 E.03797
G1 X131.763 Y90.757 E.08875
G1 X134.426 Y94.346 E.12893
G1 X135.587 Y96.123 E.06123
G1 X136.618 Y97.9 E.05927
G1 X139.622 Y103.594 E.18569
G1 X140.825 Y106.342 E.08652
G1 X141.264 Y107.81 E.04421
G1 X141.517 Y109.144 E.03918
G1 X141.718 Y111.882 E.07917
G1 X141.669 Y113.301 E.04096
G1 X141.328 Y115.157 E.05444
G1 X140.952 Y116.165 E.03103
G1 X140.418 Y117.153 E.0324
G1 X139.756 Y118.071 E.03263
G1 X138.786 Y119.116 E.04115
G1 X136.889 Y120.649 E.07034
G1 X135.648 Y121.432 E.04234
