; generated by PrusaSlicer 2.4.1+win64 on 2022-09-30 at 21:25:33 UTC

; 

; external perimeters extrusion width = 0.45mm
; perimeters extrusion width = 0.45mm
; infill extrusion width = 0.45mm
; solid infill extrusion width = 0.45mm
; top infill extrusion width = 0.40mm
; support material extrusion width = 0.35mm
; first layer extrusion width = 0.42mm

M73 P0 R122
M73 Q0 S123
M107
;TYPE:Custom
M862.3 P "MK3S" ; printer model check
M862.1 P0.4 ; nozzle diameter check
M115 U3.10.0 ; tell printer latest fw version
G90 ; use absolute coordinates
M83 ; extruder relative mode
M104 S215 ; set extruder temp
M140 S60 ; set bed temp
M190 S60 ; wait for bed temp
M109 S215 ; wait for extruder temp
G28 W ; home all without mesh bed level
G80 ; mesh bed leveling
G1 Y-3.0 F1000.0 ; go outside print area
G92 E0.0
G1 X60.0 E9.0 F1000.0 ; intro line
G1 X100.0 E12.5 F1000.0 ; intro line
G92 E0.0
M221 S95

; Don't change E values below. Excessive value can damage the printer.

G21 ; set units to millimeters
G90 ; use absolute coordinates
M83 ; use relative distances for extrusion
M900 K0.05 ; Filament gcode LA 1.5
M900 K30 ; Filament gcode LA 1.0
M107
;LAYER_CHANGE
;Z:0.24
;HEIGHT:0.24
;BEFORE_LAYER_CHANGE
G92 E0.0
;0.24


G1 E-.8 F2100
G1 Z.4 F10800
;AFTER_LAYER_CHANGE
;0.24
G1 X50.249 Y68.329
G1 Z.24
G1 E.8 F2100
M204 S1000
;TYPE:Skirt/Brim
;WIDTH:0.42
G1 F1200
G1 X55.17 Y64.777 E.2053
G1 X60.081 Y61.821 E.19388
G1 X65.014 Y59.418 E.18562
G1 X67.658 Y58.352 E.09645
G1 X68.355 Y58.189 E.02419
G1 X124.815 Y53.768 E1.91574
G1 X181.645 Y58.189 E1.92821
G1 X182.341 Y58.352 E.02419
G1 X184.834 Y59.351 E.09082
G1 X189.919 Y61.821 E.19126
G1 X194.83 Y64.777 E.19388
G1 X199.602 Y68.212 E.19888
G1 X205.024 Y72.817 E.24064
G1 X208.392 Y76.167 E.16072
G1 X211.562 Y79.985 E.16784
G1 X214.166 Y83.944 E.16029
G1 X216.22 Y87.924 E.1515
G1 X218.075 Y92.796 E.17638
G1 X219.161 Y97.098 E.15008
G1 X219.715 Y101.161 E.13872
G1 X219.737 Y105.491 E.14648
G1 X219.208 Y109.263 E.12884
G1 X218.223 Y112.889 E.1271
G1 X216.236 Y117.801 E.17924
G1 X213.732 Y122.552 E.18168
G1 X211.147 Y126.647 E.16379
G1 X207.806 Y130.871 E.18217
G1 X204.432 Y134.244 E.16139
G1 X200.436 Y137.57 E.17587
G1 X195.377 Y141.112 E.20892
G1 X188.978 Y144.857 E.2508
G1 X181.168 Y148.729 E.29486
G1 X173.369 Y152.142 E.28798
G1 X168.328 Y153.988 E.18161
G1 X163.576 Y155.329 E.16701
G1 X158.304 Y156.239 E.18097
G1 X91.696 Y156.239 E2.25317
G1 X86.424 Y155.329 E.18098
G1 X81.672 Y153.988 E.16701
G1 X76.631 Y152.142 E.18161
G1 X68.73 Y148.681 E.29178
G1 X60.877 Y144.779 E.29664
G1 X54.623 Y141.112 E.24522
G1 X49.564 Y137.57 E.20892
G1 X45.568 Y134.244 E.17587
G1 X42.194 Y130.871 E.16139
G1 X38.996 Y126.848 E.17384
G1 X36.268 Y122.552 E.17212
G1 X33.764 Y117.801 E.18168
G1 X31.868 Y113.158 E.16965
G1 X30.792 Y109.263 E.13669
G1 X30.263 Y105.491 E.12884
G1 X30.264 Y101.458 E.13644
G1 X30.789 Y97.359 E.13979
G1 X31.847 Y93.049 E.15013
G1 X33.496 Y88.569 E.16149
G1 X35.834 Y83.944 E.17531
G1 X38.438 Y79.985 E.16029
G1 X41.608 Y76.167 E.16784
G1 X45.113 Y72.691 E.167
G1 X50.203 Y68.368 E.22591
; printing object batrang.STL id:0 copy 0
;WIPE_START
G1 F8640
G1 X52.87 Y66.439 E-.76
;WIPE_END
G1 E-.04 F2100
G1 Z.64 F10800
G1 X124.258 Y87.222
G1 Z.24
G1 E.8 F2100
;TYPE:Perimeter
G1 F1200
G1 X125.742 Y87.222 E.0502
G1 X131.747 Y142.217 E1.8714
G1 X118.253 Y142.217 E.45648
G1 X124.251 Y87.281 E1.86937
G1 X124.588 Y87.59 F10800
;TYPE:External perimeter
G1 F1200
G1 X125.412 Y87.59 E.02785
G1 X131.336 Y141.849 E1.84632
G1 X118.664 Y141.849 E.42868
G1 X124.582 Y87.65 E1.84429
G1 X124.572 Y87.19 F10800
;WIPE_START
G1 F8640
G1 X125.412 Y87.59 E-.19208
G1 X125.679 Y90.035 E-.56792
;WIPE_END
G1 E-.04 F2100
G1 Z.64 F10800
G1 X122.25 Y72.135
G1 Z.24
G1 E.8 F2100
;TYPE:Perimeter
G1 F1200
G1 X123.396 Y72.61 E.04197
G1 X119.985 Y103.847 E1.06294
G1 X80.446 Y95.959 E1.36385
G1 X96.625 Y77.275 E.83606
G1 X99.805 Y79.96 E.14078
G1 X101.663 Y81.1 E.07372
G1 X103.445 Y81.853 E.06545
G1 X104.982 Y82.235 E.05358
G1 X106.473 Y82.368 E.05066
G1 X108.009 Y82.26 E.05207
G1 X109.85 Y81.83 E.06396
G1 X112.209 Y80.868 E.08617
G1 X115.163 Y79.138 E.1158
G1 X117.81 Y77.068 E.11366
G1 X120.342 Y74.508 E.12182
G1 X122.212 Y72.182 E.10096
G1 X122.364 Y72.581 F10800
;TYPE:External perimeter
G1 F1200
G1 X123 Y72.844 E.02328
G1 X119.662 Y103.407 E1.03998
G1 X81.139 Y95.721 E1.32882
G1 X96.666 Y77.791 E.80233
M73 P0 R121
M73 Q0 S122
G1 X99.589 Y80.259 E.12941
G1 X101.494 Y81.428 E.0756
G1 X103.328 Y82.204 E.06736
G1 X104.921 Y82.6 E.05552
G1 X106.47 Y82.737 E.05262
G1 X108.064 Y82.625 E.05406
G1 X109.962 Y82.183 E.06594
G1 X112.372 Y81.199 E.08805
G1 X115.37 Y79.443 E.11752
G1 X118.055 Y77.344 E.11529
G1 X120.618 Y74.754 E.12326
G1 X122.326 Y72.628 E.09226
G1 X122.558 Y72.231 F10800
;WIPE_START
G1 F8640
G1 X123 Y72.844 E-.16335
G1 X122.719 Y75.413 E-.59665
;WIPE_END
G1 E-.04 F2100
G1 Z.64 F10800
G1 X126.604 Y72.61
G1 Z.24
G1 E.8 F2100
;TYPE:Perimeter
G1 F1200
G1 X127.73 Y72.128 E.04144
G1 X130.678 Y75.617 E.15451
G1 X133.303 Y78.006 E.12008
G1 X136.158 Y79.978 E.11738
G1 X138.17 Y81.05 E.07712
G1 X140.147 Y81.83 E.07189
G1 X141.792 Y82.229 E.05725
G1 X143.32 Y82.367 E.05191
G1 X144.819 Y82.267 E.05083
G1 X146.289 Y81.938 E.05094
G1 X147.345 Y81.561 E.03793
G1 X149.293 Y80.558 E.07412
G1 X151.621 Y78.844 E.09779
G1 X153.357 Y77.245 E.07986
G1 X169.392 Y96.211 E.84014
G1 X130.016 Y103.854 E1.35686
G1 X126.611 Y72.67 E1.06112
G1 X127 Y72.842 F10800
;TYPE:External perimeter
G1 F1200
G1 X127.625 Y72.574 E.02299
G1 X130.412 Y75.873 E.1461
G1 X133.073 Y78.295 E.12174
G1 X135.966 Y80.293 E.11893
G1 X138.015 Y81.386 E.07855
G1 X140.036 Y82.182 E.07346
G1 X141.732 Y82.594 E.05903
G1 X143.316 Y82.737 E.05381
G1 X144.872 Y82.632 E.05276
G1 X146.391 Y82.293 E.05266
G1 X147.492 Y81.9 E.03953
G1 X149.488 Y80.872 E.07594
G1 X151.856 Y79.129 E.09946
G1 X153.324 Y77.776 E.06754
G1 X168.705 Y95.969 E.80587
G1 X130.339 Y103.416 E1.32206
G1 X127.007 Y72.901 E1.03835
G1 X126.766 Y72.517 F10800
;WIPE_START
G1 F8640
G1 X127.625 Y72.574 E-.16149
G1 X129.297 Y74.554 E-.59851
;WIPE_END
G1 E-.04 F2100
G1 Z.64 F10800
G1 X171.2 Y98.349
G1 Z.24
G1 E.8 F2100
;TYPE:Perimeter
G1 F1200
G1 X187.155 Y117.221 E.83597
G1 X171.413 Y140.378 E.94719
G1 X170.179 Y139.886 E.04495
M73 P1 R121
M73 Q1 S122
G1 X171.039 Y134.604 E.181
G1 X171.257 Y130.457 E.14049
G1 X171.017 Y126.572 E.13167
G1 X170.267 Y122.63 E.13575
G1 X169.146 Y119.253 E.12034
G1 X167.698 Y116.27 E.11218
G1 X165.878 Y113.58 E.10985
G1 X164.077 Y111.639 E.08956
G1 X162.101 Y110.091 E.08491
G1 X159.791 Y108.815 E.08928
G1 X157.335 Y107.934 E.08825
G1 X154.297 Y107.361 E.10458
G1 X151.166 Y107.303 E.10596
G1 X148.886 Y107.625 E.07788
G1 X147.048 Y108.174 E.06489
G1 X145.403 Y108.964 E.06172
G1 X143.869 Y110.03 E.06319
G1 X142.131 Y111.71 E.08177
G1 X140.114 Y114.275 E.1104
G1 X138.231 Y117.112 E.11519
G1 X136.93 Y119.811 E.10136
G1 X136.039 Y122.771 E.10455
G1 X135.369 Y126.731 E.13585
G1 X134.634 Y132.667 E.20234
G1 X133.161 Y132.656 E.04984
G1 X130.282 Y106.291 E.89718
G1 X171.141 Y98.36 E1.40794
G1 X171.058 Y98.751 F10800
;TYPE:External perimeter
G1 F1200
G1 X186.693 Y117.245 E.8192
G1 X171.275 Y139.926 E.92771
G1 X170.59 Y139.653 E.02493
G1 X171.406 Y134.644 E.17167
G1 X171.626 Y130.455 E.14188
G1 X171.383 Y126.526 E.13317
G1 X170.624 Y122.537 E.13737
G1 X169.488 Y119.114 E.12199
G1 X168.018 Y116.085 E.11389
G1 X166.167 Y113.35 E.1117
G1 X164.328 Y111.367 E.0915
G1 X162.305 Y109.783 E.0869
G1 X159.943 Y108.478 E.09128
G1 X157.432 Y107.578 E.09024
G1 X154.335 Y106.993 E.10661
G1 X151.143 Y106.934 E.108
G1 X148.807 Y107.264 E.07981
G1 X146.915 Y107.829 E.06681
G1 X145.217 Y108.645 E.0637
G1 X143.634 Y109.744 E.06519
G1 X141.857 Y111.462 E.08362
G1 X139.815 Y114.059 E.11174
G1 X137.91 Y116.929 E.11655
G1 X136.585 Y119.678 E.10319
G1 X135.68 Y122.687 E.10631
G1 X135.004 Y126.677 E.1369
G1 X134.309 Y132.296 E.19152
G1 X133.492 Y132.29 E.02765
G1 X130.685 Y106.588 E.87461
G1 X170.999 Y98.763 E1.38916
G1 X171.361 Y98.49 F10800
;WIPE_START
G1 F8640
G1 X173.129 Y101.272 E-.76
;WIPE_END
G1 E-.04 F2100
G1 Z.64 F10800
G1 X191.05 Y70.148
G1 Z.24
G1 E.8 F2100
;TYPE:Perimeter
G1 F1200
G1 X196.285 Y73.988 E.21962
G1 X200.952 Y78.023 E.2087
G1 X204.282 Y81.449 E.16161
G1 X206.91 Y84.798 E.14401
G1 X209.119 Y88.362 E.14184
G1 X208.152 Y89.29 E.04533
G1 X206.778 Y88.356 E.05619
G1 X188.581 Y115.123 E1.09488
G1 X163.265 Y85.18 E1.3264
G1 X164.104 Y84.118 E.04575
G1 X167.867 Y86.02 E.14266
G1 X168.823 Y86.392 E.03468
G1 X171.771 Y87.228 E.10365
G1 X174.691 Y87.596 E.09955
G1 X177.84 Y87.483 E.1066
G1 X180.547 Y86.945 E.09335
G1 X182.852 Y86.101 E.08303
G1 X184.723 Y85.069 E.0723
G1 X186.235 Y83.896 E.06472
G1 X186.866 Y83.274 E.02997
G1 X188.091 Y81.726 E.06678
G1 X188.979 Y80.128 E.06183
G1 X189.678 Y78.277 E.06696
G1 X190.155 Y76.134 E.07426
G1 X190.353 Y73.613 E.08554
G1 X190.182 Y70.619 E.10142
G1 X190.997 Y70.177 E.03137
G1 X191.02 Y70.584 F10800
;TYPE:External perimeter
G1 F1200
G1 X196.055 Y74.276 E.21122
G1 X200.699 Y78.292 E.20766
G1 X204.004 Y81.692 E.16041
G1 X206.608 Y85.01 E.14266
G1 X208.649 Y88.303 E.13106
G1 X208.112 Y88.817 E.02514
G1 X206.68 Y87.844 E.05856
G1 X188.549 Y114.515 E1.09093
G1 X163.741 Y85.172 E1.2998
G1 X164.206 Y84.583 E.02538
G1 X167.717 Y86.357 E.13308
G1 X168.706 Y86.742 E.03588
G1 X171.697 Y87.59 E.10519
G1 X174.674 Y87.965 E.1015
G1 X177.883 Y87.85 E.10861
G1 X180.647 Y87.3 E.09531
G1 X183.005 Y86.438 E.08496
G1 X184.926 Y85.377 E.07423
G1 X186.478 Y84.174 E.06642
G1 X187.141 Y83.521 E.03148
G1 X188.398 Y81.931 E.06856
G1 X189.314 Y80.284 E.06375
G1 X190.032 Y78.382 E.06876
G1 X190.52 Y76.188 E.07603
G1 X190.722 Y73.617 E.08726
G1 X190.564 Y70.832 E.09436
G1 X190.968 Y70.612 E.01556
G1 X191.196 Y70.224 F10800
;WIPE_START
G1 F8640
G1 X193.639 Y72.536 E-.76
;WIPE_END
G1 E-.04 F2100
G1 Z.64 F10800
G1 X208.883 Y89.604
G1 Z.24
G1 E.8 F2100
;TYPE:Perimeter
G1 F1200
G1 X209.814 Y89.706 E.03166
G1 X211.634 Y94.272 E.16628
G1 X212.743 Y98.588 E.15074
G1 X213.19 Y102.283 E.12589
G1 X213.123 Y105.605 E.11242
G1 X212.498 Y109.044 E.11821
G1 X211.337 Y112.56 E.12525
G1 X209.354 Y116.847 E.15977
G1 X206.883 Y121.155 E.16801
G1 X204.389 Y124.713 E.14699
G1 X201.288 Y128.156 E.15675
G1 X197.852 Y131.217 E.15564
G1 X193.64 Y134.361 E.17781
G1 X188.626 Y137.514 E.20035
G1 X182.861 Y140.601 E.2212
G1 X174.031 Y144.722 E.32964
G1 X172.369 Y145.435 E.06116
G1 X171.58 Y144.478 E.04196
G1 X208.849 Y89.654 E2.24247
G1 X209.063 Y89.995 F10800
;TYPE:External perimeter
M73 P1 R120
M73 Q1 S121
G1 F1200
G1 X209.553 Y90.048 E.01668
G1 X211.283 Y94.387 E.15799
G1 X212.38 Y98.656 E.14912
G1 X212.821 Y102.301 E.12419
G1 X212.755 Y105.569 E.11055
G1 X212.14 Y108.953 E.11635
G1 X210.994 Y112.424 E.12367
G1 X209.027 Y116.677 E.15851
G1 X206.572 Y120.957 E.1669
G1 X204.1 Y124.483 E.14566
G1 X201.027 Y127.894 E.15531
G1 X197.619 Y130.932 E.15442
G1 X193.431 Y134.057 E.17677
G1 X188.44 Y137.195 E.19942
G1 X182.696 Y140.272 E.22042
G1 X173.88 Y144.386 E.3291
G1 X172.478 Y144.987 E.05162
G1 X172.04 Y144.456 E.02328
G1 X209.03 Y90.044 E2.22563
G1 X209.169 Y89.609 F10800
;WIPE_START
G1 F8640
G1 X209.553 Y90.048 E-.12095
G1 X210.578 Y92.619 E-.63905
;WIPE_END
G1 E-.04 F2100
G1 Z.64 F10800
G1 X119.719 Y106.285
G1 Z.24
G1 E.8 F2100
;TYPE:Perimeter
G1 F1200
G1 X116.839 Y132.656 E.89738
G1 X115.366 Y132.667 E.04984
G1 X114.725 Y127.499 E.17617
G1 X114.209 Y123.964 E.12083
G1 X113.441 Y120.864 E.10803
G1 X112.324 Y118.13 E.09992
G1 X110.829 Y115.62 E.09881
G1 X108.939 Y113.002 E.10924
G1 X107.168 Y110.969 E.09118
G1 X105.718 Y109.705 E.0651
G1 X104.203 Y108.743 E.06071
G1 X102.477 Y108.003 E.06353
G1 X100.317 Y107.472 E.07525
G1 X97.621 Y107.261 E.09145
G1 X94.6 Y107.51 E.10255
G1 X91.615 Y108.26 E.10412
G1 X89.273 Y109.273 E.08631
G1 X86.943 Y110.777 E.09381
G1 X85.007 Y112.552 E.08885
G1 X83.321 Y114.655 E.09117
G1 X81.793 Y117.207 E.10064
G1 X80.49 Y120.201 E.11044
G1 X79.49 Y123.627 E.12075
G1 X79.057 Y126.003 E.08169
G1 X78.75 Y129.91 E.13256
G1 X78.897 Y133.951 E.1368
G1 X79.501 Y138.234 E.14631
G1 X79.831 Y139.841 E.05548
G1 X78.581 Y140.369 E.04591
G1 X62.488 Y116.696 E.96831
G1 X78.606 Y98.083 E.8329
G1 X119.66 Y106.273 E1.41609
G1 X119.316 Y106.58 F10800
;TYPE:External perimeter
G1 F1200
G1 X116.508 Y132.29 E.87487
G1 X115.691 Y132.296 E.02764
G1 X115.091 Y127.449 E.16521
G1 X114.571 Y123.893 E.12158
G1 X113.792 Y120.75 E.10954
G1 X112.655 Y117.965 E.10176
G1 X111.138 Y115.418 E.1003
G1 X109.228 Y112.773 E.11036
G1 X107.43 Y110.708 E.0926
G1 X105.939 Y109.409 E.0669
G1 X104.375 Y108.416 E.06266
G1 X102.594 Y107.652 E.06556
G1 X100.375 Y107.107 E.07729
G1 X97.621 Y106.891 E.09347
G1 X94.54 Y107.145 E.10457
G1 X91.496 Y107.91 E.10616
G1 X89.099 Y108.947 E.08836
G1 X86.717 Y110.485 E.0959
G1 X84.737 Y112.299 E.09086
G1 X83.018 Y114.444 E.09298
G1 X81.464 Y117.038 E.1023
G1 X80.142 Y120.075 E.11203
G1 X79.131 Y123.542 E.12218
G1 X78.691 Y125.956 E.08297
G1 X78.381 Y129.902 E.13391
G1 X78.53 Y133.984 E.13817
G1 X79.137 Y138.297 E.14735
G1 X79.41 Y139.619 E.04565
G1 X78.716 Y139.912 E.02547
G1 X62.952 Y116.723 E.9485
G1 X78.745 Y98.486 E.81607
G1 X119.257 Y106.568 E1.39742
G1 X119.716 Y106.585 F10800
;WIPE_START
G1 F8640
G1 X118.907 Y109.841 E-.76
;WIPE_END
G1 E-.04 F2100
G1 Z.64 F10800
G1 X86.334 Y85.427
G1 Z.24
G1 E.8 F2100
;TYPE:Perimeter
G1 F1200
G1 X61.067 Y114.606 E1.30568
G1 X43.222 Y88.356 E1.07371
G1 X41.85 Y89.288 E.05611
G1 X40.883 Y88.351 E.04557
G1 X43.528 Y84.179 E.1671
G1 X46.397 Y80.695 E.15266
G1 X49.74 Y77.381 E.15924
M73 P2 R120
G1 X53.979 Y73.778 E.18819
M73 Q2 S121
G1 X58.948 Y70.151 E.20809
G1 X59.809 Y70.61 E.03301
G1 X59.668 Y74.316 E.12544
G1 X59.99 Y76.948 E.08972
G1 X60.607 Y79.132 E.07677
G1 X61.444 Y80.958 E.06796
G1 X62.443 Y82.47 E.06128
G1 X63.609 Y83.749 E.05856
G1 X65.064 Y84.926 E.06331
G1 X66.728 Y85.901 E.06522
G1 X68.759 Y86.733 E.07424
G1 X71.172 Y87.337 E.08416
G1 X74.186 Y87.616 E.10237
G1 X77.18 Y87.413 E.10153
G1 X80.102 Y86.75 E.10133
G1 X83.24 Y85.528 E.11391
G1 X85.483 Y84.352 E.08569
G1 X86.297 Y85.38 E.04435
G1 X85.856 Y85.416 F10800
;TYPE:External perimeter
G1 F1200
G1 X61.102 Y114.002 E1.27914
G1 X43.32 Y87.844 E1.06996
G1 X41.891 Y88.815 E.05842
G1 X41.355 Y88.295 E.02528
G1 X43.827 Y84.396 E.15618
G1 X46.669 Y80.944 E.15126
G1 X49.989 Y77.652 E.15813
G1 X54.207 Y74.068 E.18725
G1 X58.978 Y70.585 E.19982
G1 X59.432 Y70.827 E.01738
G1 X59.298 Y74.331 E.11862
G1 X59.628 Y77.021 E.09167
G1 X60.26 Y79.26 E.07869
G1 X61.121 Y81.138 E.06988
G1 X62.151 Y82.697 E.06321
G1 X63.355 Y84.018 E.06048
G1 X64.854 Y85.23 E.06519
G1 X66.564 Y86.232 E.06704
G1 X68.644 Y87.084 E.07602
G1 X71.11 Y87.702 E.08601
G1 X74.181 Y87.986 E.10433
G1 X77.234 Y87.779 E.1035
G1 X80.21 Y87.103 E.10323
G1 X83.392 Y85.864 E.11553
G1 X85.384 Y84.82 E.07606
G1 X85.819 Y85.369 E.0237
G1 X86.222 Y85.578 F10800
;WIPE_START
G1 F8640
G1 X83.668 Y87.861 E-.76
;WIPE_END
G1 E-.04 F2100
G1 Z.64 F10800
G1 X41.117 Y89.604
G1 Z.24
G1 E.8 F2100
;TYPE:Perimeter
G1 F1200
G1 X78.42 Y144.478 E2.2445
G1 X77.611 Y145.437 E.04246
G1 X68.787 Y141.415 E.32803
G1 X62.499 Y138.153 E.23961
G1 X57.256 Y134.965 E.20758
G1 X52.74 Y131.694 E.18863
G1 X49.036 Y128.471 E.16609
G1 X46.14 Y125.368 E.14358
G1 X43.471 Y121.71 E.15318
G1 X40.623 Y116.803 E.19192
G1 X38.536 Y112.235 E.16987
G1 X37.402 Y108.646 E.12731
G1 X36.859 Y105.414 E.11088
G1 X36.833 Y101.897 E.11895
G1 X37.324 Y98.241 E.12478
G1 X38.356 Y94.301 E.13778
G1 X40.186 Y89.706 E.16731
G1 X41.057 Y89.611 E.02964
G1 X40.937 Y89.995 F10800
;TYPE:External perimeter
G1 F1200
G1 X77.958 Y144.454 E2.22755
G1 X77.509 Y144.986 E.02355
G1 X68.948 Y141.084 E.31825
G1 X62.68 Y137.832 E.23887
G1 X57.46 Y134.658 E.20665
G1 X52.969 Y131.405 E.18757
G1 X49.292 Y128.205 E.16489
G1 X46.424 Y125.132 E.14219
G1 X43.78 Y121.508 E.15177
G1 X40.95 Y116.633 E.19066
G1 X38.881 Y112.102 E.1685
G1 X37.761 Y108.56 E.12568
G1 X37.228 Y105.382 E.10902
G1 X37.202 Y101.921 E.11708
G1 X37.686 Y98.313 E.12313
G1 X38.707 Y94.417 E.13625
G1 X40.446 Y90.048 E.15905
G1 X40.877 Y90.001 E.01465
