; generated by PrusaSlicer 2.4.1+win64 on 2022-09-02 at 20:22:08 UTC

; 

; external perimeters extrusion width = 0.45mm
; perimeters extrusion width = 0.45mm
; infill extrusion width = 0.45mm
; solid infill extrusion width = 0.45mm
; top infill extrusion width = 0.40mm
; support material extrusion width = 0.35mm
; first layer extrusion width = 0.42mm

M73 P0 R19
M73 Q0 S19
M107
;TYPE:Custom
M862.3 P "MK3S" ; printer model check
M862.1 P0.4 ; nozzle diameter check
M115 U3.10.0 ; tell printer latest fw version
G90 ; use absolute coordinates
M83 ; extruder relative mode
M104 S215 ; set extruder temp
M140 S60 ; set bed temp
M190 S60 ; wait for bed temp
M109 S215 ; wait for extruder temp
G28 W ; home all without mesh bed level
G80 ; mesh bed leveling
G1 Y-3.0 F1000.0 ; go outside print area
G92 E0.0
G1 X60.0 E9.0 F1000.0 ; intro line
G1 X100.0 E12.5 F1000.0 ; intro line
G92 E0.0
M221 S95

; Don't change E values below. Excessive value can damage the printer.

G21 ; set units to millimeters
G90 ; use absolute coordinates
M83 ; use relative distances for extrusion
M900 K0.05 ; Filament gcode LA 1.5
M900 K30 ; Filament gcode LA 1.0
M107
;LAYER_CHANGE
;Z:0.24
;HEIGHT:0.24
;BEFORE_LAYER_CHANGE
G92 E0.0
;0.24


G1 E-.8 F2100
G1 Z.4 F10800
;AFTER_LAYER_CHANGE
;0.24
G1 X70.67 Y87.099
G1 Z.24
G1 E.8 F2100
M204 S1000
;TYPE:Skirt/Brim
;WIDTH:0.42
G1 F1200
G1 X72.264 Y86.482 E.05782
G1 X180.272 Y86.482 E3.6536
G1 X181.576 Y86.873 E.04607
M73 P1 R18
M73 Q1 S19
G1 X182.449 Y87.919 E.04607
G1 X182.64 Y88.85 E.03217
G1 X182.64 Y123.457 E1.17063
G1 X182.249 Y124.761 E.04607
G1 X181.203 Y125.634 E.04607
G1 X180.272 Y125.825 E.03217
G1 X168.835 Y125.825 E.38688
G1 X168.26 Y125.754 E.01958
G1 X76.247 Y102.682 E3.2089
G1 X68.996 Y100.331 E.25784
G1 X67.877 Y99.556 E.04607
G1 X67.36 Y98.079 E.05293
G1 X67.36 Y91.158 E.23413
G1 X68.134 Y89.406 E.06479
G1 X70.625 Y87.139 E.11393
; printing object lowerTriangleSTL.STL id:0 copy 0
;WIPE_START
G1 F8640
G1 X72.264 Y86.482 E-.40761
G1 X73.79 Y86.482 E-.35239
;WIPE_END
G1 E-.04 F2100
G1 Z.64 F10800
G1 X69.728 Y91.158
G1 Z.24
G1 E.8 F2100
;TYPE:Support material interface
;WIDTH:0.35
G1 F1200
G1 X69.728 Y98.079 E.18965
G1 X70.235 Y98.079 E.01389
G1 X70.235 Y91.158 E.18965
G1 X70.743 Y91.158 E.01389
G1 X70.743 Y98.079 E.18965
G1 X71.25 Y98.079 E.01389
G1 X71.25 Y91.158 E.18965
G1 X71.757 Y91.158 E.01389
M73 P2 R18
M73 Q2 S19
G1 X71.757 Y98.079 E.18965
G1 X72.264 Y98.079 E.01389
G1 X72.264 Y88.85 E.25287
G1 X72.771 Y88.85 E.01389
G1 X72.771 Y98.079 E.25287
G1 X73.278 Y98.079 E.01389
G1 X73.278 Y88.85 E.25287
G1 X73.785 Y88.85 E.01389
G1 X73.785 Y98.079 E.25287
G1 X74.292 Y98.079 E.01389
G1 X74.292 Y88.85 E.25287
G1 X74.799 Y88.85 E.01389
M73 Q2 S18
G1 X74.799 Y98.079 E.25287
G1 X75.306 Y98.079 E.01389
G1 X75.306 Y88.85 E.25287
G1 X75.813 Y88.85 E.01389
G1 X75.813 Y98.079 E.25287
G1 X76.32 Y98.079 E.01389
G1 X76.32 Y88.85 E.25287
G1 X76.827 Y88.85 E.01389
G1 X76.827 Y100.386 E.31609
G1 X77.335 Y100.386 E.01389
G1 X77.335 Y88.85 E.31609
G1 X77.842 Y88.85 E.01389
G1 X77.842 Y100.386 E.31609
G1 X78.349 Y100.386 E.01389
G1 X78.349 Y88.85 E.31609
G1 X78.856 Y88.85 E.01389
G1 X78.856 Y100.386 E.31609
G1 X79.363 Y100.386 E.01389
G1 X79.363 Y88.85 E.31609
G1 X79.87 Y88.85 E.01389
G1 X79.87 Y100.386 E.31609
G1 X80.377 Y100.386 E.01389
G1 X80.377 Y88.85 E.31609
G1 X80.884 Y88.85 E.01389
G1 X80.884 Y100.386 E.31609
G1 X81.391 Y100.386 E.01389
G1 X81.391 Y88.85 E.31609
G1 X81.898 Y88.85 E.01389
G1 X81.898 Y100.386 E.31609
G1 X82.405 Y100.386 E.01389
M73 P3 R18
M73 Q3 S18
G1 X82.405 Y88.85 E.31609
G1 X82.912 Y88.85 E.01389
G1 X82.912 Y100.386 E.31609
G1 X83.42 Y100.386 E.01389
G1 X83.42 Y88.85 E.31609
G1 X83.927 Y88.85 E.01389
G1 X83.927 Y100.386 E.31609
G1 X84.434 Y100.386 E.01389
G1 X84.434 Y88.85 E.31609
G1 X84.941 Y88.85 E.01389
G1 X84.941 Y100.386 E.31609
G1 X85.448 Y100.386 E.01389
G1 X85.448 Y88.85 E.31609
G1 X85.955 Y88.85 E.01389
G1 X85.955 Y102.693 E.3793
G1 X86.462 Y102.693 E.01389
G1 X86.462 Y88.85 E.3793
G1 X86.969 Y88.85 E.01389
G1 X86.969 Y102.693 E.3793
G1 X87.476 Y102.693 E.01389
G1 X87.476 Y88.85 E.3793
G1 X87.983 Y88.85 E.01389
G1 X87.983 Y102.693 E.3793
G1 X88.49 Y102.693 E.01389
G1 X88.49 Y88.85 E.3793
G1 X88.997 Y88.85 E.01389
G1 X88.997 Y102.693 E.3793
G1 X89.504 Y102.693 E.01389
G1 X89.504 Y88.85 E.3793
G1 X90.012 Y88.85 E.01389
G1 X90.012 Y102.693 E.3793
G1 X90.519 Y102.693 E.01389
G1 X90.519 Y88.85 E.3793
G1 X91.026 Y88.85 E.01389
M73 P4 R18
M73 Q4 S18
G1 X91.026 Y102.693 E.3793
G1 X91.533 Y102.693 E.01389
G1 X91.533 Y88.85 E.3793
G1 X92.04 Y88.85 E.01389
G1 X92.04 Y102.693 E.3793
G1 X92.547 Y102.693 E.01389
G1 X92.547 Y88.85 E.3793
G1 X93.054 Y88.85 E.01389
G1 X93.054 Y102.693 E.3793
G1 X93.561 Y102.693 E.01389
G1 X93.561 Y88.85 E.3793
G1 X94.068 Y88.85 E.01389
G1 X94.068 Y102.693 E.3793
G1 X94.575 Y102.693 E.01389
G1 X94.575 Y88.85 E.3793
G1 X95.082 Y88.85 E.01389
G1 X95.082 Y105 E.44252
G1 X95.589 Y105 E.01389
G1 X95.589 Y88.85 E.44252
G1 X96.096 Y88.85 E.01389
G1 X96.096 Y105 E.44252
G1 X96.604 Y105 E.01389
G1 X96.604 Y88.85 E.44252
G1 X97.111 Y88.85 E.01389
G1 X97.111 Y105 E.44252
G1 X97.618 Y105 E.01389
G1 X97.618 Y88.85 E.44252
G1 X98.125 Y88.85 E.01389
G1 X98.125 Y105 E.44252
G1 X98.632 Y105 E.01389
M73 P5 R18
M73 Q5 S18
G1 X98.632 Y88.85 E.44252
G1 X99.139 Y88.85 E.01389
G1 X99.139 Y105 E.44252
G1 X99.646 Y105 E.01389
G1 X99.646 Y88.85 E.44252
G1 X100.153 Y88.85 E.01389
G1 X100.153 Y105 E.44252
G1 X100.66 Y105 E.01389
G1 X100.66 Y88.85 E.44252
G1 X101.167 Y88.85 E.01389
G1 X101.167 Y105 E.44252
G1 X101.674 Y105 E.01389
G1 X101.674 Y88.85 E.44252
G1 X102.181 Y88.85 E.01389
G1 X102.181 Y105 E.44252
G1 X102.689 Y105 E.01389
G1 X102.689 Y88.85 E.44252
G1 X103.196 Y88.85 E.01389
G1 X103.196 Y105 E.44252
G1 X103.703 Y105 E.01389
G1 X103.703 Y88.85 E.44252
G1 X104.21 Y88.85 E.01389
G1 X104.21 Y105 E.44252
G1 X104.236 Y105 E.00073
G1 X104.236 Y107.307 E.06322
G1 X104.717 Y107.307 E.01317
G1 X104.717 Y88.85 E.50574
G1 X105.224 Y88.85 E.01389
M73 P6 R18
G1 X105.224 Y107.307 E.50574
G1 X105.731 Y107.307 E.01389
M73 Q6 S18
G1 X105.731 Y88.85 E.50574
G1 X106.238 Y88.85 E.01389
M73 P6 R17
G1 X106.238 Y107.307 E.50574
G1 X106.745 Y107.307 E.01389
G1 X106.745 Y88.85 E.50574
G1 X107.252 Y88.85 E.01389
G1 X107.252 Y107.307 E.50574
G1 X107.759 Y107.307 E.01389
G1 X107.759 Y88.85 E.50574
G1 X108.266 Y88.85 E.01389
G1 X108.266 Y107.307 E.50574
G1 X108.773 Y107.307 E.01389
G1 X108.773 Y88.85 E.50574
G1 X109.281 Y88.85 E.01389
G1 X109.281 Y107.307 E.50574
G1 X109.788 Y107.307 E.01389
G1 X109.788 Y88.85 E.50574
G1 X110.295 Y88.85 E.01389
G1 X110.295 Y107.307 E.50574
G1 X110.802 Y107.307 E.01389
G1 X110.802 Y88.85 E.50574
G1 X111.309 Y88.85 E.01389
M73 P7 R17
G1 X111.309 Y107.307 E.50574
G1 X111.816 Y107.307 E.01389
M73 Q7 S18
G1 X111.816 Y88.85 E.50574
G1 X112.323 Y88.85 E.01389
G1 X112.323 Y107.307 E.50574
G1 X112.83 Y107.307 E.01389
G1 X112.83 Y88.85 E.50574
G1 X113.337 Y88.85 E.01389
G1 X113.337 Y107.307 E.50574
G1 X113.465 Y107.307 E.00349
M73 Q7 S17
G1 X113.465 Y109.614 E.06322
G1 X113.844 Y109.614 E.0104
;WIPE_START
G1 F8640
G1 X113.465 Y109.614 E-.08766
G1 X113.465 Y107.307 E-.53271
G1 X113.337 Y107.307 E-.02942
G1 X113.337 Y106.83 E-.1102
;WIPE_END
G1 E-.04 F2100
G1 Z.64 F10800
G1 X170.991 Y88.85
G1 Z.24
G1 E.8 F2100
G1 F1200
G1 X170.637 Y88.85 E.00969
G1 X170.637 Y98.079 E.25287
G1 X170.13 Y98.079 E.01389
G1 X170.13 Y88.85 E.25287
G1 X169.623 Y88.85 E.01389
G1 X169.623 Y98.079 E.25287
G1 X169.116 Y98.079 E.01389
G1 X169.116 Y88.85 E.25287
G1 X168.609 Y88.85 E.01389
G1 X168.609 Y98.079 E.25287
G1 X168.102 Y98.079 E.01389
G1 X168.102 Y88.85 E.25287
G1 X167.595 Y88.85 E.01389
G1 X167.595 Y98.079 E.25287
G1 X167.088 Y98.079 E.01389
G1 X167.088 Y88.85 E.25287
G1 X166.58 Y88.85 E.01389
G1 X166.58 Y98.079 E.25287
G1 X166.073 Y98.079 E.01389
G1 X166.073 Y88.85 E.25287
G1 X165.566 Y88.85 E.01389
G1 X165.566 Y98.079 E.25287
G1 X165.059 Y98.079 E.01389
M73 P8 R17
G1 X165.059 Y88.85 E.25287
G1 X164.552 Y88.85 E.01389
M73 Q8 S17
G1 X164.552 Y98.079 E.25287
G1 X164.045 Y98.079 E.01389
G1 X164.045 Y88.85 E.25287
G1 X163.538 Y88.85 E.01389
G1 X163.538 Y98.079 E.25287
G1 X163.031 Y98.079 E.01389
G1 X163.031 Y88.85 E.25287
G1 X162.524 Y88.85 E.01389
G1 X162.524 Y98.079 E.25287
G1 X162.017 Y98.079 E.01389
G1 X162.017 Y88.85 E.25287
G1 X161.51 Y88.85 E.01389
G1 X161.51 Y98.079 E.25287
G1 X161.003 Y98.079 E.01389
G1 X161.003 Y88.85 E.25287
G1 X160.496 Y88.85 E.01389
G1 X160.496 Y98.079 E.25287
G1 X159.988 Y98.079 E.01389
G1 X159.988 Y88.85 E.25287
G1 X159.481 Y88.85 E.01389
G1 X159.481 Y98.079 E.25287
G1 X158.974 Y98.079 E.01389
G1 X158.974 Y88.85 E.25287
G1 X158.467 Y88.85 E.01389
G1 X158.467 Y98.079 E.25287
G1 X157.96 Y98.079 E.01389
G1 X157.96 Y88.85 E.25287
G1 X157.453 Y88.85 E.01389
G1 X157.453 Y98.079 E.25287
G1 X156.946 Y98.079 E.01389
G1 X156.946 Y88.85 E.25287
G1 X156.439 Y88.85 E.01389
G1 X156.439 Y98.079 E.25287
G1 X155.932 Y98.079 E.01389
G1 X155.932 Y88.85 E.25287
G1 X155.425 Y88.85 E.01389
G1 X155.425 Y98.079 E.25287
G1 X154.918 Y98.079 E.01389
G1 X154.918 Y88.85 E.25287
G1 X154.411 Y88.85 E.01389
G1 X154.411 Y98.079 E.25287
G1 X153.904 Y98.079 E.01389
G1 X153.904 Y88.85 E.25287
G1 X153.396 Y88.85 E.01389
M73 P9 R17
G1 X153.396 Y98.079 E.25287
G1 X152.889 Y98.079 E.01389
M73 Q9 S17
G1 X152.889 Y88.85 E.25287
G1 X152.382 Y88.85 E.01389
G1 X152.382 Y98.079 E.25287
G1 X151.875 Y98.079 E.01389
G1 X151.875 Y88.85 E.25287
G1 X151.368 Y88.85 E.01389
G1 X151.368 Y98.079 E.25287
G1 X150.861 Y98.079 E.01389
G1 X150.861 Y88.85 E.25287
G1 X150.354 Y88.85 E.01389
G1 X150.354 Y98.079 E.25287
G1 X149.847 Y98.079 E.01389
G1 X149.847 Y88.85 E.25287
G1 X149.34 Y88.85 E.01389
G1 X149.34 Y98.079 E.25287
G1 X148.833 Y98.079 E.01389
G1 X148.833 Y88.85 E.25287
G1 X148.326 Y88.85 E.01389
G1 X148.326 Y98.079 E.25287
G1 X147.819 Y98.079 E.01389
G1 X147.819 Y88.85 E.25287
G1 X147.311 Y88.85 E.01389
G1 X147.311 Y98.079 E.25287
G1 X146.804 Y98.079 E.01389
G1 X146.804 Y88.85 E.25287
G1 X146.297 Y88.85 E.01389
G1 X146.297 Y98.079 E.25287
G1 X145.79 Y98.079 E.01389
G1 X145.79 Y88.85 E.25287
G1 X145.283 Y88.85 E.01389
G1 X145.283 Y98.079 E.25287
G1 X144.776 Y98.079 E.01389
G1 X144.776 Y88.85 E.25287
G1 X144.269 Y88.85 E.01389
G1 X144.269 Y98.079 E.25287
G1 X143.762 Y98.079 E.01389
G1 X143.762 Y88.85 E.25287
G1 X143.255 Y88.85 E.01389
G1 X143.255 Y98.079 E.25287
G1 X142.748 Y98.079 E.01389
G1 X142.748 Y88.85 E.25287
G1 X142.241 Y88.85 E.01389
G1 X142.241 Y98.079 E.25287
G1 X141.734 Y98.079 E.01389
M73 P10 R17
G1 X141.734 Y88.85 E.25287
G1 X141.227 Y88.85 E.01389
G1 X141.227 Y98.079 E.25287
G1 X140.719 Y98.079 E.01389
M73 Q10 S17
G1 X140.719 Y88.85 E.25287
G1 X140.212 Y88.85 E.01389
G1 X140.212 Y98.079 E.25287
G1 X139.705 Y98.079 E.01389
G1 X139.705 Y88.85 E.25287
G1 X139.198 Y88.85 E.01389
G1 X139.198 Y98.079 E.25287
G1 X138.691 Y98.079 E.01389
G1 X138.691 Y88.85 E.25287
G1 X138.184 Y88.85 E.01389
G1 X138.184 Y98.079 E.25287
G1 X137.677 Y98.079 E.01389
G1 X137.677 Y88.85 E.25287
G1 X137.17 Y88.85 E.01389
G1 X137.17 Y98.079 E.25287
G1 X136.663 Y98.079 E.01389
G1 X136.663 Y88.85 E.25287
G1 X136.156 Y88.85 E.01389
G1 X136.156 Y98.079 E.25287
G1 X135.649 Y98.079 E.01389
G1 X135.649 Y88.85 E.25287
G1 X135.142 Y88.85 E.01389
G1 X135.142 Y98.079 E.25287
G1 X134.635 Y98.079 E.01389
G1 X134.635 Y88.85 E.25287
G1 X134.127 Y88.85 E.01389
G1 X134.127 Y98.079 E.25287
G1 X133.62 Y98.079 E.01389
G1 X133.62 Y88.85 E.25287
G1 X133.113 Y88.85 E.01389
G1 X133.113 Y98.079 E.25287
G1 X132.606 Y98.079 E.01389
G1 X132.606 Y88.85 E.25287
G1 X132.099 Y88.85 E.01389
G1 X132.099 Y98.079 E.25287
G1 X131.592 Y98.079 E.01389
G1 X131.592 Y88.85 E.25287
G1 X131.085 Y88.85 E.01389
G1 X131.085 Y98.079 E.25287
G1 X130.578 Y98.079 E.01389
G1 X130.578 Y88.85 E.25287
G1 X130.071 Y88.85 E.01389
M73 P11 R17
G1 X130.071 Y98.079 E.25287
G1 X129.564 Y98.079 E.01389
G1 X129.564 Y88.85 E.25287
G1 X129.057 Y88.85 E.01389
M73 Q11 S17
G1 X129.057 Y98.079 E.25287
G1 X128.55 Y98.079 E.01389
G1 X128.55 Y88.85 E.25287
G1 X128.042 Y88.85 E.01389
G1 X128.042 Y98.079 E.25287
G1 X127.535 Y98.079 E.01389
G1 X127.535 Y88.85 E.25287
G1 X127.028 Y88.85 E.01389
G1 X127.028 Y98.079 E.25287
G1 X126.521 Y98.079 E.01389
G1 X126.521 Y88.85 E.25287
G1 X126.014 Y88.85 E.01389
M73 P11 R16
G1 X126.014 Y98.079 E.25287
G1 X125.507 Y98.079 E.01389
G1 X125.507 Y88.85 E.25287
G1 X125 Y88.85 E.01389
G1 X125 Y98.079 E.25287
G1 X124.493 Y98.079 E.01389
G1 X124.493 Y88.85 E.25287
G1 X123.986 Y88.85 E.01389
G1 X123.986 Y98.079 E.25287
G1 X123.479 Y98.079 E.01389
G1 X123.479 Y88.85 E.25287
G1 X122.972 Y88.85 E.01389
G1 X122.972 Y98.079 E.25287
G1 X122.465 Y98.079 E.01389
G1 X122.465 Y88.85 E.25287
G1 X121.958 Y88.85 E.01389
G1 X121.958 Y98.079 E.25287
G1 X121.45 Y98.079 E.01389
G1 X121.45 Y88.85 E.25287
G1 X120.943 Y88.85 E.01389
G1 X120.943 Y98.079 E.25287
G1 X120.436 Y98.079 E.01389
G1 X120.436 Y88.85 E.25287
G1 X119.929 Y88.85 E.01389
G1 X119.929 Y98.079 E.25287
G1 X119.422 Y98.079 E.01389
G1 X119.422 Y88.85 E.25287
G1 X118.915 Y88.85 E.01389
G1 X118.915 Y98.079 E.25287
G1 X118.408 Y98.079 E.01389
M73 P12 R16
G1 X118.408 Y88.85 E.25287
G1 X117.901 Y88.85 E.01389
G1 X117.901 Y98.079 E.25287
G1 X117.394 Y98.079 E.01389
M73 Q12 S17
G1 X117.394 Y88.85 E.25287
G1 X116.887 Y88.85 E.01389
G1 X116.887 Y98.079 E.25287
G1 X116.38 Y98.079 E.01389
G1 X116.38 Y88.85 E.25287
G1 X115.873 Y88.85 E.01389
G1 X115.873 Y98.079 E.25287
G1 X115.366 Y98.079 E.01389
G1 X115.366 Y88.85 E.25287
G1 X114.858 Y88.85 E.01389
G1 X114.858 Y98.079 E.25287
G1 X114.351 Y98.079 E.01389
G1 X114.351 Y88.85 E.25287
G1 X113.844 Y88.85 E.01389
G1 X113.844 Y98.079 E.25287
G1 X113.583 Y98.079 E.00716
;WIPE_START
G1 F8640
G1 X113.844 Y98.079 E-.06036
G1 X113.844 Y95.049 E-.69964
;WIPE_END
G1 E-.04 F2100
G1 Z.64 F10800
G1 X113.583 Y100.386
G1 Z.24
G1 E.8 F2100
G1 F1200
G1 X113.844 Y100.386 E.00716
G1 X113.844 Y109.614 E.25287
G1 X114.351 Y109.614 E.01389
G1 X114.351 Y100.386 E.25287
G1 X114.858 Y100.386 E.01389
G1 X114.858 Y109.614 E.25287
G1 X115.365 Y109.614 E.01389
M73 Q12 S16
G1 X115.365 Y100.386 E.25287
G1 X115.873 Y100.386 E.01389
G1 X115.873 Y109.614 E.25287
G1 X116.38 Y109.614 E.01389
G1 X116.38 Y100.386 E.25287
G1 X116.887 Y100.386 E.01389
G1 X116.887 Y109.614 E.25287
G1 X117.394 Y109.614 E.01389
G1 X117.394 Y100.386 E.25287
G1 X117.901 Y100.386 E.01389
G1 X117.901 Y109.614 E.25287
G1 X118.408 Y109.614 E.01389
G1 X118.408 Y100.386 E.25287
G1 X118.915 Y100.386 E.01389
G1 X118.915 Y109.614 E.25287
G1 X119.422 Y109.614 E.01389
G1 X119.422 Y100.386 E.25287
G1 X119.929 Y100.386 E.01389
M73 P13 R16
G1 X119.929 Y109.614 E.25287
G1 X120.436 Y109.614 E.01389
G1 X120.436 Y100.386 E.25287
G1 X120.943 Y100.386 E.01389
M73 Q13 S16
G1 X120.943 Y109.614 E.25287
G1 X121.45 Y109.614 E.01389
G1 X121.45 Y100.386 E.25287
G1 X121.958 Y100.386 E.01389
G1 X121.958 Y109.614 E.25287
G1 X122.465 Y109.614 E.01389
G1 X122.465 Y100.386 E.25287
G1 X122.693 Y100.386 E.00626
G1 X122.693 Y100.817 E.01182
;WIPE_START
G1 F8640
G1 X122.693 Y100.386 E-.09962
G1 X122.465 Y100.386 E-.05273
G1 X122.465 Y103.017 E-.60766
;WIPE_END
G1 E-.04 F2100
G1 Z.64 F10800
G1 X122.71 Y102.693
G1 Z.24
G1 E.8 F2100
G1 F1200
G1 X122.972 Y102.693 E.00716
G1 X122.972 Y111.921 E.25287
G1 X123.479 Y111.921 E.01389
G1 X123.479 Y102.693 E.25287
G1 X123.986 Y102.693 E.01389
G1 X123.986 Y111.921 E.25287
G1 X124.493 Y111.921 E.01389
G1 X124.493 Y102.693 E.25287
G1 X125 Y102.693 E.01389
G1 X125 Y111.921 E.25287
G1 X125.507 Y111.921 E.01389
G1 X125.507 Y102.693 E.25287
G1 X126.014 Y102.693 E.01389
G1 X126.014 Y111.921 E.25287
G1 X126.521 Y111.921 E.01389
G1 X126.521 Y102.693 E.25287
G1 X127.028 Y102.693 E.01389
G1 X127.028 Y111.921 E.25287
G1 X127.535 Y111.921 E.01389
G1 X127.535 Y102.693 E.25287
G1 X128.042 Y102.693 E.01389
G1 X128.042 Y111.921 E.25287
G1 X128.55 Y111.921 E.01389
G1 X128.55 Y102.693 E.25287
G1 X129.057 Y102.693 E.01389
G1 X129.057 Y111.921 E.25287
G1 X129.564 Y111.921 E.01389
G1 X129.564 Y102.693 E.25287
G1 X130.071 Y102.693 E.01389
G1 X130.071 Y111.921 E.25287
