; generated by PrusaSlicer 2.4.1+win64 on 2022-09-02 at 21:36:13 UTC

; 

; external perimeters extrusion width = 0.45mm
; perimeters extrusion width = 0.45mm
; infill extrusion width = 0.45mm
; solid infill extrusion width = 0.45mm
; top infill extrusion width = 0.40mm
; support material extrusion width = 0.35mm
; first layer extrusion width = 0.42mm

M73 P0 R4
M73 Q0 S4
M107
;TYPE:Custom
M862.3 P "MK3S" ; printer model check
M862.1 P0.4 ; nozzle diameter check
M115 U3.10.0 ; tell printer latest fw version
G90 ; use absolute coordinates
M83 ; extruder relative mode
M104 S215 ; set extruder temp
M140 S60 ; set bed temp
M190 S60 ; wait for bed temp
M109 S215 ; wait for extruder temp
G28 W ; home all without mesh bed level
G80 ; mesh bed leveling
G1 Y-3.0 F1000.0 ; go outside print area
G92 E0.0
G1 X60.0 E9.0 F1000.0 ; intro line
G1 X100.0 E12.5 F1000.0 ; intro line
G92 E0.0
M221 S95

; Don't change E values below. Excessive value can damage the printer.

G21 ; set units to millimeters
G90 ; use absolute coordinates
M83 ; use relative distances for extrusion
M900 K0.05 ; Filament gcode LA 1.5
M900 K30 ; Filament gcode LA 1.0
M107
;LAYER_CHANGE
;Z:0.24
;HEIGHT:0.24
;BEFORE_LAYER_CHANGE
G92 E0.0
;0.24


M73 P1 R4
M73 Q1 S4
G1 E-.8 F2100
M73 P2 R4
M73 Q2 S4
G1 Z.4 F10800
;AFTER_LAYER_CHANGE
;0.24
G1 X117.455 Y99.487
G1 Z.24
G1 E.8 F2100
M204 S1000
;TYPE:Skirt/Brim
;WIDTH:0.42
G1 F1200
G1 X118.536 Y98.357 E.05289
G1 X120.167 Y97.895 E.05735
G1 X129.833 Y97.895 E.327
G1 X131.346 Y98.288 E.05289
M73 Q3 S4
G1 X132.476 Y99.369 E.05289
G1 X132.939 Y101 E.05735
G1 X132.939 Y109 E.27062
G1 X132.545 Y110.513 E.05289
M73 P3 R4
G1 X131.464 Y111.643 E.05289
G1 X129.833 Y112.105 E.05735
G1 X120.167 Y112.105 E.327
G1 X118.654 Y111.712 E.05289
G1 X117.524 Y110.631 E.05289
G1 X117.061 Y109 E.05735
G1 X117.061 Y101 E.27062
G1 X117.44 Y99.545 E.05086
G1 X117.806 Y99.647 F10800
G1 F1200
G1 X117.822 Y99.587 E.00208
G1 X118.888 Y98.58 E.0496
G1 X120.167 Y98.263 E.04457
G1 X129.833 Y98.263 E.327
G1 X131.246 Y98.656 E.0496
M73 Q4 S4
G1 X132.253 Y99.721 E.0496
G1 X132.57 Y101 E.04457
G1 X132.57 Y109 E.27062
M73 P4 R4
G1 X132.178 Y110.413 E.0496
G1 X131.112 Y111.42 E.0496
G1 X129.833 Y111.737 E.04457
G1 X120.167 Y111.737 E.327
G1 X118.754 Y111.344 E.0496
G1 X117.747 Y110.279 E.0496
G1 X117.43 Y109 E.04457
G1 X117.43 Y101 E.27062
G1 X117.79 Y99.705 E.04548
G1 X118.154 Y99.814 F10800
G1 F1200
G1 X118.19 Y99.696 E.00418
G1 X119.235 Y98.822 E.04607
G1 X120.167 Y98.632 E.03217
G1 X129.833 Y98.632 E.327
G1 X131.138 Y99.023 E.04607
M73 Q5 S4
G1 X132.011 Y100.068 E.04607
G1 X132.202 Y101 E.03217
G1 X132.202 Y109 E.27062
G1 X131.81 Y110.304 E.04607
M73 P5 R4
G1 X130.765 Y111.178 E.04607
G1 X129.833 Y111.368 E.03217
G1 X120.167 Y111.368 E.327
G1 X118.862 Y110.977 E.04607
G1 X117.989 Y109.932 E.04607
G1 X117.798 Y109 E.03217
G1 X117.798 Y101 E.27062
G1 X118.137 Y99.871 E.03986
; printing object THICCPIN.STL id:0 copy 0
;WIPE_START
G1 F8640
G1 X118.19 Y99.696 E-.04239
G1 X119.235 Y98.822 E-.31447
G1 X120.167 Y98.632 E-.21961
G1 X120.961 Y98.632 E-.18353
;WIPE_END
G1 E-.04 F2100
G1 Z.64 F10800
G1 X120.945 Y101.778
G1 Z.24
G1 E.8 F2100
;TYPE:Perimeter
G1 F1200
G1 X129.055 Y101.778 E.27433
G1 X129.055 Y108.222 E.21795
M73 Q6 S4
G1 X120.945 Y108.222 E.27433
M73 P6 R4
G1 X120.945 Y101.838 E.21592
G1 X120.577 Y101.41 F10800
;TYPE:External perimeter
G1 F1200
G1 X129.423 Y101.41 E.29926
G1 X129.423 Y108.59 E.24288
G1 X120.577 Y108.59 E.29926
G1 X120.577 Y101.47 E.24085
G1 X120.966 Y101.5 F10800
;WIPE_START
M73 Q7 S4
G1 F8640
G1 X123.868 Y101.448 E-.76
;WIPE_END
G1 E-.04 F2100
G1 Z.64 F10800
G1 X128.193 Y101.889
M73 P7 R4
G1 Z.24
G1 E.8 F2100
;TYPE:Solid infill
;WIDTH:0.422976
G1 F1200
G1 X128.778 Y102.474 E.02823
G1 X128.778 Y103 E.01791
G1 X127.834 Y102.055 E.04557
G1 X127.308 Y102.055 E.01791
G1 X128.778 Y103.525 E.0709
G1 X128.778 Y104.05 E.01791
G1 X126.783 Y102.055 E.09624
G1 X126.258 Y102.055 E.01791
G1 X128.778 Y104.576 E.12157
G1 X128.778 Y105.101 E.01791
G1 X125.732 Y102.055 E.14691
G1 X125.207 Y102.055 E.01791
G1 X128.778 Y105.626 E.17224
G1 X128.778 Y106.152 E.01791
G1 X124.682 Y102.055 E.19758
G1 X124.156 Y102.055 E.01791
G1 X128.778 Y106.677 E.22291
G1 X128.778 Y107.203 E.01791
G1 X123.631 Y102.055 E.24825
G1 X123.105 Y102.055 E.01791
M73 Q8 S4
G1 X128.778 Y107.728 E.27358
G1 X128.778 Y107.945 E.00741
M73 P8 R4
G1 X128.47 Y107.945 E.0105
G1 X122.58 Y102.055 E.28406
G1 X122.055 Y102.055 E.01791
G1 X127.945 Y107.945 E.28406
G1 X127.42 Y107.945 E.01791
G1 X121.529 Y102.055 E.28406
G1 X121.222 Y102.055 E.0105
G1 X121.222 Y102.272 E.00741
G1 X126.894 Y107.945 E.27358
G1 X126.369 Y107.945 E.01791
G1 X121.222 Y102.798 E.24824
G1 X121.222 Y103.323 E.01791
M73 Q9 S4
G1 X125.844 Y107.945 E.22291
G1 X125.318 Y107.945 E.01791
M73 P9 R4
G1 X121.222 Y103.848 E.19757
G1 X121.222 Y104.374 E.01791
G1 X124.793 Y107.945 E.17224
G1 X124.268 Y107.945 E.01791
G1 X121.222 Y104.899 E.1469
G1 X121.222 Y105.424 E.01791
G1 X123.742 Y107.945 E.12157
G1 X123.217 Y107.945 E.01791
G1 X121.222 Y105.95 E.09623
G1 X121.222 Y106.475 E.01791
G1 X122.692 Y107.945 E.0709
G1 X122.166 Y107.945 E.01791
G1 X121.222 Y107 E.04556
G1 X121.222 Y107.526 E.01791
G1 X121.807 Y108.111 E.02823
; stop printing object THICCPIN.STL id:0 copy 0
M106 S84.15
;LAYER_CHANGE
;Z:0.44
;HEIGHT:0.2
;BEFORE_LAYER_CHANGE
G92 E0.0
;0.44


;WIPE_START
G1 F8640
G1 X121.222 Y107.526 E-.19113
G1 X121.222 Y107 E-.1213
G1 X122.166 Y107.945 E-.30853
G1 X122.692 Y107.945 E-.1213
G1 X122.637 Y107.891 E-.01774
;WIPE_END
G1 E-.04 F2100
G1 Z.64 F10800
;AFTER_LAYER_CHANGE
;0.44
G1 X122.637 Y112.105
G1 Z.44
G1 E.8 F2100
;TYPE:Skirt/Brim
;WIDTH:0.42
G1 F1430
G1 X120.167 Y112.105 E.07127
G1 X118.654 Y111.712 E.0451
M73 Q10 S4
G1 X117.524 Y110.631 E.0451
G1 X117.061 Y109 E.0489
G1 X117.061 Y101 E.23077
G1 X117.455 Y99.487 E.0451
M73 P10 R4
G1 X118.536 Y98.357 E.0451
G1 X120.167 Y97.895 E.0489
G1 X129.833 Y97.895 E.27884
G1 X131.346 Y98.288 E.0451
G1 X132.476 Y99.369 E.0451
G1 X132.939 Y101 E.0489
G1 X132.939 Y109 E.23077
G1 X132.545 Y110.513 E.0451
G1 X131.464 Y111.643 E.0451
G1 X129.833 Y112.105 E.0489
G1 X122.697 Y112.105 E.20584
G1 X122.697 Y111.737 F10800
M73 P10 R3
G1 F1430
G1 X120.167 Y111.737 E.073
G1 X118.754 Y111.344 E.04229
G1 X117.747 Y110.279 E.04229
G1 X117.43 Y109 E.03801
G1 X117.43 Y101 E.23077
M73 Q10 S3
G1 X117.822 Y99.587 E.04229
M73 Q11 S3
G1 X118.888 Y98.58 E.04229
G1 X120.167 Y98.263 E.03801
M73 P11 R3
G1 X129.833 Y98.263 E.27884
G1 X131.246 Y98.656 E.04229
G1 X132.253 Y99.721 E.04229
G1 X132.57 Y101 E.03801
G1 X132.57 Y109 E.23077
G1 X132.178 Y110.413 E.04229
G1 X131.112 Y111.42 E.04229
G1 X129.833 Y111.737 E.03801
G1 X122.757 Y111.737 E.20411
G1 X122.757 Y111.368 F10800
G1 F1430
G1 X120.167 Y111.368 E.07473
G1 X118.862 Y110.977 E.03929
G1 X117.989 Y109.932 E.03929
G1 X117.798 Y109 E.02744
G1 X117.798 Y101 E.23077
G1 X118.19 Y99.696 E.03929
G1 X119.235 Y98.822 E.03929
G1 X120.167 Y98.632 E.02744
G1 X129.833 Y98.632 E.27884
G1 X131.138 Y99.023 E.03929
M73 P12 R3
M73 Q12 S3
G1 X132.011 Y100.068 E.03929
G1 X132.202 Y101 E.02744
G1 X132.202 Y109 E.23077
G1 X131.81 Y110.304 E.03929
G1 X130.765 Y111.178 E.03929
G1 X129.833 Y111.368 E.02744
G1 X122.817 Y111.368 E.20238
; printing object THICCPIN.STL id:0 copy 0
;WIPE_START
G1 F8640
G1 X120.167 Y111.368 E-.61205
G1 X119.553 Y111.184 E-.14795
;WIPE_END
G1 E-.04 F2100
G1 Z.84 F10800
G1 X120.799 Y108.368
G1 Z.44
G1 E.8 F2100
M204 S800
;TYPE:Perimeter
;WIDTH:0.45
G1 F1430
G1 X120.799 Y101.632 E.20976
G1 X129.201 Y101.632 E.26166
G1 X129.201 Y108.368 E.20976
G1 X120.859 Y108.368 E.25979
M204 S1000
G1 X120.392 Y108.775 F10800
M204 S800
;TYPE:External perimeter
M73 P13 R3
M73 Q13 S3
G1 F1430
G1 X120.392 Y101.225 E.23511
G1 X129.608 Y101.225 E.28702
G1 X129.608 Y108.775 E.23511
G1 X120.452 Y108.775 E.28515
M204 S1000
G1 X120.508 Y108.392 F10800
;WIPE_START
G1 F8640
G1 X120.426 Y105.484 E-.76
;WIPE_END
G1 E-.04 F2100
G1 Z.84 F10800
G1 X129.079 Y107.403
G1 Z.44
G1 E.8 F2100
;TYPE:Solid infill
;WIDTH:0.459583
G1 F1430
G1 X128.419 Y108.063 E.02975
G1 X127.83 Y108.063 E.01878
G1 X128.896 Y106.996 E.04806
G1 X128.896 Y106.407 E.01878
G1 X127.241 Y108.063 E.07462
G1 X126.651 Y108.063 E.01878
G1 X128.896 Y105.818 E.10118
G1 X128.896 Y105.229 E.01878
M73 Q14 S3
G1 X126.062 Y108.063 E.12774
G1 X125.473 Y108.063 E.01878
G1 X128.896 Y104.639 E.1543
M73 P14 R3
G1 X128.896 Y104.05 E.01878
G1 X124.884 Y108.063 E.18086
G1 X124.294 Y108.063 E.01878
G1 X128.896 Y103.461 E.20743
G1 X128.896 Y102.872 E.01878
G1 X123.705 Y108.063 E.23399
G1 X123.116 Y108.063 E.01878
G1 X128.896 Y102.282 E.26055
G1 X128.896 Y101.937 E.011
G1 X128.652 Y101.937 E.00778
G1 X122.527 Y108.063 E.2761
G1 X121.937 Y108.063 E.01878
G1 X128.063 Y101.937 E.2761
G1 X127.473 Y101.937 E.01878
G1 X121.348 Y108.063 E.2761
G1 X121.104 Y108.063 E.00778
M73 P15 R3
M73 Q15 S3
G1 X121.104 Y107.717 E.011
G1 X126.884 Y101.937 E.26054
G1 X126.295 Y101.937 E.01878
G1 X121.104 Y107.128 E.23398
G1 X121.104 Y106.539 E.01878
G1 X125.706 Y101.937 E.20742
G1 X125.116 Y101.937 E.01878
G1 X121.104 Y105.95 E.18086
G1 X121.104 Y105.36 E.01878
G1 X124.527 Y101.937 E.1543
G1 X123.938 Y101.937 E.01878
G1 X121.104 Y104.771 E.12774
G1 X121.104 Y104.182 E.01878
G1 X123.349 Y101.937 E.10117
G1 X122.759 Y101.937 E.01878
G1 X121.104 Y103.593 E.07461
G1 X121.104 Y103.003 E.01878
G1 X122.17 Y101.937 E.04805
G1 X121.581 Y101.937 E.01878
G1 X120.921 Y102.597 E.02975
; stop printing object THICCPIN.STL id:0 copy 0
M106 S170.85
;LAYER_CHANGE
;Z:0.64
;HEIGHT:0.2
;BEFORE_LAYER_CHANGE
G92 E0.0
;0.64


;WIPE_START
G1 F8640
G1 X121.581 Y101.937 E-.2155
G1 X122.17 Y101.937 E-.13606
M73 Q16 S3
G1 X121.104 Y103.003 E-.3481
G1 X121.104 Y103.265 E-.06035
;WIPE_END
G1 E-.04 F2100
G1 Z.84 F10800
;AFTER_LAYER_CHANGE
;0.64
G1 X117.061 Y103.265
G1 Z.64
M73 P16 R3
G1 E.8 F2100
;TYPE:Skirt/Brim
;WIDTH:0.42
G1 F1427
G1 X117.061 Y101 E.06533
G1 X117.455 Y99.487 E.0451
G1 X118.536 Y98.357 E.0451
G1 X120.167 Y97.895 E.0489
G1 X129.833 Y97.895 E.27884
G1 X131.346 Y98.288 E.0451
G1 X132.476 Y99.369 E.0451
G1 X132.939 Y101 E.0489
G1 X132.939 Y109 E.23077
G1 X132.545 Y110.513 E.0451
G1 X131.464 Y111.643 E.0451
G1 X129.833 Y112.105 E.0489
G1 X120.167 Y112.105 E.27884
G1 X118.654 Y111.712 E.0451
G1 X117.524 Y110.631 E.0451
G1 X117.061 Y109 E.0489
G1 X117.061 Y103.325 E.16371
G1 X117.43 Y103.325 F10800
M73 Q17 S3
G1 F1427
G1 X117.43 Y101 E.06706
G1 X117.822 Y99.587 E.04229
G1 X118.888 Y98.58 E.04229
G1 X120.167 Y98.263 E.03801
M73 P17 R3
G1 X129.833 Y98.263 E.27884
G1 X131.246 Y98.656 E.04229
G1 X132.253 Y99.721 E.04229
G1 X132.57 Y101 E.03801
G1 X132.57 Y109 E.23077
G1 X132.178 Y110.413 E.04229
G1 X131.112 Y111.42 E.04229
G1 X129.833 Y111.737 E.03801
G1 X120.167 Y111.737 E.27884
G1 X118.754 Y111.344 E.04229
G1 X117.747 Y110.279 E.04229
G1 X117.43 Y109 E.03801
G1 X117.43 Y103.385 E.16198
G1 X117.798 Y103.385 F10800
G1 F1427
G1 X117.798 Y101 E.06879
G1 X118.19 Y99.696 E.03929
G1 X119.235 Y98.822 E.03929
G1 X120.167 Y98.632 E.02744
G1 X129.833 Y98.632 E.27884
G1 X131.138 Y99.023 E.03929
M73 P18 R3
M73 Q18 S3
G1 X132.011 Y100.068 E.03929
G1 X132.202 Y101 E.02744
G1 X132.202 Y109 E.23077
G1 X131.81 Y110.304 E.03929
G1 X130.765 Y111.178 E.03929
G1 X129.833 Y111.368 E.02744
G1 X120.167 Y111.368 E.27884
G1 X118.862 Y110.977 E.03929
G1 X117.989 Y109.932 E.03929
G1 X117.798 Y109 E.02744
G1 X117.798 Y103.445 E.16025
; printing object THICCPIN.STL id:0 copy 0
;WIPE_START
G1 F8640
G1 X117.798 Y101 E-.5645
G1 X118.042 Y100.189 E-.1955
;WIPE_END
G1 E-.04 F2100
G1 Z1.04 F10800
G1 X120.799 Y101.632
G1 Z.64
G1 E.8 F2100
M204 S800
;TYPE:Perimeter
;WIDTH:0.45
G1 F1427
G1 X129.201 Y101.632 E.26166
G1 X129.201 Y108.368 E.20976
G1 X120.799 Y108.368 E.26166
M73 Q19 S3
G1 X120.799 Y101.692 E.20789
M204 S1000
M73 P19 R3
G1 X120.392 Y101.225 F10800
M204 S800
;TYPE:External perimeter
G1 F1427
G1 X129.608 Y101.225 E.28702
G1 X129.608 Y108.775 E.23511
G1 X120.392 Y108.775 E.28702
G1 X120.392 Y101.285 E.23325
M204 S1000
G1 X120.781 Y101.316 F10800
;WIPE_START
G1 F8640
G1 X123.683 Y101.264 E-.76
;WIPE_END
G1 E-.04 F2100
G1 Z1.04 F10800
G1 X128.236 Y101.754
G1 Z.64
G1 E.8 F2100
;TYPE:Solid infill
;WIDTH:0.459583
G1 F1427
M73 Q20 S3
G1 X128.896 Y102.414 E.02975
G1 X128.896 Y103.004 E.01878
G1 X127.83 Y101.937 E.04806
G1 X127.241 Y101.937 E.01878
G1 X128.896 Y103.593 E.07462
G1 X128.896 Y104.182 E.01878
M73 P20 R3
G1 X126.651 Y101.937 E.10118
G1 X126.062 Y101.937 E.01878
G1 X128.896 Y104.771 E.12774
G1 X128.896 Y105.361 E.01878
G1 X125.473 Y101.937 E.1543
G1 X124.884 Y101.937 E.01878
G1 X128.896 Y105.95 E.18086
G1 X128.896 Y106.539 E.01878
G1 X124.294 Y101.937 E.20743
G1 X123.705 Y101.937 E.01878
G1 X128.896 Y107.128 E.23399
G1 X128.896 Y107.718 E.01878
G1 X123.116 Y101.937 E.26055
G1 X122.527 Y101.937 E.01878
G1 X128.652 Y108.063 E.2761
G1 X128.063 Y108.063 E.01878
M73 Q21 S3
G1 X121.937 Y101.937 E.2761
G1 X121.348 Y101.937 E.01878
M73 P21 R3
G1 X127.473 Y108.063 E.2761
G1 X126.884 Y108.063 E.01878
G1 X121.104 Y102.283 E.26054
G1 X121.104 Y102.872 E.01878
G1 X126.295 Y108.063 E.23398
G1 X125.706 Y108.063 E.01878
G1 X121.104 Y103.461 E.20742
G1 X121.104 Y104.05 E.01878
G1 X125.116 Y108.063 E.18086
G1 X124.527 Y108.063 E.01878
G1 X121.104 Y104.64 E.1543
G1 X121.104 Y105.229 E.01878
G1 X123.938 Y108.063 E.12774
G1 X123.349 Y108.063 E.01878
G1 X121.104 Y105.818 E.10117
G1 X121.104 Y106.407 E.01878
M73 Q22 S3
G1 X122.759 Y108.063 E.07461
G1 X122.17 Y108.063 E.01878
M73 P22 R3
G1 X121.104 Y106.997 E.04805
G1 X121.104 Y107.586 E.01878
G1 X121.764 Y108.246 E.02975
; stop printing object THICCPIN.STL id:0 copy 0
M106 S255
;LAYER_CHANGE
;Z:0.84
;HEIGHT:0.2
;BEFORE_LAYER_CHANGE
G92 E0.0
;0.84


;WIPE_START
G1 F8640
G1 X121.104 Y107.586 E-.2155
G1 X121.104 Y106.997 E-.13606
G1 X122.17 Y108.063 E-.3481
G1 X122.431 Y108.063 E-.06035
;WIPE_END
G1 E-.04 F2100
G1 Z1.04 F10800
;AFTER_LAYER_CHANGE
;0.84
; printing object THICCPIN.STL id:0 copy 0
G1 X120.799 Y108.368
G1 Z.84
G1 E.8 F2100
M204 S800
;TYPE:Perimeter
;WIDTH:0.45
G1 F900
G1 X120.799 Y101.632 E.20976
G1 X129.201 Y101.632 E.26166
G1 X129.201 Y108.368 E.20976
G1 X120.859 Y108.368 E.25979
M204 S1000
G1 X120.392 Y108.775 F10800
M204 S800
;TYPE:External perimeter
M73 Q23 S3
G1 F900
M73 P23 R3
G1 X120.392 Y101.225 E.23511
G1 X129.608 Y101.225 E.28702
G1 X129.608 Y108.775 E.23511
G1 X120.452 Y108.775 E.28515
M204 S1000
G1 X120.508 Y108.392 F10800
;WIPE_START
G1 F8640
G1 X120.426 Y105.484 E-.76
;WIPE_END
G1 E-.04 F2100
G1 Z1.24 F10800
G1 X129.079 Y107.403
G1 Z.84
M73 Q24 S3
G1 E.8 F2100
;TYPE:Solid infill
;WIDTH:0.459583
M73 P24 R3
G1 F900
G1 X128.419 Y108.063 E.02975
G1 X127.83 Y108.063 E.01878
G1 X128.896 Y106.996 E.04806
G1 X128.896 Y106.407 E.01878
G1 X127.241 Y108.063 E.07462
G1 X126.651 Y108.063 E.01878
G1 X128.896 Y105.818 E.10118
G1 X128.896 Y105.229 E.01878
G1 X126.062 Y108.063 E.12774
G1 X125.473 Y108.063 E.01878
G1 X128.896 Y104.639 E.1543
G1 X128.896 Y104.05 E.01878
G1 X124.884 Y108.063 E.18086
G1 X124.294 Y108.063 E.01878
G1 X128.896 Y103.461 E.20743
G1 X128.896 Y102.872 E.01878
G1 X123.705 Y108.063 E.23399
G1 X123.116 Y108.063 E.01878
M73 P25 R3
M73 Q25 S3
G1 X128.896 Y102.282 E.26055
G1 X128.896 Y101.937 E.011
G1 X128.652 Y101.937 E.00778
G1 X122.527 Y108.063 E.2761
G1 X121.937 Y108.063 E.01878
G1 X128.063 Y101.937 E.2761
G1 X127.473 Y101.937 E.01878
G1 X121.348 Y108.063 E.2761
G1 X121.104 Y108.063 E.00778
M73 Q26 S3
G1 X121.104 Y107.717 E.011
G1 X126.884 Y101.937 E.26054
G1 X126.295 Y101.937 E.01878
M73 P26 R3
G1 X121.104 Y107.128 E.23398
G1 X121.104 Y106.539 E.01878
G1 X125.706 Y101.937 E.20742
G1 X125.116 Y101.937 E.01878
G1 X121.104 Y105.95 E.18086
G1 X121.104 Y105.36 E.01878
G1 X124.527 Y101.937 E.1543
G1 X123.938 Y101.937 E.01878
G1 X121.104 Y104.771 E.12774
G1 X121.104 Y104.182 E.01878
M73 Q27 S3
G1 X123.349 Y101.937 E.10117
G1 X122.759 Y101.937 E.01878
M73 P27 R3
G1 X121.104 Y103.593 E.07461
G1 X121.104 Y103.003 E.01878
G1 X122.17 Y101.937 E.04805
G1 X121.581 Y101.937 E.01878
G1 X120.921 Y102.597 E.02975
