; generated by PrusaSlicer 2.4.1+win64 on 2022-08-29 at 22:32:10 UTC

; 

; external perimeters extrusion width = 0.45mm
; perimeters extrusion width = 0.45mm
; infill extrusion width = 0.45mm
; solid infill extrusion width = 0.45mm
; top infill extrusion width = 0.40mm
; support material extrusion width = 0.35mm
; first layer extrusion width = 0.42mm

M73 P0 R4
M73 Q0 S4
M107
;TYPE:Custom
M862.3 P "MK3S" ; printer model check
M862.1 P0.4 ; nozzle diameter check
M115 U3.10.0 ; tell printer latest fw version
G90 ; use absolute coordinates
M83 ; extruder relative mode
M104 S215 ; set extruder temp
M140 S60 ; set bed temp
M190 S60 ; wait for bed temp
M109 S215 ; wait for extruder temp
G28 W ; home all without mesh bed level
G80 ; mesh bed leveling
G1 Y-3.0 F1000.0 ; go outside print area
G92 E0.0
G1 X60.0 E9.0 F1000.0 ; intro line
G1 X100.0 E12.5 F1000.0 ; intro line
G92 E0.0
M221 S95

; Don't change E values below. Excessive value can damage the printer.

G21 ; set units to millimeters
G90 ; use absolute coordinates
M83 ; use relative distances for extrusion
M900 K0.05 ; Filament gcode LA 1.5
M900 K30 ; Filament gcode LA 1.0
M107
;LAYER_CHANGE
;Z:0.2
;HEIGHT:0.2
;BEFORE_LAYER_CHANGE
G92 E0.0
;0.2


M73 P1 R4
M73 Q1 S4
G1 E-.8 F2100
M73 P2 R4
M73 Q2 S4
G1 Z.4 F10800
;AFTER_LAYER_CHANGE
;0.2
G1 X110.616 Y79.622
G1 Z.2
G1 E.8 F2100
M204 S1000
;TYPE:Skirt/Brim
;WIDTH:0.42
G1 F1200
G1 X111.183 Y79.015 E.02395
G1 X112.521 Y78.045 E.0477
G1 X113.307 Y77.72 E.02451
G1 X114.258 Y77.63 E.02757
G1 X116.743 Y77.983 E.07239
G1 X121.881 Y78.881 E.15045
G1 X122.842 Y79.378 E.03124
M73 Q3 S4
G1 X124.317 Y80.685 E.05684
G1 X136.268 Y97.943 E.60554
M73 P3 R4
G1 X140.746 Y107.451 E.30315
G1 X141.699 Y110.415 E.08982
G1 X141.847 Y111.525 E.0323
G1 X141.734 Y112.781 E.03636
G1 X139.202 Y122.928 E.30169
G1 X138.713 Y124.474 E.04676
M73 Q4 S4
G1 X138.098 Y125.705 E.0397
G1 X137.505 Y126.425 E.0269
M73 P4 R4
G1 X135.441 Y128.459 E.08361
G1 X134.374 Y129.276 E.03877
G1 X133.405 Y129.817 E.032
G1 X128.451 Y132.058 E.15686
G1 X127.822 Y132.277 E.01919
G1 X127.277 Y132.364 E.01593
G1 X126.43 Y132.339 E.02443
G1 X121.806 Y131.563 E.13526
G1 X120.293 Y131.181 E.045
G1 X119.342 Y130.855 E.02901
G1 X118.155 Y130.238 E.03858
G1 X113.395 Y126.961 E.1667
G1 X112.689 Y126.363 E.02668
G1 X111.617 Y125.13 E.04714
G1 X111.185 Y124.495 E.02214
G1 X109.984 Y122.215 E.07433
G1 X109.713 Y121.221 E.02972
G1 X108.155 Y88.792 E.93654
G1 X108.192 Y87.363 E.04122
M73 P5 R4
M73 Q5 S4
G1 X108.403 Y85.176 E.0634
G1 X108.658 Y83.745 E.0419
G1 X109.058 Y82.501 E.03771
G1 X109.716 Y81.081 E.04514
G1 X110.585 Y79.673 E.04772
; printing object ToolyTradeMarkSTL.STL id:0 copy 0
;WIPE_START
G1 F8640
G1 X111.183 Y79.015 E-.20531
G1 X112.521 Y78.045 E-.38181
G1 X113.213 Y77.758 E-.17288
;WIPE_END
G1 E-.04 F2100
G1 Z.6 F10800
G1 X126.027 Y109.944
G1 Z.2
G1 E.8 F2100
;TYPE:External perimeter
G1 F1200
G1 X126.237 Y109.882 E.00631
G1 X126.347 Y109.879 E.00317
G1 X126.455 Y109.895 E.00317
G1 X126.656 Y109.982 E.00631
G1 X126.742 Y110.051 E.00317
G1 X126.872 Y110.226 E.00631
G1 X126.91 Y110.321 E.00294
G1 X126.931 Y110.566 E.00709
G1 X126.841 Y110.313 E.00774
G1 X126.696 Y110.161 E.00606
G1 X126.513 Y110.069 E.00589
G1 X126.285 Y110.047 E.00662
G1 X126.036 Y110.128 E.00755
G1 X125.877 Y110.268 E.00611
G1 X125.771 Y110.472 E.00662
G1 X125.754 Y110.733 E.00755
G1 X125.816 Y110.909 E.0054
G1 X125.702 Y110.686 E.00724
G1 X125.679 Y110.476 E.00609
G1 X125.723 Y110.281 E.00578
G1 X125.785 Y110.156 E.00402
G1 X125.851 Y110.073 E.00305
G1 X125.976 Y109.975 E.00459
G1 X126.206 Y110.07 F10800
;WIPE_START
G1 F8640
G1 X126.237 Y109.882 E-.064
G1 X126.347 Y109.879 E-.02535
G1 X126.455 Y109.895 E-.02535
G1 X126.656 Y109.982 E-.05052
G1 X126.742 Y110.051 E-.02535
G1 X126.872 Y110.226 E-.05052
M73 Q6 S4
G1 X126.91 Y110.321 E-.02356
G1 X126.931 Y110.566 E-.05674
G1 X126.841 Y110.313 E-.06199
G1 X126.696 Y110.161 E-.04855
G1 X126.513 Y110.069 E-.04718
G1 X126.285 Y110.047 E-.053
G1 X126.036 Y110.128 E-.06044
G1 X125.877 Y110.268 E-.04888
G1 X125.771 Y110.472 E-.053
G1 X125.754 Y110.733 E-.06044
G1 X125.761 Y110.754 E-.00512
;WIPE_END
G1 E-.04 F2100
G1 Z.6 F10800
G1 X126.812 Y100.506
G1 Z.2
M73 P6 R4
G1 E.8 F2100
G1 F1200
G1 X126.56 Y100.772 E.01057
G1 X126.376 Y100.891 E.00632
G1 X126.036 Y100.974 E.01009
G1 X125.172 Y101.037 E.02498
G1 X122.842 Y101.062 E.06721
G1 X121.583 Y101.118 E.03635
G1 X120.491 Y101.249 E.03174
G1 X118.765 Y101.31 E.04981
G1 X119.434 Y100.289 E.03521
G1 X119.713 Y99.719 E.01829
G1 X119.958 Y99.125 E.01854
G1 X120.109 Y98.868 E.0086
G1 X120.25 Y98.698 E.00636
G1 X120.421 Y98.549 E.00655
G1 X120.699 Y98.374 E.00948
G1 X121.193 Y98.16 E.01552
G1 X121.689 Y98.051 E.01466
G1 X121.97 Y98.026 E.00813
G1 X122.473 Y98.064 E.01456
G1 X123.403 Y98.27 E.02746
G1 X123.896 Y98.457 E.01523
G1 X124.362 Y98.736 E.01564
G1 X126.017 Y99.953 E.05927
G1 X126.305 Y100.198 E.01091
G1 X126.761 Y100.475 E.0154
G1 X127.09 Y100.745 F10800
;WIPE_START
G1 F8640
G1 X126.56 Y100.772 E-.08279
G1 X126.376 Y100.891 E-.05056
G1 X126.036 Y100.974 E-.08079
G1 X125.172 Y101.037 E-.19997
G1 X123.674 Y101.053 E-.3459
;WIPE_END
G1 E-.04 F2100
G1 Z.6 F10800
G1 X118.138 Y109.286
G1 Z.2
G1 E.8 F2100
G1 F1200
G1 X118.243 Y109.396 E.0044
G1 X118.309 Y109.582 E.00567
G1 X118.295 Y109.743 E.00466
G1 X118.19 Y109.931 E.00622
G1 X117.958 Y110.048 E.00748
G1 X117.789 Y110.041 E.00488
G1 X117.624 Y109.961 E.00529
G1 X117.517 Y109.837 E.00473
G1 X117.466 Y109.692 E.00444
G1 X117.478 Y109.509 E.00529
G1 X117.554 Y109.363 E.00473
G1 X117.669 Y109.261 E.00444
G1 X117.844 Y109.205 E.00529
G1 X118.007 Y109.22 E.00473
G1 X118.084 Y109.259 E.0025
G1 X118.277 Y109.224 F10800
;WIPE_START
G1 F8640
G1 X118.243 Y109.396 E-.04849
G1 X118.309 Y109.582 E-.04541
G1 X118.295 Y109.743 E-.03734
G1 X118.19 Y109.931 E-.04981
G1 X117.958 Y110.048 E-.05988
G1 X117.789 Y110.041 E-.03908
G1 X117.624 Y109.961 E-.04238
G1 X117.517 Y109.837 E-.03786
G1 X117.466 Y109.692 E-.03554
G1 X117.478 Y109.509 E-.04238
G1 X117.554 Y109.363 E-.03786
G1 X117.669 Y109.261 E-.03554
G1 X117.844 Y109.205 E-.04238
G1 X118.007 Y109.22 E-.03786
G1 X118.084 Y109.259 E-.01999
;WIPE_END
G1 E-.18821 F2100
G1 Z.6 F10800
G1 X116.469 Y110.098
M73 P6 R3
G1 Z.2
G1 E.8 F2100
;TYPE:Perimeter
G1 F1200
G1 X115.694 Y110.079 E.02236
G1 X115.992 Y109.787 E.01203
M73 Q7 S4
G1 X116.225 Y109.962 E.00841
G1 X116.416 Y110.069 E.00631
;WIPE_START
G1 F8640
G1 X115.694 Y110.079 E-.16689
G1 X115.992 Y109.787 E-.09631
G1 X116.225 Y109.962 E-.06732
G1 X116.416 Y110.069 E-.05052
;WIPE_END
M73 Q7 S3
G1 E-.41897 F2100
G1 Z.6 F10800
G1 X115.451 Y118.655
G1 Z.2
M73 P7 R3
G1 E.8 F2100
;TYPE:External perimeter
G1 F1200
G1 X115.545 Y119.154 E.01466
G1 X115.674 Y119.5 E.01064
G1 X115.998 Y120.079 E.01915
G1 X116.211 Y120.358 E.01014
G1 X116.347 Y120.477 E.00521
G1 X117.15 Y120.575 E.02333
G1 X117.307 Y120.636 E.00486
G1 X119.103 Y121.022 E.05299
G1 X120.198 Y121.374 E.03319
G1 X121.593 Y121.971 E.04377
G1 X122.289 Y122.171 E.02088
G1 X123.002 Y122.256 E.02072
G1 X123.877 Y122.23 E.02525
G1 X124.798 Y122.111 E.02678
G1 X124.948 Y122.078 E.00442
G1 X125.134 Y122.005 E.00578
G1 X126.226 Y122.003 E.0315
G1 X126.389 Y122.019 E.0047
G1 X126.608 Y122.005 E.00635
G1 X127.041 Y121.909 E.01279
G1 X128.497 Y121.427 E.04424
G1 X129.39 Y121.049 E.02798
G1 X130.086 Y120.641 E.02324
G1 X130.588 Y120.228 E.01875
G1 X131.05 Y119.707 E.02011
G1 X131.511 Y119.021 E.02382
G1 X132.073 Y117.934 E.03532
G1 X132.258 Y117.513 E.01325
G1 X132.636 Y116.528 E.03045
G1 X133.048 Y115.09 E.04314
G1 X133.315 Y113.64 E.04253
G1 X133.534 Y112.585 E.0311
G1 X134.207 Y110.601 E.06042
G1 X134.329 Y109.988 E.01805
G1 X134.355 Y109.435 E.01596
G1 X134.283 Y108.829 E.01761
G1 X134.164 Y108.25 E.01703
G1 X134.164 Y108.017 E.00673
G1 X134.215 Y107.851 E.00502
G1 X134.3 Y107.734 E.00417
G1 X134.425 Y107.646 E.0044
G1 X134.646 Y107.585 E.00662
G1 X134.981 Y107.612 E.00969
G1 X135.234 Y107.756 E.0084
G1 X135.373 Y107.941 E.00668
G1 X135.448 Y108.109 E.00531
G1 X135.524 Y108.386 E.00829
G1 X135.562 Y108.733 E.01007
G1 X135.535 Y109.239 E.0146
G1 X135.364 Y110.576 E.03888
G1 X135.334 Y111.467 E.02572
G1 X135.421 Y112.325 E.02489
G1 X135.539 Y112.771 E.01331
G1 X135.689 Y113.118 E.0109
G1 X135.881 Y113.418 E.01029
G1 X136.062 Y113.621 E.00783
G1 X136.23 Y113.758 E.00625
G1 X136.382 Y113.849 E.00511
G1 X136.522 Y113.905 E.00437
G1 X136.871 Y113.984 E.01032
G1 X136.871 Y115.029 E.03012
G1 X136.495 Y115.141 E.01132
G1 X136.306 Y115.166 E.0055
M73 Q8 S3
G1 X136.129 Y115.162 E.00511
G1 X135.815 Y115.077 E.00938
G1 X135.524 Y114.882 E.0101
G1 X135.366 Y114.713 E.00667
G1 X135.181 Y114.438 E.00957
G1 X135.014 Y114.081 E.01137
G1 X134.843 Y113.528 E.01669
G1 X134.711 Y112.734 E.0232
G1 X134.666 Y113.005 E.0079
G1 X134.314 Y114.448 E.04286
G1 X133.332 Y118.049 E.10766
G1 X132.979 Y119.145 E.03323
M73 P8 R3
G1 X132.647 Y119.849 E.02243
G1 X132.231 Y120.465 E.02143
G1 X131.664 Y121.071 E.02396
G1 X130.933 Y121.649 E.0269
G1 X129.967 Y122.208 E.03217
G1 X128.928 Y122.639 E.03244
G1 X127.655 Y122.994 E.03813
G1 X126.458 Y123.18 E.03494
G1 X125.199 Y123.247 E.03638
G1 X123.192 Y123.186 E.05792
G1 X121.687 Y123.021 E.04365
G1 X119.027 Y122.635 E.07755
G1 X118.432 Y122.455 E.01794
G1 X117.3 Y121.909 E.03623
G1 X117.113 Y121.765 E.00682
G1 X116.855 Y121.471 E.01128
G1 X116.832 Y121.677 E.00597
G1 X116.672 Y121.895 E.0078
G1 X116.408 Y121.904 E.00761
G1 X116.227 Y121.818 E.00581
G1 X116.046 Y121.681 E.00653
G1 X115.731 Y121.357 E.01303
G1 X115.155 Y120.559 E.02838
G1 X114.861 Y119.994 E.01839
G1 X114.731 Y119.558 E.01312
G1 X114.711 Y119.305 E.00732
G1 X114.751 Y118.8 E.0146
G1 X115.392 Y118.667 E.01889
G1 X115.824 Y118.512 F10800
;WIPE_START
G1 F8640
G1 X115.545 Y119.154 E-.11794
G1 X115.674 Y119.5 E-.08516
G1 X115.998 Y120.079 E-.15331
G1 X116.211 Y120.358 E-.08113
G1 X116.347 Y120.477 E-.04173
G1 X117.15 Y120.575 E-.18678
G1 X117.307 Y120.636 E-.03894
G1 X117.54 Y120.686 E-.05502
;WIPE_END
G1 E-.04 F2100
G1 Z.6 F10800
G1 X128.365 Y110.755
G1 Z.2
G1 E.8 F2100
;TYPE:Perimeter
G1 F1200
G1 X128.349 Y110.779 E.00084
G1 X128.521 Y110.792 E.00498
G1 X128.826 Y111.121 E.01293
G1 X128.899 Y111.55 E.01254
G1 X128.726 Y111.873 E.01059
G1 X128.489 Y112.08 E.00907
G1 X128.028 Y112.401 E.01619
G1 X127.549 Y112.636 E.0154
G1 X127.088 Y112.781 E.01393
G1 X126.638 Y112.852 E.01316
G1 X126.195 Y112.851 E.01278
G1 X125.667 Y112.766 E.01541
G1 X124.757 Y112.497 E.02739
G1 X124.185 Y112.226 E.01826
M73 Q9 S3
G1 X123.762 Y111.933 E.01482
G1 X123.477 Y111.663 E.01132
G1 X123.25 Y111.374 E.01063
G1 X122.984 Y110.868 E.01647
G1 X123.101 Y110.374 E.01466
G1 X123.206 Y110.304 E.00363
G1 X122.552 Y109.765 E.02443
G1 X123.419 Y109.187 E.03005
G1 X123.584 Y109.16 E.00481
G1 X123.54 Y108.808 E.01024
G1 X123.734 Y108.481 E.01095
M73 P9 R3
G1 X124.177 Y108.157 E.01585
G1 X124.659 Y107.904 E.01569
G1 X125.145 Y107.736 E.01483
G1 X125.712 Y107.635 E.01662
G1 X126.36 Y107.624 E.01869
G1 X127.868 Y107.779 E.04374
G1 X128.248 Y108.055 E.01355
G1 X128.336 Y108.552 E.01457
G1 X128.105 Y108.969 E.01374
G1 X127.72 Y109.124 E.01197
G1 X126.881 Y109.035 E.02435
G1 X127.412 Y109.286 E.01696
G1 X127.833 Y109.576 E.01473
G1 X128.135 Y109.856 E.01191
G1 X128.536 Y110.347 E.01827
G1 X128.388 Y110.699 E.01102
;WIPE_START
G1 F8640
G1 X128.349 Y110.779 E-.02046
G1 X128.521 Y110.792 E-.03989
G1 X128.826 Y111.121 E-.10347
G1 X128.899 Y111.55 E-.10042
G1 X128.726 Y111.873 E-.08478
G1 X128.489 Y112.08 E-.0726
G1 X128.028 Y112.401 E-.12959
G1 X127.549 Y112.636 E-.12331
G1 X127.196 Y112.747 E-.0855
;WIPE_END
G1 E-.04 F2100
G1 Z.6 F10800
G1 X127.666 Y108.739
G1 Z.2
G1 E.8 F2100
;TYPE:External perimeter
G1 F1200
G1 X126.469 Y108.612 E.03474
G1 X125.864 Y108.605 E.01746
G1 X125.449 Y108.67 E.01212
G1 X125.057 Y108.8 E.01191
G1 X124.706 Y108.982 E.0114
G1 X124.332 Y109.25 E.01328
G1 X124.106 Y109.241 E.00654
G1 X123.955 Y109.09 E.00613
G1 X123.93 Y108.889 E.00585
G1 X124.019 Y108.74 E.005
G1 X124.378 Y108.478 E.01282
G1 X124.809 Y108.251 E.01405
G1 X125.24 Y108.102 E.01316
G1 X125.748 Y108.012 E.0149
G1 X126.343 Y108.002 E.01717
G1 X127.728 Y108.143 E.04016
G1 X127.903 Y108.27 E.00623
G1 X127.941 Y108.486 E.00633
G1 X127.84 Y108.669 E.00603
G1 X127.722 Y108.717 E.00367
G1 X127.53 Y109.116 F10800
;WIPE_START
G1 F8640
G1 X126.469 Y108.612 E-.29034
G1 X125.864 Y108.605 E-.13974
G1 X125.449 Y108.67 E-.097
G1 X125.057 Y108.8 E-.09533
G1 X124.706 Y108.982 E-.09123
G1 X124.543 Y109.099 E-.04637
;WIPE_END
G1 E-.04 F2100
G1 Z.6 F10800
G1 X128.1 Y110.41
G1 Z.2
G1 E.8 F2100
G1 F1200
G1 X128.031 Y110.575 E.00517
G1 X127.91 Y110.756 E.00628
G1 X127.697 Y110.925 E.00785
G1 X127.511 Y111.019 E.006
G1 X126.57 Y111.348 E.02877
G1 X126.702 Y111.102 E.00805
G1 X126.61 Y111.17 E.00331
G1 X126.418 Y111.229 E.0058
G1 X126.208 Y111.22 E.00606
G1 X125.955 Y111.093 E.00816
G1 X125.843 Y110.955 E.00513
G1 X126.092 Y111.364 E.01382
G1 X125.239 Y111.109 E.02569
G1 X124.688 Y110.862 E.01741
G1 X123.91 Y110.395 E.02618
G1 X123.184 Y109.797 E.02711
G1 X123.561 Y109.546 E.01307
M73 Q10 S3
G1 X123.755 Y109.513 E.00567
G1 X124.042 Y109.563 E.0084
G1 X124.239 Y109.545 E.00569
G1 X124.337 Y109.513 E.00299
G1 X124.938 Y109.202 E.01951
G1 X125.183 Y109.116 E.0075
G1 X125.455 Y109.077 E.00793
G1 X125.626 Y109.074 E.00492
G1 X125.95 Y109.118 E.00944
G1 X126.594 Y109.317 E.01945
G1 X127.223 Y109.614 E.02008
G1 X127.596 Y109.871 E.01306
G1 X127.86 Y110.115 E.01036
G1 X128.063 Y110.364 E.00926
G1 X128.254 Y110.502 F10800
G1 X128.099 Y111.137
G1 F1200
M73 P10 R3
G1 X128.345 Y111.157 E.00712
G1 X128.473 Y111.295 E.00544
G1 X128.506 Y111.485 E.00557
G1 X128.426 Y111.634 E.00487
G1 X128.256 Y111.782 E.00649
G1 X127.837 Y112.075 E.01476
G1 X127.408 Y112.285 E.01376
G1 X127.002 Y112.413 E.0123
G1 X126.609 Y112.475 E.01146
G1 X126.226 Y112.474 E.01106
G1 X125.751 Y112.397 E.01387
G1 X124.892 Y112.144 E.02585
G1 X124.374 Y111.898 E.01653
G1 X124.001 Y111.64 E.01309
G1 X123.757 Y111.409 E.00969
G1 X123.568 Y111.168 E.00885
G1 X123.383 Y110.818 E.0114
G1 X123.434 Y110.604 E.00633
G1 X123.647 Y110.461 E.00741
G1 X123.903 Y110.545 E.00777
G1 X124.07 Y110.836 E.00967
G1 X124.202 Y111.004 E.00619
G1 X124.382 Y111.174 E.00713
G1 X124.677 Y111.378 E.01036
G1 X125.109 Y111.583 E.01379
G1 X125.903 Y111.815 E.02388
G1 X126.303 Y111.876 E.01165
G1 X126.589 Y111.873 E.00826
G1 X126.887 Y111.822 E.00874
G1 X127.212 Y111.715 E.00985
G1 X127.558 Y111.54 E.01118
G1 X128.051 Y111.173 E.01773
G1 X128.191 Y110.908 F10800
;WIPE_START
G1 F8640
G1 X128.345 Y111.157 E-.06801
G1 X128.473 Y111.295 E-.04358
G1 X128.506 Y111.485 E-.0446
G1 X128.426 Y111.634 E-.03901
G1 X128.256 Y111.782 E-.05196
G1 X127.837 Y112.075 E-.11813
G1 X127.408 Y112.285 E-.11014
G1 X127.002 Y112.413 E-.09843
G1 X126.609 Y112.475 E-.09176
G1 X126.226 Y112.474 E-.08851
G1 X126.201 Y112.47 E-.00586
;WIPE_END
G1 E-.04 F2100
G1 Z.6 F10800
G1 X130.211 Y112.456
G1 Z.2
G1 E.8 F2100
;TYPE:Perimeter
G1 F1200
G1 X130.959 Y113.161 E.02965
G1 X130.628 Y113.709 E.01845
G1 X129.987 Y114.556 E.03063
G1 X129.736 Y114.794 E.01
G1 X129.437 Y114.998 E.01044
G1 X127.899 Y115.75 E.04939
G1 X127.537 Y115.899 E.01128
G1 X127.236 Y115.976 E.00894
G1 X126.936 Y116.003 E.0087
G1 X126.565 Y115.976 E.01074
G1 X125.932 Y115.812 E.01886
G1 X123.908 Y115.049 E.0624
G1 X122.789 Y114.454 E.03654
G1 X122.581 Y114.302 E.00743
G1 X122.138 Y113.849 E.01826
G1 X121.42 Y113.049 E.03102
G1 X121.069 Y112.57 E.01713
G1 X120.896 Y112.172 E.01251
G1 X120.859 Y111.867 E.00886
G1 X120.906 Y111.586 E.00822
G1 X121.15 Y111.238 E.01227
G1 X121.446 Y111.078 E.0097
G1 X121.689 Y111.018 E.00723
G1 X122.067 Y111.033 E.0109
G1 X122.417 Y111.239 E.01172
G1 X122.643 Y111.539 E.01082
G1 X122.837 Y111.865 E.01096
G1 X122.913 Y111.932 E.00292
G1 X123.824 Y112.263 E.02796
G1 X124.189 Y112.468 E.01208
G1 X124.501 Y112.712 E.01143
G1 X125.045 Y113.335 E.02385
G1 X125.274 Y113.513 E.00838
G1 X125.48 Y113.604 E.00649
G1 X126.126 Y113.77 E.01922
G1 X126.481 Y113.841 E.01046
G1 X126.696 Y113.848 E.00619
G1 X127.039 Y113.805 E.00996
G1 X128.536 Y113.426 E.04455
